; generated by PrusaSlicer 2.3.0+win64 on 2021-03-13 at 10:00:00 UTC

; 

; external perimeters extrusion width = 0.45mm
; perimeters extrusion width = 0.45mm
; infill extrusion width = 0.45mm
; solid infill extrusion width = 0.45mm
; top infill extrusion width = 0.40mm
; first layer extrusion width = 0.30mm

M73 P0 R22
M73 Q0 S22
M201 X500 Y500 Z100 E5000 ; sets maximum accelerations, mm/sec^2
M203 X500 Y500 Z10 E60 ; sets maximum feedrates, mm/sec
M204 P500 R1000 T500 ; sets acceleration (P, T) and retract acceleration (R), mm/sec^2
M205 X8.00 Y8.00 Z0.40 E5.00 ; sets the jerk limits, mm/sec
M205 S0 T0 ; sets the minimum extruding and travel feed rate, mm/sec
M107
;TYPE:Custom
G90 ; use absolute coordinates
M83 ; extruder relative mode
M104 S195 ; set extruder temp
M140 S50 ; set bed temp
M190 S50 ; wait for bed temp
M109 S195 ; wait for extruder temp
M204 S600 ;acceleration
M220 S100 ;Reset Feedrate
M221 S100 ;Reset Flowrate
G28 ; home all
G29
G1 Z2 F240
G1 X2 Y10 F3000
G1 Z0.28 F240
G92 E0.0
G1 Y190 E15.0 F1500.0 ; intro line
M73 P0 R21
M73 Q0 S21
G1 X2.3 F5000
G1 Y10 E30 F1200.0 ; intro line
G92 E0.0
G21 ; set units to millimeters
G90 ; use absolute coordinates
M82 ; use absolute distances for extrusion
G92 E0
; Filament gcode
;LAYER_CHANGE
;Z:0.2
;HEIGHT:0.2
;BEFORE_LAYER_CHANGE
M117 INDICATOR-Layer1
;0.2


M73 P1 R21
M73 Q1 S21
G1 E-0.50000 F3600.000
G92 E0
G1 Z0.200 F18000.000
;AFTER_LAYER_CHANGE
;0.2
G1 X102.675 Y115.247
G1 E0.54000 F2400.000
;TYPE:Perimeter
;WIDTH:0.3
G1 F540.000
G1 X103.172 Y114.875 E0.55088
G1 X103.718 Y114.578 E0.56178
G1 X104.300 Y114.363 E0.57265
G1 X104.886 Y114.236 E0.58316
G1 X105.484 Y114.193 E0.59367
G1 X106.104 Y114.235 E0.60456
G1 X106.730 Y114.373 E0.61580
G1 X107.292 Y114.582 E0.62632
G1 X107.819 Y114.870 E0.63684
G1 X108.332 Y115.255 E0.64807
G1 X108.756 Y115.679 E0.65859
G1 X109.115 Y116.159 E0.66910
G1 X109.415 Y116.702 E0.67997
G1 X109.633 Y117.284 E0.69087
G1 X109.765 Y117.891 E0.70175
G1 X109.808 Y118.489 E0.71227
G1 X109.765 Y119.108 E0.72314
G1 X109.633 Y119.716 E0.73404
G1 X109.415 Y120.297 E0.74492
G1 X109.128 Y120.823 E0.75543
G1 X108.756 Y121.321 E0.76631
G1 X108.317 Y121.759 E0.77720
G1 X107.837 Y122.119 E0.78771
G1 X107.293 Y122.417 E0.79859
G1 X106.710 Y122.635 E0.80948
G1 X106.103 Y122.765 E0.82036
G1 X105.505 Y122.808 E0.83088
G1 X104.886 Y122.764 E0.84176
G1 X104.279 Y122.631 E0.85264
G1 X103.717 Y122.422 E0.86315
G1 X103.172 Y122.125 E0.87403
G1 X102.675 Y121.753 E0.88492
G1 X102.251 Y121.329 E0.89543
G1 X101.878 Y120.833 E0.90631
G1 X101.580 Y120.287 E0.91720
G1 X101.364 Y119.705 E0.92808
G1 X101.237 Y119.119 E0.93860
G1 X101.192 Y118.500 E0.94948
G1 X101.237 Y117.881 E0.96036
G1 X101.364 Y117.295 E0.97088
G1 X101.580 Y116.713 E0.98176
G1 X101.878 Y116.167 E0.99265
G1 X102.251 Y115.671 E1.00353
G1 X102.633 Y115.290 E1.01299
G1 X102.815 Y115.472 F18000.000
;TYPE:External perimeter
G1 F540.000
G1 X103.311 Y115.092 E1.02395
G1 X103.825 Y114.813 E1.03419
G1 X104.372 Y114.611 E1.04442
G1 X104.923 Y114.491 E1.05429
G1 X105.485 Y114.451 E1.06417
G1 X106.067 Y114.490 E1.07440
G1 X106.657 Y114.620 E1.08499
G1 X107.185 Y114.817 E1.09487
G1 X107.680 Y115.087 E1.10475
G1 X108.163 Y115.449 E1.11534
G1 X108.561 Y115.848 E1.12521
G1 X108.899 Y116.299 E1.13509
G1 X109.181 Y116.810 E1.14532
G1 X109.386 Y117.357 E1.15556
G1 X109.510 Y117.928 E1.16580
G1 X109.550 Y118.490 E1.17567
G1 X109.510 Y119.072 E1.18590
G1 X109.386 Y119.643 E1.19614
G1 X109.181 Y120.190 E1.20638
G1 X108.911 Y120.684 E1.21625
G1 X108.561 Y121.152 E1.22649
G1 X108.148 Y121.565 E1.23673
G1 X107.697 Y121.902 E1.24660
G1 X107.185 Y122.183 E1.25684
G1 X106.638 Y122.387 E1.26708
G1 X106.067 Y122.510 E1.27731
G1 X105.505 Y122.550 E1.28718
G1 X104.923 Y122.509 E1.29742
G1 X104.352 Y122.384 E1.30766
G1 X103.824 Y122.187 E1.31753
G1 X103.311 Y121.908 E1.32777
G1 X102.844 Y121.558 E1.33800
G1 X102.446 Y121.160 E1.34788
G1 X102.095 Y120.693 E1.35811
G1 X101.815 Y120.180 E1.36835
G1 X101.612 Y119.633 E1.37859
G1 X101.492 Y119.082 E1.38846
G1 X101.450 Y118.500 E1.39870
G1 X101.492 Y117.918 E1.40893
G1 X101.612 Y117.367 E1.41881
G1 X101.815 Y116.820 E1.42904
G1 X102.095 Y116.307 E1.43928
G1 X102.446 Y115.840 E1.44952
G1 X102.772 Y115.514 E1.45761
G1 X102.736 Y115.079 F18000.000
G1 E1.10761 F3600.000
;WIPE_START
G1 F14400.000
G1 X103.245 Y115.144 E0.96511
;WIPE_END
G1 E0.95761 F3600.000
G92 E0
G1 X109.207 Y121.960 F18000.000
G1 E0.54000 F2400.000
;TYPE:Perimeter
G1 F540.000
G1 X109.322 Y121.846 E0.54284
G1 X109.322 Y122.322 E0.55117
G1 X108.845 Y122.322 E0.55952
G1 X109.165 Y122.003 E0.56743
G1 X109.473 Y121.220 F18000.000
G1 F540.000
G1 X109.579 Y121.255 E0.56939
G1 X109.579 Y122.579 E0.59259
G1 X108.256 Y122.579 E0.61577
G1 X108.221 Y122.473 E0.61771
G1 X108.654 Y122.149 E0.62719
G1 X109.146 Y121.658 E0.63937
G1 X109.437 Y121.268 E0.64791
G1 X109.709 Y120.245 F18000.000
G1 F540.000
G1 X109.836 Y120.268 E0.65016
G1 X109.836 Y122.836 E0.69517
M73 P2 R21
M73 Q2 S21
G1 X107.269 Y122.836 E0.74016
G1 X107.247 Y122.709 E0.74242
G1 X107.400 Y122.652 E0.74528
G1 X107.976 Y122.336 E0.75681
G1 X108.485 Y121.954 E0.76796
G1 X108.951 Y121.490 E0.77949
G1 X109.345 Y120.963 E0.79102
G1 X109.649 Y120.404 E0.80217
G1 X109.688 Y120.301 E0.80410
G1 E0.45410 F3600.000
;WIPE_START
G1 F14400.000
G1 X109.836 Y120.268 E0.41812
G1 X109.836 Y120.717 E0.31160
;WIPE_END
G1 E0.30410 F3600.000
G92 E0
G1 X114.436 Y108.967 F18000.000
G1 E0.54000 F2400.000
G1 F540.000
G1 X113.896 Y108.655 E0.55093
G1 X113.451 Y108.235 E0.56165
G1 X113.101 Y107.709 E0.57274
G1 X112.886 Y107.120 E0.58373
G1 X112.814 Y106.500 E0.59466
G1 X112.886 Y105.880 E0.60559
G1 X113.099 Y105.294 E0.61653
G1 X113.442 Y104.773 E0.62746
G1 X113.896 Y104.345 E0.63839
G1 X114.436 Y104.033 E0.64933
G1 X115.034 Y103.854 E0.66026
G1 X115.644 Y103.819 E0.67098
G1 X116.267 Y103.925 E0.68206
G1 X116.843 Y104.174 E0.69306
G1 X117.343 Y104.546 E0.70399
G1 X117.744 Y105.024 E0.71492
G1 X118.024 Y105.581 E0.72585
G1 X118.168 Y106.188 E0.73679
G1 X118.168 Y106.812 E0.74772
G1 X118.024 Y107.419 E0.75865
G1 X117.744 Y107.976 E0.76959
G1 X117.351 Y108.445 E0.78031
G1 X116.846 Y108.825 E0.79139
G1 X116.270 Y109.073 E0.80238
G1 X115.656 Y109.182 E0.81331
G1 X115.034 Y109.146 E0.82425
G1 X114.493 Y108.984 E0.83413
G1 X114.567 Y108.738 F18000.000
G1 F540.000
G1 X114.050 Y108.447 E0.84452
G1 X113.649 Y108.068 E0.85420
G1 X113.332 Y107.592 E0.86423
G1 X113.138 Y107.060 E0.87416
G1 X113.072 Y106.500 E0.88404
G1 X113.138 Y105.940 E0.89391
G1 X113.331 Y105.411 E0.90379
G1 X113.640 Y104.940 E0.91367
G1 X114.050 Y104.553 E0.92355
G1 X114.539 Y104.271 E0.93343
G1 X115.078 Y104.109 E0.94331
G1 X115.630 Y104.077 E0.95299
G1 X116.194 Y104.173 E0.96302
G1 X116.714 Y104.398 E0.97295
G1 X117.166 Y104.734 E0.98283
G1 X117.528 Y105.166 E0.99271
G1 X117.781 Y105.670 E1.00259
G1 X117.911 Y106.218 E1.01247
G1 X117.911 Y106.782 E1.02235
G1 X117.781 Y107.330 E1.03223
G1 X117.528 Y107.834 E1.04211
G1 X117.173 Y108.257 E1.05179
G1 X116.716 Y108.601 E1.06181
G1 X116.196 Y108.826 E1.07174
G1 X115.641 Y108.923 E1.08162
G1 X115.078 Y108.891 E1.09150
G1 X114.625 Y108.755 E1.09980
G1 X114.641 Y108.491 F18000.000
G1 F540.000
G1 X114.205 Y108.240 E1.10863
G1 X113.846 Y107.901 E1.11727
G1 X113.563 Y107.475 E1.12624
G1 X113.390 Y107.000 E1.13510
G1 X113.331 Y106.500 E1.14393
G1 X113.390 Y106.000 E1.15276
G1 X113.562 Y105.527 E1.16158
G1 X113.839 Y105.106 E1.17041
G1 X114.205 Y104.760 E1.17924
G1 X114.641 Y104.509 E1.18806
G1 X115.123 Y104.364 E1.19689
G1 X115.616 Y104.336 E1.20553
G1 X116.120 Y104.422 E1.21450
G1 X116.584 Y104.622 E1.22336
G1 X116.988 Y104.923 E1.23219
G1 X117.312 Y105.308 E1.24102
G1 X117.538 Y105.758 E1.24984
G1 X117.654 Y106.248 E1.25867
G1 X117.654 Y106.752 E1.26749
G1 X117.538 Y107.242 E1.27632
G1 X117.312 Y107.692 E1.28515
G1 X116.995 Y108.069 E1.29379
G1 X116.586 Y108.377 E1.30276
G1 X116.122 Y108.578 E1.31162
G1 X115.626 Y108.665 E1.32045
G1 X115.123 Y108.636 E1.32927
G1 X114.699 Y108.509 E1.33705
G1 X114.772 Y108.262 F18000.000
G1 F540.000
G1 X114.360 Y108.032 E1.34533
G1 X114.044 Y107.734 E1.35293
G1 X113.794 Y107.358 E1.36085
G1 X113.642 Y106.940 E1.36865
G1 X113.590 Y106.500 E1.37642
G1 X113.642 Y106.060 E1.38419
G1 X113.793 Y105.643 E1.39197
G1 X114.037 Y105.272 E1.39974
G1 X114.360 Y104.968 E1.40751
G1 X114.744 Y104.746 E1.41528
G1 X115.168 Y104.619 E1.42306
G1 X115.601 Y104.594 E1.43066
G1 X116.047 Y104.670 E1.43858
G1 X116.455 Y104.846 E1.44637
G1 X116.811 Y105.111 E1.45414
G1 X117.096 Y105.451 E1.46192
G1 X117.295 Y105.847 E1.46969
G1 X117.397 Y106.278 E1.47746
G1 X117.397 Y106.722 E1.48524
G1 X117.295 Y107.153 E1.49301
G1 X117.096 Y107.549 E1.50078
G1 X116.817 Y107.882 E1.50838
G1 X116.456 Y108.154 E1.51630
G1 X116.048 Y108.330 E1.52410
G1 X115.611 Y108.407 E1.53187
G1 X115.168 Y108.381 E1.53964
G1 X114.830 Y108.279 E1.54584
G1 X114.846 Y108.016 F18000.000
;TYPE:External perimeter
G1 F540.000
G1 X114.514 Y107.824 E1.55256
G1 X114.242 Y107.568 E1.55912
G1 X114.025 Y107.241 E1.56599
G1 X113.893 Y106.881 E1.57271
G1 X113.849 Y106.500 E1.57943
G1 X113.893 Y106.119 E1.58615
G1 X114.025 Y105.759 E1.59287
G1 X114.235 Y105.439 E1.59959
G1 X114.514 Y105.176 E1.60631
G1 X114.846 Y104.984 E1.61303
G1 X115.213 Y104.874 E1.61975
G1 X115.587 Y104.852 E1.62631
G1 X115.973 Y104.918 E1.63318
G1 X116.326 Y105.070 E1.63990
G1 X116.633 Y105.299 E1.64662
G1 X116.879 Y105.593 E1.65334
G1 X117.051 Y105.935 E1.66006
G1 X117.140 Y106.308 E1.66678
G1 X117.140 Y106.692 E1.67350
G1 X117.051 Y107.065 E1.68022
G1 X116.879 Y107.407 E1.68694
G1 X116.639 Y107.694 E1.69350
G1 X116.326 Y107.930 E1.70037
G1 X115.974 Y108.082 E1.70709
G1 X115.596 Y108.148 E1.71381
G1 X115.213 Y108.126 E1.72053
G1 X114.904 Y108.033 E1.72620
G1 X114.539 Y108.245 F18000.000
G1 E1.37620 F3600.000
;WIPE_START
G1 F14400.000
G1 X114.514 Y107.824 E1.27124
G1 X114.399 Y107.716 E1.23370
;WIPE_END
G1 E1.22620 F3600.000
G92 E0
G1 X119.322 Y102.678 F18000.000
G1 E0.54000 F2400.000
;TYPE:Perimeter
G1 F2700.000
G1 X124.473 Y102.678 E0.63030
G1 X124.477 Y102.829 E0.63294
G1 X124.006 Y102.850 E0.64121
G1 X123.362 Y102.997 E0.65279
G1 X122.755 Y103.257 E0.66436
G1 X122.204 Y103.620 E0.67593
G1 X121.726 Y104.077 E0.68751
G1 X121.338 Y104.611 E0.69908
G1 X121.052 Y105.206 E0.71066
G1 X120.876 Y105.842 E0.72223
G1 X120.817 Y106.500 E0.73380
G1 X120.876 Y107.158 E0.74538
G1 X121.052 Y107.794 E0.75695
G1 X121.338 Y108.389 E0.76853
G1 X121.726 Y108.923 E0.78010
G1 X122.204 Y109.380 E0.79167
G1 X122.755 Y109.743 E0.80325
G1 X123.362 Y110.003 E0.81482
G1 X124.006 Y110.150 E0.82640
G1 X124.477 Y110.171 E0.83466
G1 X124.473 Y110.322 E0.83730
G1 X117.469 Y110.322 E0.96007
G1 X116.643 Y110.365 E0.97456
G1 X115.780 Y110.504 E0.98989
G1 X114.972 Y110.720 E1.00455
G1 X114.173 Y111.027 E1.01956
G1 X113.410 Y111.416 E1.03457
G1 X112.692 Y111.882 E1.04958
G1 X112.027 Y112.421 E1.06458
G1 X111.421 Y113.027 E1.07959
G1 X110.881 Y113.693 E1.09463
G1 X110.407 Y114.428 E1.10995
G1 X110.027 Y115.173 E1.12462
G1 X109.795 Y115.779 E1.13600
G1 X109.341 Y115.173 E1.14928
G1 X108.838 Y114.671 E1.16173
G1 X108.238 Y114.220 E1.17489
G1 X107.613 Y113.879 E1.18736
G1 X106.949 Y113.631 E1.19979
G1 X106.213 Y113.469 E1.21300
G1 X105.482 Y113.420 E1.22584
G1 X104.776 Y113.471 E1.23825
G1 X104.084 Y113.621 E1.25067
G1 X103.399 Y113.874 E1.26346
G1 X102.754 Y114.224 E1.27632
G1 X102.169 Y114.663 E1.28915
G1 X101.667 Y115.164 E1.30157
G1 X101.228 Y115.748 E1.31438
G1 X100.876 Y116.392 E1.32724
G1 X100.622 Y117.078 E1.34006
G1 X100.472 Y117.770 E1.35248
G1 X100.419 Y118.500 E1.36531
G1 X100.472 Y119.230 E1.37813
G1 X100.622 Y119.922 E1.39056
G1 X100.876 Y120.608 E1.40337
G1 X101.228 Y121.252 E1.41623
G1 X101.667 Y121.836 E1.42904
G1 X102.154 Y122.322 E1.44109
G1 X88.845 Y122.322 E1.67437
G1 X89.341 Y121.827 E1.68664
G1 X89.778 Y121.241 E1.69946
G1 X90.118 Y120.619 E1.71189
G1 X90.375 Y119.934 E1.72470
G1 X90.530 Y119.217 E1.73756
G1 X90.581 Y118.488 E1.75037
G1 X90.530 Y117.781 E1.76279
G1 X90.375 Y117.066 E1.77562
G1 X90.117 Y116.379 E1.78848
G1 X89.765 Y115.740 E1.80127
G1 X89.341 Y115.173 E1.81369
G1 X88.846 Y114.678 E1.82595
G1 X96.531 Y114.678 E1.96066
G1 X97.367 Y114.634 E1.97533
G1 X98.241 Y114.492 E1.99085
G1 X99.058 Y114.270 E2.00569
G1 X99.866 Y113.955 E2.02089
G1 X100.636 Y113.557 E2.03608
G1 X101.361 Y113.079 E2.05130
G1 X102.043 Y112.514 E2.06682
G1 X102.636 Y111.910 E2.08166
G1 X103.174 Y111.230 E2.09686
G1 X103.637 Y110.497 E2.11205
G1 X104.021 Y109.718 E2.12729
G1 X104.587 Y108.153 E2.15645
G1 X104.926 Y107.425 E2.17053
G1 X105.328 Y106.732 E2.18458
G1 X105.791 Y106.078 E2.19862
G1 X106.312 Y105.469 E2.21267
G1 X106.886 Y104.910 E2.22672
G1 X107.508 Y104.405 E2.24076
G1 X108.173 Y103.959 E2.25481
G1 X108.877 Y103.575 E2.26885
G1 X109.612 Y103.256 E2.28290
G1 X110.373 Y103.005 E2.29694
G1 X111.154 Y102.825 E2.31099
G1 X111.948 Y102.716 E2.32503
G1 X112.775 Y102.678 E2.33955
G1 X114.678 Y102.678 E2.37291
G1 X114.678 Y97.678 E2.46056
G1 X119.322 Y97.678 E2.54195
G1 X119.322 Y102.618 E2.62854
G1 E2.27854 F3600.000
;WIPE_START
G1 F14400.000
G1 X119.922 Y102.625 E2.13604
;WIPE_END
G1 E2.12854 F3600.000
G92 E0
G1 X121.921 Y104.247 F18000.000
G1 E0.54000 F2400.000
G1 F540.000
G1 X122.365 Y103.822 E0.55076
G1 X122.877 Y103.484 E0.56153
G1 X123.442 Y103.243 E0.57229
M73 P3 R21
M73 Q3 S21
G1 X124.040 Y103.106 E0.58305
G1 X124.640 Y103.079 E0.59358
G1 X125.260 Y103.160 E0.60454
G1 X125.846 Y103.351 E0.61534
G1 X126.387 Y103.642 E0.62610
G1 X126.867 Y104.024 E0.63686
G1 X127.271 Y104.487 E0.64763
G1 X127.586 Y105.014 E0.65839
G1 X127.802 Y105.589 E0.66915
G1 X127.911 Y106.193 E0.67991
G1 X127.911 Y106.807 E0.69068
G1 X127.802 Y107.411 E0.70144
G1 X127.586 Y107.986 E0.71220
G1 X127.271 Y108.513 E0.72297
G1 X126.867 Y108.976 E0.73373
G1 X126.387 Y109.358 E0.74449
G1 X125.846 Y109.649 E0.75526
G1 X125.262 Y109.839 E0.76602
G1 X124.654 Y109.922 E0.77678
G1 X124.040 Y109.894 E0.78754
G1 X123.442 Y109.757 E0.79831
G1 X122.877 Y109.516 E0.80907
G1 X122.365 Y109.178 E0.81983
G1 X121.921 Y108.753 E0.83060
G1 X121.560 Y108.257 E0.84136
G1 X121.293 Y107.703 E0.85212
G1 X121.130 Y107.112 E0.86288
G1 X121.075 Y106.500 E0.87365
G1 X121.130 Y105.888 E0.88441
G1 X121.293 Y105.297 E0.89517
G1 X121.560 Y104.743 E0.90594
G1 X121.885 Y104.295 E0.91565
G1 X122.093 Y104.446 F18000.000
G1 F540.000
G1 X122.526 Y104.024 E0.92624
G1 X122.999 Y103.711 E0.93619
G1 X123.521 Y103.488 E0.94614
G1 X124.075 Y103.362 E0.95609
G1 X124.629 Y103.337 E0.96582
G1 X125.203 Y103.412 E0.97597
G1 X125.745 Y103.588 E0.98594
G1 X126.245 Y103.857 E0.99589
G1 X126.688 Y104.211 E1.00585
G1 X127.062 Y104.639 E1.01580
G1 X127.353 Y105.126 E1.02575
G1 X127.553 Y105.658 E1.03570
G1 X127.654 Y106.216 E1.04565
G1 X127.654 Y106.784 E1.05561
G1 X127.553 Y107.342 E1.06556
G1 X127.353 Y107.874 E1.07551
G1 X127.062 Y108.361 E1.08546
G1 X126.688 Y108.789 E1.09541
G1 X126.245 Y109.143 E1.10536
G1 X125.745 Y109.412 E1.11532
G1 X125.205 Y109.587 E1.12527
G1 X124.642 Y109.664 E1.13522
G1 X124.075 Y109.638 E1.14517
G1 X123.521 Y109.512 E1.15512
G1 X122.999 Y109.289 E1.16507
G1 X122.526 Y108.976 E1.17503
G1 X122.115 Y108.584 E1.18498
G1 X121.781 Y108.124 E1.19493
G1 X121.535 Y107.613 E1.20488
G1 X121.384 Y107.065 E1.21483
G1 X121.333 Y106.500 E1.22479
G1 X121.384 Y105.935 E1.23474
G1 X121.535 Y105.387 E1.24469
G1 X121.781 Y104.876 E1.25464
G1 X122.058 Y104.495 E1.26289
G1 X122.310 Y104.586 F18000.000
G1 F540.000
G1 X122.686 Y104.226 E1.27203
G1 X123.122 Y103.939 E1.28118
G1 X123.601 Y103.734 E1.29032
G1 X124.110 Y103.618 E1.29946
G1 X124.618 Y103.595 E1.30839
G1 X125.146 Y103.664 E1.31772
G1 X125.643 Y103.825 E1.32688
G1 X126.102 Y104.072 E1.33602
G1 X126.510 Y104.398 E1.34516
G1 X126.853 Y104.790 E1.35430
G1 X127.121 Y105.238 E1.36344
G1 X127.304 Y105.726 E1.37258
G1 X127.397 Y106.239 E1.38172
G1 X127.397 Y106.761 E1.39086
G1 X127.304 Y107.274 E1.40000
G1 X127.121 Y107.762 E1.40914
G1 X126.853 Y108.210 E1.41828
G1 X126.510 Y108.602 E1.42742
G1 X126.102 Y108.928 E1.43656
G1 X125.643 Y109.175 E1.44570
G1 X125.147 Y109.336 E1.45484
