; generated by PrusaSlicer 2.3.0+win64 on 2021-03-02 at 18:15:21 UTC

; 

; external perimeters extrusion width = 0.45mm
; perimeters extrusion width = 0.45mm
; infill extrusion width = 0.45mm
; solid infill extrusion width = 0.45mm
; top infill extrusion width = 0.40mm
; first layer extrusion width = 0.30mm

M73 P0 R103
M73 Q0 S103
M201 X500 Y500 Z100 E5000 ; sets maximum accelerations, mm/sec^2
M203 X500 Y500 Z10 E60 ; sets maximum feedrates, mm/sec
M204 P500 R1000 T500 ; sets acceleration (P, T) and retract acceleration (R), mm/sec^2
M205 X8.00 Y8.00 Z0.40 E5.00 ; sets the jerk limits, mm/sec
M205 S0 T0 ; sets the minimum extruding and travel feed rate, mm/sec
M107
;TYPE:Custom
G90 ; use absolute coordinates
M83 ; extruder relative mode
M104 S215 ; set extruder temp
M140 S60 ; set bed temp
M190 S60 ; wait for bed temp
M109 S215 ; wait for extruder temp
M204 S600 ;acceleration
M220 S100 ;Reset Feedrate
M221 S100 ;Reset Flowrate
G28 ; home all
G29
G1 Z2 F240
G1 X2 Y10 F3000
G1 Z0.28 F240
G92 E0.0
G1 Y190 E15.0 F1500.0 ; intro line
G1 X2.3 F5000
G1 Y10 E30 F1200.0 ; intro line
G92 E0.0
G21 ; set units to millimeters
G90 ; use absolute coordinates
M82 ; use absolute distances for extrusion
G92 E0
; Filament gcode
;LAYER_CHANGE
;Z:0.2
;HEIGHT:0.2
;BEFORE_LAYER_CHANGE
M117 INDICATOR-Layer1
;0.2


G1 E-0.50000 F3600.000
G92 E0
G1 Z0.200 F18000.000
;AFTER_LAYER_CHANGE
;0.2
G1 X50.079 Y104.579
G1 E0.58000 F2400.000
;TYPE:Perimeter
;WIDTH:0.3
G1 F2700.000
G1 X150.921 Y104.579 E2.34762
G1 X150.921 Y115.421 E2.53767
G1 X50.079 Y115.421 E4.30529
G1 X50.079 Y104.639 E4.49429
G1 X50.336 Y104.836 F18000.000
G1 F2700.000
G1 X150.664 Y104.836 E6.25290
G1 X150.664 Y115.164 E6.43394
G1 X50.336 Y115.164 E8.19255
G1 X50.336 Y104.896 E8.37254
G1 X50.593 Y105.093 F18000.000
G1 F2700.000
G1 X150.407 Y105.093 E10.12214
G1 X150.407 Y114.907 E10.29416
G1 X50.593 Y114.907 E12.04376
G1 X50.593 Y105.153 E12.21473
G1 X50.850 Y105.350 F18000.000
;TYPE:External perimeter
G1 F540.000
G1 X150.150 Y105.350 E13.95532
G1 X150.150 Y114.650 E14.11833
G1 X50.850 Y114.650 E15.85892
M73 P0 R102
M73 Q0 S102
G1 X50.850 Y105.410 E16.02088
G1 X50.661 Y104.998 F18000.000
G1 E15.67088 F3600.000
;WIPE_START
G1 F14400.000
G1 X51.450 Y105.410 E15.52838
;WIPE_END
G1 E15.52088 F3600.000
G92 E0
G1 X155.079 Y103.421 F18000.000
G1 E0.58000 F2400.000
;TYPE:Perimeter
G1 F2700.000
G1 X173.937 Y103.421 E0.91057
G1 X174.063 Y103.438 E0.91278
G1 X174.079 Y103.560 E0.91494
G1 X174.079 Y104.440 E0.93035
G1 X174.063 Y104.563 E0.93252
G1 X173.940 Y104.579 E0.93470
G1 X155.079 Y104.579 E1.26530
G1 X155.079 Y115.421 E1.45535
G1 X173.940 Y115.421 E1.78596
G1 X174.063 Y115.437 E1.78813
G1 X174.079 Y115.560 E1.79031
G1 X174.079 Y116.440 E1.80572
G1 X174.063 Y116.563 E1.80789
G1 X173.940 Y116.579 E1.81006
G1 X155.079 Y116.579 E2.14067
G1 X155.079 Y128.940 E2.35734
G1 X155.063 Y129.063 E2.35951
G1 X154.940 Y129.079 E2.36168
G1 X151.060 Y129.079 E2.42968
M73 P1 R102
M73 Q1 S102
G1 X150.937 Y129.063 E2.43185
G1 X150.921 Y128.940 E2.43403
G1 X150.921 Y116.579 E2.65070
G1 X50.079 Y116.579 E4.41832
G1 X50.079 Y128.940 E4.63498
G1 X50.063 Y129.063 E4.63716
G1 X49.940 Y129.079 E4.63933
G1 X46.060 Y129.079 E4.70733
G1 X45.937 Y129.063 E4.70950
G1 X45.921 Y128.940 E4.71168
G1 X45.921 Y91.060 E5.37564
G1 X45.937 Y90.937 E5.37782
G1 X46.060 Y90.921 E5.37999
G1 X49.952 Y90.923 E5.44821
G1 X50.063 Y90.937 E5.45016
G1 X50.079 Y91.060 E5.45234
G1 X50.079 Y103.421 E5.66900
G1 X150.921 Y103.421 E7.43662
G1 X150.921 Y91.060 E7.65329
G1 X150.937 Y90.937 E7.65547
G1 X151.060 Y90.921 E7.65764
G1 X154.940 Y90.921 E7.72564
G1 X155.063 Y90.937 E7.72781
G1 X155.079 Y91.060 E7.72998
G1 X155.079 Y103.361 E7.94560
G1 X155.336 Y103.164 F18000.000
G1 F2700.000
G1 X173.955 Y103.164 E8.27197
G1 X174.088 Y103.182 E8.27433
G1 X174.165 Y103.214 E8.27578
G1 X174.233 Y103.267 E8.27729
G1 X174.319 Y103.415 E8.28029
G1 X174.336 Y103.544 E8.28257
G1 X174.336 Y104.456 E8.29857
G1 X174.319 Y104.585 E8.30085
G1 X174.233 Y104.733 E8.30384
G1 X174.085 Y104.819 E8.30684
G1 X173.956 Y104.836 E8.30912
G1 X155.336 Y104.836 E8.63551
G1 X155.336 Y115.164 E8.81655
G1 X173.956 Y115.164 E9.14294
G1 X174.085 Y115.181 E9.14522
G1 X174.165 Y115.214 E9.14674
G1 X174.233 Y115.267 E9.14825
G1 X174.319 Y115.415 E9.15124
G1 X174.336 Y115.544 E9.15352
G1 X174.336 Y116.456 E9.16952
G1 X174.319 Y116.585 E9.17180
G1 X174.233 Y116.733 E9.17480
G1 X174.085 Y116.819 E9.17779
G1 X173.956 Y116.836 E9.18007
G1 X155.336 Y116.836 E9.50647
G1 X155.336 Y128.956 E9.71892
G1 X155.319 Y129.085 E9.72120
G1 X155.286 Y129.165 E9.72271
G1 X155.233 Y129.233 E9.72423
G1 X155.085 Y129.319 E9.72722
G1 X154.956 Y129.336 E9.72950
G1 X151.044 Y129.336 E9.79809
G1 X150.915 Y129.319 E9.80037
G1 X150.835 Y129.286 E9.80188
G1 X150.767 Y129.233 E9.80339
G1 X150.681 Y129.085 E9.80639
G1 X150.664 Y128.956 E9.80867
G1 X150.664 Y116.836 E10.02112
G1 X50.336 Y116.836 E11.77973
G1 X50.336 Y128.956 E11.99219
G1 X50.319 Y129.085 E11.99447
G1 X50.233 Y129.233 E11.99746
G1 X50.165 Y129.286 E11.99897
G1 X50.085 Y129.319 E12.00048
G1 X49.956 Y129.336 E12.00276
G1 X46.044 Y129.336 E12.07135
G1 X45.915 Y129.319 E12.07363
G1 X45.835 Y129.286 E12.07514
G1 X45.767 Y129.233 E12.07665
G1 X45.681 Y129.085 E12.07965
G1 X45.664 Y128.956 E12.08193
G1 X45.664 Y91.044 E12.74649
G1 X45.681 Y90.915 E12.74877
G1 X45.713 Y90.839 E12.75020
G1 X45.774 Y90.761 E12.75194
G1 X45.915 Y90.681 E12.75478
G1 X46.043 Y90.664 E12.75705
G1 X49.969 Y90.666 E12.82587
G1 X50.085 Y90.681 E12.82792
G1 X50.165 Y90.714 E12.82943
G1 X50.233 Y90.767 E12.83094
G1 X50.319 Y90.915 E12.83394
G1 X50.336 Y91.044 E12.83622
G1 X50.336 Y103.164 E13.04868
G1 X150.664 Y103.164 E14.80728
G1 X150.664 Y91.044 E15.01974
G1 X150.681 Y90.915 E15.02202
G1 X150.714 Y90.835 E15.02353
G1 X150.835 Y90.714 E15.02653
G1 X150.915 Y90.681 E15.02804
G1 X151.044 Y90.664 E15.03032
G1 X154.956 Y90.664 E15.09891
G1 X155.085 Y90.681 E15.10119
G1 X155.233 Y90.767 E15.10418
G1 X155.319 Y90.915 E15.10718
G1 X155.336 Y91.044 E15.10946
G1 X155.336 Y103.104 E15.32086
G1 X155.593 Y102.907 F18000.000
G1 F2700.000
G1 X173.972 Y102.907 E15.64303
G1 X174.156 Y102.932 E15.64628
G1 X174.295 Y102.990 E15.64891
G1 X174.417 Y103.083 E15.65160
G1 X174.510 Y103.205 E15.65430
G1 X174.569 Y103.347 E15.65700
G1 X174.593 Y103.527 E15.66017
G1 X174.593 Y104.473 E15.67676
G1 X174.569 Y104.653 E15.67993
G1 X174.510 Y104.795 E15.68263
G1 X174.417 Y104.917 E15.68532
G1 X174.295 Y105.010 E15.68802
G1 X174.153 Y105.069 E15.69072
G1 X173.973 Y105.093 E15.69389
G1 X155.593 Y105.093 E16.01607
G1 X155.593 Y114.907 E16.18810
G1 X173.973 Y114.907 E16.51028
G1 X174.153 Y114.931 E16.51345
G1 X174.295 Y114.990 E16.51614
G1 X174.417 Y115.083 E16.51884
G1 X174.510 Y115.205 E16.52154
G1 X174.569 Y115.347 E16.52423
G1 X174.593 Y115.527 E16.52740
G1 X174.593 Y116.473 E16.54400
G1 X174.569 Y116.653 E16.54716
G1 X174.510 Y116.795 E16.54986
G1 X174.417 Y116.917 E16.55256
G1 X174.295 Y117.010 E16.55526
G1 X174.153 Y117.069 E16.55795
G1 X173.973 Y117.093 E16.56112
G1 X155.593 Y117.093 E16.88330
G1 X155.593 Y128.973 E17.09155
G1 X155.569 Y129.153 E17.09472
G1 X155.510 Y129.295 E17.09741
G1 X155.417 Y129.417 E17.10011
G1 X155.295 Y129.510 E17.10281
G1 X155.153 Y129.569 E17.10551
G1 X154.973 Y129.593 E17.10867
G1 X151.027 Y129.593 E17.17785
G1 X150.847 Y129.569 E17.18102
G1 X150.705 Y129.510 E17.18372
G1 X150.583 Y129.417 E17.18642
G1 X150.490 Y129.295 E17.18911
G1 X150.431 Y129.153 E17.19181
G1 X150.407 Y128.973 E17.19498
G1 X150.407 Y117.093 E17.40322
G1 X50.593 Y117.093 E19.15282
G1 X50.593 Y128.973 E19.36107
G1 X50.569 Y129.153 E19.36424
G1 X50.510 Y129.295 E19.36693
G1 X50.417 Y129.417 E19.36963
G1 X50.295 Y129.510 E19.37233
G1 X50.153 Y129.569 E19.37502
G1 X49.973 Y129.593 E19.37819
G1 X46.027 Y129.593 E19.44737
G1 X45.847 Y129.569 E19.45054
G1 X45.705 Y129.510 E19.45324
G1 X45.583 Y129.417 E19.45593
G1 X45.490 Y129.295 E19.45863
G1 X45.431 Y129.153 E19.46133
G1 X45.407 Y128.973 E19.46450
G1 X45.407 Y91.027 E20.12965
G1 X45.431 Y90.847 E20.13281
G1 X45.489 Y90.708 E20.13547
G1 X45.592 Y90.577 E20.13839
G1 X45.705 Y90.490 E20.14090
G1 X45.847 Y90.431 E20.14360
G1 X46.027 Y90.407 E20.14676
G1 X49.986 Y90.409 E20.21617
G1 X50.153 Y90.431 E20.21911
G1 X50.295 Y90.490 E20.22181
G1 X50.417 Y90.583 E20.22450
G1 X50.510 Y90.705 E20.22720
G1 X50.569 Y90.847 E20.22990
G1 X50.593 Y91.027 E20.23307
G1 X50.593 Y102.907 E20.44131
G1 X150.407 Y102.907 E22.19091
G1 X150.407 Y91.027 E22.39915
G1 X150.431 Y90.847 E22.40232
G1 X150.490 Y90.705 E22.40502
G1 X150.583 Y90.583 E22.40772
G1 X150.705 Y90.490 E22.41041
G1 X150.847 Y90.431 E22.41311
G1 X151.027 Y90.407 E22.41628
G1 X154.973 Y90.407 E22.48546
G1 X155.153 Y90.431 E22.48863
G1 X155.295 Y90.490 E22.49132
G1 X155.417 Y90.583 E22.49402
G1 X155.510 Y90.705 E22.49672
G1 X155.569 Y90.847 E22.49942
G1 X155.593 Y91.027 E22.50258
G1 X155.593 Y102.847 E22.70978
G1 X155.850 Y102.650 F18000.000
;TYPE:External perimeter
G1 F540.000
G1 X173.990 Y102.650 E23.02774
G1 X174.224 Y102.682 E23.03188
G1 X174.424 Y102.765 E23.03569
G1 X174.600 Y102.900 E23.03957
G1 X174.735 Y103.076 E23.04345
G1 X174.820 Y103.280 E23.04734
G1 X174.850 Y103.510 E23.05140
G1 X174.850 Y104.490 E23.06858
G1 X174.820 Y104.720 E23.07264
G1 X174.735 Y104.924 E23.07652
G1 X174.600 Y105.100 E23.08040
G1 X174.424 Y105.235 E23.08429
G1 X174.220 Y105.320 E23.08817
G1 X173.990 Y105.350 E23.09223
G1 X155.850 Y105.350 E23.41020
G1 X155.850 Y114.650 E23.57321
G1 X173.990 Y114.650 E23.89118
G1 X174.220 Y114.680 E23.89524
G1 X174.424 Y114.765 E23.89913
G1 X174.600 Y114.900 E23.90301
G1 X174.735 Y115.076 E23.90689
G1 X174.820 Y115.280 E23.91078
G1 X174.850 Y115.510 E23.91483
G1 X174.850 Y116.490 E23.93202
G1 X174.820 Y116.720 E23.93608
G1 X174.735 Y116.924 E23.93996
G1 X174.600 Y117.100 E23.94384
G1 X174.424 Y117.235 E23.94773
G1 X174.220 Y117.320 E23.95161
G1 X173.990 Y117.350 E23.95567
G1 X155.850 Y117.350 E24.27364
G1 X155.850 Y128.990 E24.47767
G1 X155.820 Y129.220 E24.48173
G1 X155.735 Y129.424 E24.48561
G1 X155.600 Y129.600 E24.48950
G1 X155.424 Y129.735 E24.49338
G1 X155.220 Y129.820 E24.49726
G1 X154.990 Y129.850 E24.50132
G1 X151.010 Y129.850 E24.57109
G1 X150.780 Y129.820 E24.57515
G1 X150.576 Y129.735 E24.57903
G1 X150.400 Y129.600 E24.58292
G1 X150.265 Y129.424 E24.58680
G1 X150.180 Y129.220 E24.59068
G1 X150.150 Y128.990 E24.59474
G1 X150.150 Y117.350 E24.79877
G1 X50.850 Y117.350 E26.53936
M73 P1 R101
M73 Q1 S101
G1 X50.850 Y128.990 E26.74339
G1 X50.820 Y129.220 E26.74745
G1 X50.735 Y129.424 E26.75133
G1 X50.600 Y129.600 E26.75522
G1 X50.424 Y129.735 E26.75910
G1 X50.220 Y129.820 E26.76298
G1 X49.990 Y129.850 E26.76704
G1 X46.010 Y129.850 E26.83681
G1 X45.780 Y129.820 E26.84087
G1 X45.576 Y129.735 E26.84475
G1 X45.400 Y129.600 E26.84864
G1 X45.265 Y129.424 E26.85252
G1 X45.180 Y129.220 E26.85640
G1 X45.150 Y128.990 E26.86046
G1 X45.150 Y91.010 E27.52620
G1 X45.180 Y90.780 E27.53026
G1 X45.265 Y90.577 E27.53412
G1 X45.409 Y90.393 E27.53823
G1 X45.576 Y90.265 E27.54190
G1 X45.780 Y90.180 E27.54578
G1 X46.010 Y90.150 E27.54984
G1 X50.003 Y90.152 E27.61984
G1 X50.220 Y90.180 E27.62367
G1 X50.424 Y90.265 E27.62755
G1 X50.600 Y90.400 E27.63143
G1 X50.735 Y90.576 E27.63532
G1 X50.820 Y90.780 E27.63920
G1 X50.850 Y91.010 E27.64326
G1 X50.850 Y102.650 E27.84729
G1 X150.150 Y102.650 E29.58788
M73 P2 R101
M73 Q2 S101
G1 X150.150 Y91.010 E29.79191
G1 X150.180 Y90.780 E29.79597
G1 X150.265 Y90.576 E29.79985
G1 X150.400 Y90.400 E29.80374
G1 X150.576 Y90.265 E29.80762
G1 X150.780 Y90.180 E29.81150
G1 X151.010 Y90.150 E29.81556
G1 X154.990 Y90.150 E29.88533
G1 X155.220 Y90.180 E29.88939
G1 X155.424 Y90.265 E29.89327
G1 X155.600 Y90.400 E29.89715
G1 X155.735 Y90.576 E29.90104
G1 X155.820 Y90.780 E29.90492
G1 X155.850 Y91.010 E29.90898
G1 X155.850 Y102.590 E30.11196
G1 X155.850 Y103.050 F18000.000
G1 E29.76196 F3600.000
;WIPE_START
G1 F14400.000
G1 X156.450 Y102.592 E29.61946
;WIPE_END
G1 E29.61196 F3600.000
G92 E0
G1 X174.002 Y104.037 F18000.000
G1 E0.58000 F2400.000
;TYPE:Solid infill
;WIDTH:0.30016
G1 F1800.000
G1 X173.578 Y103.614 E0.59050
G1 X173.215 Y103.614 E0.59688
G1 X173.886 Y104.285 E0.61354
G1 X173.886 Y104.386 E0.61530
G1 X173.623 Y104.386 E0.61992
G1 X172.851 Y103.614 E0.63906
G1 X172.487 Y103.614 E0.64545
G1 X173.259 Y104.386 E0.66459
G1 X172.895 Y104.386 E0.67097
G1 X172.123 Y103.614 E0.69012
G1 X171.759 Y103.614 E0.69650
G1 X172.531 Y104.386 E0.71565
G1 X172.167 Y104.386 E0.72203
G1 X171.396 Y103.614 E0.74118
G1 X171.032 Y103.614 E0.74756
G1 X171.804 Y104.386 E0.76670
G1 X171.440 Y104.386 E0.77309
G1 X170.668 Y103.614 E0.79223
G1 X170.304 Y103.614 E0.79861
G1 X171.076 Y104.386 E0.81776
G1 X170.712 Y104.386 E0.82414
G1 X169.940 Y103.614 E0.84329
G1 X169.577 Y103.614 E0.84967
G1 X170.349 Y104.386 E0.86882
G1 X169.985 Y104.386 E0.87520
G1 X169.213 Y103.614 E0.89434
G1 X168.849 Y103.614 E0.90073
G1 X169.621 Y104.386 E0.91987
G1 X169.257 Y104.386 E0.92625
G1 X168.485 Y103.614 E0.94540
G1 X168.121 Y103.614 E0.95178
G1 X168.893 Y104.386 E0.97093
G1 X168.530 Y104.386 E0.97731
G1 X167.758 Y103.614 E0.99646
G1 X167.394 Y103.614 E1.00284
G1 X168.166 Y104.386 E1.02199
G1 X167.802 Y104.386 E1.02837
G1 X167.030 Y103.614 E1.04751
G1 X166.666 Y103.614 E1.05389
G1 X167.438 Y104.386 E1.07304
G1 X167.074 Y104.386 E1.07942
G1 X166.302 Y103.614 E1.09857
G1 X165.939 Y103.614 E1.10495
G1 X166.711 Y104.386 E1.12410
G1 X166.347 Y104.386 E1.13048
G1 X165.575 Y103.614 E1.14963
G1 X165.211 Y103.614 E1.15601
G1 X165.983 Y104.386 E1.17515
G1 X165.619 Y104.386 E1.18153
G1 X164.847 Y103.614 E1.20068
G1 X164.483 Y103.614 E1.20706
G1 X165.255 Y104.386 E1.22621
G1 X164.892 Y104.386 E1.23259
G1 X164.120 Y103.614 E1.25174
G1 X163.756 Y103.614 E1.25812
G1 X164.528 Y104.386 E1.27727
G1 X164.164 Y104.386 E1.28365
G1 X163.392 Y103.614 E1.30279
G1 X163.028 Y103.614 E1.30917
G1 X163.800 Y104.386 E1.32832
G1 X163.436 Y104.386 E1.33470
G1 X162.665 Y103.614 E1.35385
G1 X162.301 Y103.614 E1.36023
G1 X163.073 Y104.386 E1.37938
G1 X162.709 Y104.386 E1.38576
G1 X161.937 Y103.614 E1.40491
G1 X161.573 Y103.614 E1.41129
G1 X162.345 Y104.386 E1.43043
G1 X161.981 Y104.386 E1.43681
G1 X161.209 Y103.614 E1.45596
G1 X160.846 Y103.614 E1.46234
G1 X161.618 Y104.386 E1.48149
G1 X161.254 Y104.386 E1.48787
G1 X160.482 Y103.614 E1.50702
G1 X160.118 Y103.614 E1.51340
G1 X160.890 Y104.386 E1.53255
G1 X160.526 Y104.386 E1.53893
G1 X159.754 Y103.614 E1.55807
G1 X159.390 Y103.614 E1.56445
G1 X160.162 Y104.386 E1.58360
G1 X159.799 Y104.386 E1.58998
G1 X159.027 Y103.614 E1.60913
G1 X158.663 Y103.614 E1.61551
G1 X159.435 Y104.386 E1.63466
G1 X159.071 Y104.386 E1.64104
G1 X158.299 Y103.614 E1.66019
G1 X157.935 Y103.614 E1.66657
G1 X158.707 Y104.386 E1.68571
G1 X158.343 Y104.386 E1.69209
G1 X157.571 Y103.614 E1.71124
G1 X157.208 Y103.614 E1.71762
G1 X157.980 Y104.386 E1.73677
G1 X157.616 Y104.386 E1.74315
G1 X156.844 Y103.614 E1.76230
G1 X156.480 Y103.614 E1.76868
G1 X157.252 Y104.386 E1.78783
G1 X156.888 Y104.386 E1.79421
G1 X156.116 Y103.614 E1.81335
G1 X155.752 Y103.614 E1.81974
G1 X156.524 Y104.386 E1.83888
G1 X156.161 Y104.386 E1.84526
G1 X155.273 Y103.498 E1.86728
G1 E1.51728 F3600.000
;WIPE_START
G1 F14400.000
G1 X155.697 Y103.923 E1.37478
;WIPE_END
G1 E1.36728 F3600.000
G92 E0
G1 X155.002 Y91.586 F18000.000
G1 E0.58000 F2400.000
G1 F1800.000
G1 X154.530 Y91.114 E0.59170
G1 X154.166 Y91.114 E0.59808
G1 X154.886 Y91.834 E0.61593
G1 X154.886 Y92.198 E0.62231
G1 X153.802 Y91.114 E0.64919
G1 X153.439 Y91.114 E0.65557
G1 X154.886 Y92.561 E0.69147
G1 X154.886 Y92.925 E0.69785
G1 X153.075 Y91.114 E0.74277
G1 X152.711 Y91.114 E0.74915
G1 X154.886 Y93.289 E0.80310
G1 X154.886 Y93.653 E0.80948
G1 X152.347 Y91.114 E0.87245
G1 X151.983 Y91.114 E0.87883
G1 X154.886 Y94.016 E0.95083
G1 X154.886 Y94.380 E0.95721
G1 X151.620 Y91.114 E1.03822
G1 X151.256 Y91.114 E1.04460
G1 X154.886 Y94.744 E1.13465
G1 X154.886 Y95.108 E1.14103
G1 X151.114 Y91.336 E1.23459
G1 X151.114 Y91.700 E1.24097
G1 X154.886 Y95.472 E1.33453
G1 X154.886 Y95.835 E1.34091
