; generated by PrusaSlicer 2.3.0+win64 on 2021-02-27 at 17:45:22 UTC

; 

; external perimeters extrusion width = 0.45mm
; perimeters extrusion width = 0.45mm
; infill extrusion width = 0.45mm
; solid infill extrusion width = 0.45mm
; top infill extrusion width = 0.40mm
; support material extrusion width = 0.38mm
; first layer extrusion width = 0.30mm

M73 P0 R85
M73 Q0 S85
M201 X500 Y500 Z100 E5000 ; sets maximum accelerations, mm/sec^2
M203 X500 Y500 Z10 E60 ; sets maximum feedrates, mm/sec
M204 P500 R1000 T500 ; sets acceleration (P, T) and retract acceleration (R), mm/sec^2
M205 X8.00 Y8.00 Z0.40 E5.00 ; sets the jerk limits, mm/sec
M205 S0 T0 ; sets the minimum extruding and travel feed rate, mm/sec
M107
;TYPE:Custom
G90 ; use absolute coordinates
M83 ; extruder relative mode
M104 S215 ; set extruder temp
M140 S60 ; set bed temp
M190 S60 ; wait for bed temp
M109 S215 ; wait for extruder temp
M204 S600 ;acceleration
M220 S100 ;Reset Feedrate
M221 S100 ;Reset Flowrate
G28 ; home all
G29
G1 Z2 F240
G1 X2 Y10 F3000
G1 Z0.28 F240
G92 E0.0
G1 Y190 E15.0 F1500.0 ; intro line
M73 P0 R84
M73 Q0 S84
G1 X2.3 F5000
G1 Y10 E30 F1200.0 ; intro line
G92 E0.0
G21 ; set units to millimeters
G90 ; use absolute coordinates
M82 ; use absolute distances for extrusion
G92 E0
; Filament gcode
;LAYER_CHANGE
;Z:0.2
;HEIGHT:0.2
;BEFORE_LAYER_CHANGE
M117 INDICATOR-Layer1
;0.2


G1 E-0.50000 F3600.000
G92 E0
G1 Z0.200 F18000.000
;AFTER_LAYER_CHANGE
;0.2
G1 X93.191 Y55.815
G1 E0.58000 F2400.000
;TYPE:Support material
;WIDTH:0.3
G1 F900.000
G1 X93.191 Y40.271 E0.85246
G1 X93.705 Y40.271 E0.86147
G1 X93.705 Y55.699 E1.13191
G1 X94.220 Y55.699 E1.14092
G1 X94.220 Y40.271 E1.41135
G1 X94.734 Y40.271 E1.42036
G1 X94.734 Y55.699 E1.69080
G1 X95.153 Y55.699 E1.69814
G1 X95.153 Y58.036 E1.73911
G1 X95.248 Y58.036 E1.74078
G1 X95.248 Y40.271 E2.05217
G1 X95.762 Y40.271 E2.06119
G1 X95.762 Y58.036 E2.37259
G1 X96.276 Y58.036 E2.38160
G1 X96.276 Y40.271 E2.69300
G1 X96.790 Y40.271 E2.70201
G1 X96.790 Y58.036 E3.01341
G1 X97.304 Y58.036 E3.02242
G1 X97.304 Y40.271 E3.33382
G1 X97.819 Y40.271 E3.34283
G1 X97.819 Y60.373 E3.69520
G1 X98.333 Y60.373 E3.70421
G1 X98.333 Y40.271 E4.05657
G1 X98.847 Y40.271 E4.06558
G1 X98.847 Y60.373 E4.41795
G1 X99.361 Y60.373 E4.42696
G1 X99.361 Y40.271 E4.77933
G1 X99.875 Y40.271 E4.78834
G1 X99.875 Y60.373 E5.14070
G1 X100.389 Y60.373 E5.14971
G1 X100.389 Y40.271 E5.50208
G1 X100.904 Y40.271 E5.51109
G1 X100.904 Y60.373 E5.86346
G1 X101.418 Y60.373 E5.87247
G1 X101.418 Y40.271 E6.22483
G1 X101.932 Y40.271 E6.23384
G1 X101.932 Y60.373 E6.58621
G1 X102.446 Y60.373 E6.59522
G1 X102.446 Y40.271 E6.94759
G1 X102.960 Y40.271 E6.95660
G1 X102.960 Y60.489 E7.31099
G1 E6.96099 F3600.000
;WIPE_START
G1 F14400.000
G1 X102.960 Y59.889 E6.81849
;WIPE_END
G1 E6.81099 F3600.000
G92 E0
G1 X108.102 Y88.534 F18000.000
G1 E0.58000 F2400.000
G1 F900.000
G1 X108.102 Y84.906 E0.64359
G1 X107.588 Y84.906 E0.65260
G1 X107.588 Y88.418 E0.71417
G1 X107.074 Y88.418 E0.72318
G1 X107.074 Y84.906 E0.78474
G1 X106.559 Y84.906 E0.79375
G1 X106.559 Y88.418 E0.85532
G1 X106.045 Y88.418 E0.86433
G1 X106.045 Y84.906 E0.92589
G1 X105.531 Y84.906 E0.93491
G1 X105.531 Y88.418 E0.99647
G1 X105.017 Y88.418 E1.00548
G1 X105.017 Y84.906 E1.06704
G1 X104.503 Y84.906 E1.07606
G1 X104.503 Y88.418 E1.13762
G1 X103.989 Y88.418 E1.14663
G1 X103.989 Y84.906 E1.20819
G1 X103.474 Y84.906 E1.21721
G1 X103.474 Y88.418 E1.27877
G1 X102.960 Y88.418 E1.28778
G1 X102.960 Y75.327 E1.51725
G1 X102.446 Y75.327 E1.52626
G1 X102.446 Y88.418 E1.75573
G1 X101.932 Y88.418 E1.76474
G1 X101.932 Y75.327 E1.99421
G1 X101.418 Y75.327 E2.00322
G1 X101.418 Y88.418 E2.23269
M73 P1 R84
M73 Q1 S84
G1 X100.904 Y88.418 E2.24170
G1 X100.904 Y75.327 E2.47117
G1 X100.389 Y75.327 E2.48018
G1 X100.389 Y88.418 E2.70965
G1 X99.875 Y88.418 E2.71866
G1 X99.875 Y75.327 E2.94813
G1 X99.361 Y75.327 E2.95714
G1 X99.361 Y88.418 E3.18661
G1 X98.847 Y88.418 E3.19562
G1 X98.847 Y75.327 E3.42509
G1 X98.333 Y75.327 E3.43410
G1 X98.333 Y88.418 E3.66357
G1 X97.819 Y88.418 E3.67258
G1 X97.819 Y75.327 E3.90205
G1 X97.304 Y75.327 E3.91106
G1 X97.304 Y88.418 E4.14053
G1 X96.790 Y88.418 E4.14954
G1 X96.790 Y75.327 E4.37901
G1 X96.276 Y75.327 E4.38802
G1 X96.276 Y88.418 E4.61749
G1 X95.762 Y88.418 E4.62650
G1 X95.762 Y75.327 E4.85597
G1 X95.248 Y75.327 E4.86498
G1 X95.248 Y88.418 E5.09445
M73 P1 R83
M73 Q1 S83
G1 X94.734 Y88.418 E5.10346
G1 X94.734 Y75.327 E5.33293
G1 X94.220 Y75.327 E5.34194
G1 X94.220 Y88.418 E5.57141
G1 X93.705 Y88.418 E5.58042
G1 X93.705 Y75.327 E5.80989
G1 X93.191 Y75.327 E5.81890
G1 X93.191 Y88.534 E6.05040
G1 E5.70040 F3600.000
;WIPE_START
G1 F14400.000
G1 X93.191 Y87.934 E5.55790
;WIPE_END
G1 E5.55040 F3600.000
G92 E0
G1 X108.451 Y64.196 F18000.000
G1 E0.58000 F2400.000
;TYPE:Perimeter
G1 F540.000
G1 X108.024 Y63.885 E0.58926
G1 X107.671 Y63.493 E0.59852
G1 X107.407 Y63.035 E0.60777
G1 X107.243 Y62.533 E0.61703
G1 X107.188 Y62.008 E0.62629
G1 X107.243 Y61.482 E0.63555
G1 X107.407 Y60.980 E0.64480
G1 X107.671 Y60.523 E0.65406
G1 X108.024 Y60.130 E0.66332
G1 X108.451 Y59.820 E0.67258
G1 X108.934 Y59.605 E0.68183
G1 X109.450 Y59.495 E0.69109
G1 X109.979 Y59.495 E0.70035
G1 X110.495 Y59.605 E0.70961
G1 X110.978 Y59.820 E0.71886
G1 X111.405 Y60.130 E0.72812
G1 X111.758 Y60.523 E0.73738
G1 X112.022 Y60.980 E0.74664
G1 X112.186 Y61.482 E0.75589
G1 X112.241 Y62.008 E0.76515
G1 X112.186 Y62.533 E0.77441
G1 X112.022 Y63.035 E0.78367
G1 X111.758 Y63.493 E0.79292
G1 X111.405 Y63.885 E0.80218
G1 X110.978 Y64.196 E0.81144
G1 X110.495 Y64.410 E0.82070
G1 X109.979 Y64.520 E0.82995
G1 X109.450 Y64.520 E0.83921
G1 X108.934 Y64.410 E0.84847
G1 X108.506 Y64.220 E0.85668
G1 X108.611 Y63.985 F18000.000
G1 F540.000
G1 X108.197 Y63.693 E0.86555
G1 X107.880 Y63.341 E0.87386
G1 X107.643 Y62.930 E0.88217
G1 X107.496 Y62.479 E0.89048
G1 X107.447 Y62.008 E0.89879
G1 X107.496 Y61.536 E0.90710
G1 X107.643 Y61.085 E0.91541
G1 X107.880 Y60.675 E0.92372
G1 X108.197 Y60.322 E0.93203
G1 X108.581 Y60.044 E0.94035
G1 X109.014 Y59.851 E0.94866
G1 X109.478 Y59.752 E0.95697
G1 X109.952 Y59.752 E0.96528
G1 X110.415 Y59.851 E0.97359
G1 X110.848 Y60.044 E0.98190
G1 X111.232 Y60.322 E0.99021
G1 X111.549 Y60.675 E0.99852
G1 X111.786 Y61.085 E1.00683
G1 X111.933 Y61.536 E1.01514
G1 X111.982 Y62.008 E1.02345
G1 X111.933 Y62.479 E1.03176
G1 X111.786 Y62.930 E1.04007
G1 X111.549 Y63.341 E1.04838
G1 X111.232 Y63.693 E1.05669
G1 X110.848 Y63.972 E1.06500
G1 X110.415 Y64.165 E1.07331
G1 X109.952 Y64.263 E1.08162
G1 X109.478 Y64.263 E1.08993
G1 X109.014 Y64.165 E1.09824
G1 X108.666 Y64.010 E1.10492
G1 X108.710 Y63.748 F18000.000
G1 F540.000
G1 X108.370 Y63.501 E1.11228
G1 X108.089 Y63.189 E1.11965
G1 X107.879 Y62.825 E1.12701
G1 X107.749 Y62.425 E1.13437
G1 X107.705 Y62.008 E1.14174
G1 X107.749 Y61.590 E1.14910
G1 X107.879 Y61.190 E1.15646
G1 X108.089 Y60.827 E1.16383
G1 X108.370 Y60.515 E1.17119
G1 X108.710 Y60.268 E1.17855
G1 X109.094 Y60.097 E1.18592
G1 X109.505 Y60.009 E1.19328
G1 X109.925 Y60.009 E1.20064
G1 X110.335 Y60.097 E1.20800
G1 X110.719 Y60.268 E1.21537
G1 X111.059 Y60.514 E1.22273
G1 X111.340 Y60.827 E1.23009
G1 X111.550 Y61.190 E1.23746
G1 X111.680 Y61.590 E1.24482
G1 X111.724 Y62.008 E1.25218
G1 X111.680 Y62.425 E1.25955
G1 X111.550 Y62.825 E1.26691
G1 X111.340 Y63.189 E1.27427
G1 X111.059 Y63.501 E1.28164
G1 X110.719 Y63.748 E1.28900
G1 X110.335 Y63.919 E1.29636
G1 X109.925 Y64.006 E1.30372
G1 X109.505 Y64.006 E1.31109
G1 X109.094 Y63.919 E1.31845
G1 X108.765 Y63.772 E1.32476
G1 X108.839 Y63.524 F18000.000
;TYPE:External perimeter
G1 F540.000
G1 X108.543 Y63.309 E1.33118
G1 X108.298 Y63.037 E1.33759
G1 X108.115 Y62.720 E1.34401
G1 X108.002 Y62.372 E1.35043
G1 X107.964 Y62.008 E1.35684
G1 X108.002 Y61.644 E1.36326
G1 X108.115 Y61.296 E1.36967
G1 X108.298 Y60.979 E1.37609
G1 X108.543 Y60.707 E1.38250
G1 X108.839 Y60.491 E1.38892
G1 X109.174 Y60.343 E1.39534
G1 X109.532 Y60.266 E1.40175
G1 X109.898 Y60.266 E1.40817
G1 X110.256 Y60.343 E1.41458
G1 X110.590 Y60.491 E1.42100
G1 X110.886 Y60.707 E1.42742
G1 X111.131 Y60.979 E1.43383
G1 X111.314 Y61.296 E1.44025
G1 X111.427 Y61.644 E1.44666
G1 X111.465 Y62.008 E1.45308
G1 X111.427 Y62.372 E1.45949
G1 X111.314 Y62.720 E1.46591
G1 X111.131 Y63.037 E1.47233
G1 X110.886 Y63.309 E1.47874
G1 X110.590 Y63.524 E1.48516
G1 X110.256 Y63.673 E1.49157
G1 X109.898 Y63.749 E1.49799
G1 X109.532 Y63.749 E1.50441
G1 X109.174 Y63.673 E1.51082
G1 X108.894 Y63.548 E1.51619
G1 X108.522 Y63.707 F18000.000
G1 E1.16619 F3600.000
;WIPE_START
G1 F14400.000
G1 X108.543 Y63.309 E1.06527
G1 X108.426 Y63.179 E1.02369
;WIPE_END
G1 E1.01619 F3600.000
G92 E0
G1 X121.024 Y76.630 F18000.000
G1 E0.58000 F2400.000
;TYPE:Perimeter
G1 F540.000
G1 X121.451 Y76.320 E0.58926
G1 X121.934 Y76.105 E0.59851
G1 X122.450 Y75.995 E0.60777
G1 X122.979 Y75.995 E0.61703
G1 X123.495 Y76.105 E0.62629
G1 X123.978 Y76.320 E0.63555
G1 X124.405 Y76.630 E0.64480
G1 X124.758 Y77.023 E0.65406
G1 X125.022 Y77.480 E0.66332
G1 X125.186 Y77.982 E0.67258
G1 X125.241 Y78.508 E0.68183
G1 X125.186 Y79.033 E0.69109
G1 X125.022 Y79.535 E0.70035
G1 X124.758 Y79.993 E0.70961
G1 X124.405 Y80.385 E0.71886
G1 X123.978 Y80.696 E0.72812
G1 X123.495 Y80.910 E0.73738
G1 X122.979 Y81.020 E0.74664
G1 X122.450 Y81.020 E0.75589
G1 X121.934 Y80.910 E0.76515
G1 X121.451 Y80.696 E0.77441
G1 X121.024 Y80.385 E0.78367
G1 X120.671 Y79.993 E0.79292
G1 X120.407 Y79.535 E0.80218
G1 X120.243 Y79.033 E0.81144
G1 X120.188 Y78.508 E0.82070
G1 X120.243 Y77.982 E0.82995
G1 X120.407 Y77.480 E0.83921
G1 X120.671 Y77.023 E0.84847
G1 X120.984 Y76.675 E0.85668
G1 X121.175 Y76.847 F18000.000
G1 F540.000
G1 X121.581 Y76.544 E0.86555
G1 X122.014 Y76.351 E0.87386
G1 X122.477 Y76.252 E0.88217
G1 X122.952 Y76.252 E0.89048
G1 X123.415 Y76.351 E0.89879
G1 X123.848 Y76.544 E0.90710
G1 X124.232 Y76.822 E0.91541
G1 X124.549 Y77.175 E0.92372
G1 X124.786 Y77.585 E0.93203
G1 X124.933 Y78.036 E0.94034
G1 X124.982 Y78.508 E0.94866
G1 X124.933 Y78.979 E0.95697
G1 X124.786 Y79.430 E0.96528
G1 X124.549 Y79.841 E0.97359
G1 X124.232 Y80.193 E0.98190
G1 X123.848 Y80.472 E0.99021
G1 X123.415 Y80.665 E0.99852
G1 X122.952 Y80.763 E1.00683
G1 X122.478 Y80.763 E1.01514
G1 X122.014 Y80.665 E1.02345
G1 X121.581 Y80.472 E1.03176
G1 X121.197 Y80.193 E1.04007
G1 X120.880 Y79.841 E1.04838
G1 X120.643 Y79.430 E1.05669
G1 X120.496 Y78.979 E1.06500
G1 X120.447 Y78.508 E1.07331
G1 X120.496 Y78.036 E1.08162
G1 X120.643 Y77.585 E1.08993
G1 X120.880 Y77.175 E1.09824
G1 X121.135 Y76.891 E1.10492
G1 X121.370 Y77.014 F18000.000
G1 F540.000
G1 X121.710 Y76.768 E1.11228
G1 X122.094 Y76.597 E1.11965
G1 X122.505 Y76.509 E1.12701
G1 X122.925 Y76.509 E1.13437
G1 X123.335 Y76.597 E1.14174
G1 X123.719 Y76.768 E1.14910
G1 X124.059 Y77.014 E1.15646
G1 X124.340 Y77.327 E1.16383
G1 X124.550 Y77.690 E1.17119
G1 X124.680 Y78.090 E1.17855
G1 X124.724 Y78.508 E1.18592
G1 X124.680 Y78.925 E1.19328
G1 X124.550 Y79.325 E1.20064
G1 X124.340 Y79.689 E1.20800
G1 X124.059 Y80.001 E1.21537
G1 X123.719 Y80.248 E1.22273
G1 X123.335 Y80.419 E1.23009
G1 X122.925 Y80.506 E1.23746
G1 X122.505 Y80.506 E1.24482
G1 X122.094 Y80.419 E1.25218
G1 X121.710 Y80.248 E1.25955
G1 X121.370 Y80.001 E1.26691
G1 X121.089 Y79.689 E1.27427
G1 X120.879 Y79.325 E1.28164
G1 X120.749 Y78.925 E1.28900
G1 X120.705 Y78.508 E1.29636
G1 X120.749 Y78.090 E1.30372
G1 X120.879 Y77.690 E1.31109
G1 X121.089 Y77.327 E1.31845
G1 X121.330 Y77.059 E1.32476
G1 X121.543 Y77.207 F18000.000
;TYPE:External perimeter
G1 F540.000
G1 X121.839 Y76.991 E1.33118
G1 X122.174 Y76.843 E1.33759
G1 X122.532 Y76.766 E1.34401
G1 X122.898 Y76.766 E1.35043
G1 X123.256 Y76.843 E1.35684
G1 X123.590 Y76.991 E1.36326
G1 X123.886 Y77.207 E1.36967
G1 X124.131 Y77.479 E1.37609
G1 X124.314 Y77.796 E1.38250
G1 X124.427 Y78.144 E1.38892
G1 X124.465 Y78.508 E1.39534
G1 X124.427 Y78.872 E1.40175
G1 X124.314 Y79.220 E1.40817
G1 X124.131 Y79.537 E1.41458
G1 X123.886 Y79.809 E1.42100
G1 X123.590 Y80.024 E1.42742
G1 X123.256 Y80.173 E1.43383
G1 X122.898 Y80.249 E1.44025
G1 X122.532 Y80.249 E1.44666
G1 X122.174 Y80.173 E1.45308
G1 X121.839 Y80.024 E1.45949
G1 X121.543 Y79.809 E1.46591
G1 X121.298 Y79.537 E1.47233
G1 X121.115 Y79.220 E1.47874
G1 X121.002 Y78.872 E1.48516
G1 X120.964 Y78.508 E1.49157
G1 X121.002 Y78.144 E1.49799
G1 X121.115 Y77.796 E1.50441
G1 X121.298 Y77.479 E1.51082
G1 X121.503 Y77.251 E1.51619
G1 X121.467 Y76.849 F18000.000
G1 E1.16619 F3600.000
;WIPE_START
G1 F14400.000
G1 X121.839 Y76.991 E1.06527
G1 X121.999 Y76.920 E1.02369
;WIPE_END
G1 E1.01619 F3600.000
G92 E0
G1 X122.450 Y48.020 F18000.000
G1 E0.58000 F2400.000
;TYPE:Perimeter
G1 F540.000
G1 X121.934 Y47.910 E0.58926
G1 X121.451 Y47.696 E0.59852
G1 X121.024 Y47.385 E0.60777
G1 X120.671 Y46.993 E0.61703
G1 X120.407 Y46.535 E0.62629
G1 X120.243 Y46.033 E0.63555
G1 X120.188 Y45.508 E0.64480
G1 X120.243 Y44.982 E0.65406
G1 X120.407 Y44.480 E0.66332
G1 X120.671 Y44.023 E0.67258
G1 X121.024 Y43.630 E0.68183
G1 X121.451 Y43.320 E0.69109
G1 X121.934 Y43.105 E0.70035
G1 X122.450 Y42.995 E0.70961
G1 X122.979 Y42.995 E0.71886
G1 X123.495 Y43.105 E0.72812
G1 X123.978 Y43.320 E0.73738
G1 X124.405 Y43.630 E0.74664
G1 X124.758 Y44.023 E0.75589
G1 X125.022 Y44.480 E0.76515
G1 X125.186 Y44.982 E0.77441
G1 X125.241 Y45.508 E0.78367
G1 X125.186 Y46.033 E0.79292
G1 X125.022 Y46.535 E0.80218
G1 X124.758 Y46.993 E0.81144
G1 X124.405 Y47.385 E0.82070
G1 X123.978 Y47.696 E0.82995
G1 X123.495 Y47.910 E0.83921
G1 X122.979 Y48.020 E0.84847
G1 X122.510 Y48.020 E0.85668
G1 X122.510 Y47.763 F18000.000
G1 F540.000
G1 X122.014 Y47.665 E0.86555
G1 X121.581 Y47.472 E0.87386
G1 X121.197 Y47.193 E0.88217
G1 X120.880 Y46.841 E0.89048
G1 X120.643 Y46.430 E0.89879
G1 X120.496 Y45.979 E0.90710
G1 X120.447 Y45.508 E0.91541
G1 X120.496 Y45.036 E0.92372
G1 X120.643 Y44.585 E0.93203
G1 X120.880 Y44.175 E0.94034
G1 X121.197 Y43.822 E0.94866
G1 X121.581 Y43.544 E0.95697
G1 X122.014 Y43.351 E0.96528
G1 X122.477 Y43.252 E0.97359
G1 X122.952 Y43.252 E0.98190
G1 X123.415 Y43.351 E0.99021
G1 X123.848 Y43.544 E0.99852
G1 X124.232 Y43.822 E1.00683
G1 X124.549 Y44.175 E1.01514
G1 X124.786 Y44.585 E1.02345
G1 X124.933 Y45.036 E1.03176
G1 X124.982 Y45.508 E1.04007
G1 X124.933 Y45.979 E1.04838
G1 X124.786 Y46.430 E1.05669
G1 X124.549 Y46.841 E1.06500
G1 X124.232 Y47.193 E1.07331
G1 X123.848 Y47.472 E1.08162
G1 X123.415 Y47.665 E1.08993
G1 X122.952 Y47.763 E1.09824
G1 X122.570 Y47.763 E1.10492
G1 X122.505 Y47.506 F18000.000
G1 F540.000
G1 X122.094 Y47.419 E1.11228
G1 X121.710 Y47.248 E1.11965
G1 X121.370 Y47.001 E1.12701
G1 X121.089 Y46.689 E1.13437
G1 X120.879 Y46.325 E1.14174
G1 X120.749 Y45.925 E1.14910
G1 X120.705 Y45.508 E1.15646
G1 X120.749 Y45.090 E1.16383
G1 X120.879 Y44.690 E1.17119
G1 X121.089 Y44.327 E1.17855
G1 X121.370 Y44.014 E1.18592
G1 X121.710 Y43.768 E1.19328
G1 X122.094 Y43.597 E1.20064
G1 X122.505 Y43.509 E1.20800
G1 X122.925 Y43.509 E1.21537
G1 X123.335 Y43.597 E1.22273
G1 X123.719 Y43.768 E1.23009
G1 X124.059 Y44.014 E1.23746
G1 X124.340 Y44.327 E1.24482
G1 X124.550 Y44.690 E1.25218
G1 X124.680 Y45.090 E1.25955
G1 X124.724 Y45.508 E1.26691
G1 X124.680 Y45.925 E1.27427
G1 X124.550 Y46.325 E1.28164
G1 X124.340 Y46.689 E1.28900
G1 X124.059 Y47.001 E1.29636
G1 X123.719 Y47.248 E1.30372
G1 X123.335 Y47.419 E1.31109
G1 X122.925 Y47.506 E1.31845
G1 X122.565 Y47.506 E1.32476
G1 X122.532 Y47.249 F18000.000
;TYPE:External perimeter
G1 F540.000
G1 X122.174 Y47.173 E1.33118
G1 X121.839 Y47.024 E1.33759
G1 X121.543 Y46.809 E1.34401
G1 X121.298 Y46.537 E1.35043
G1 X121.115 Y46.220 E1.35684
G1 X121.002 Y45.872 E1.36326
G1 X120.964 Y45.508 E1.36967
G1 X121.002 Y45.144 E1.37609
G1 X121.115 Y44.796 E1.38250
G1 X121.298 Y44.479 E1.38892
G1 X121.543 Y44.207 E1.39534
G1 X121.839 Y43.991 E1.40175
G1 X122.174 Y43.843 E1.40817
G1 X122.532 Y43.766 E1.41458
G1 X122.898 Y43.766 E1.42100
G1 X123.256 Y43.843 E1.42742
G1 X123.590 Y43.991 E1.43383
G1 X123.886 Y44.207 E1.44025
G1 X124.131 Y44.479 E1.44666
G1 X124.314 Y44.796 E1.45308
G1 X124.427 Y45.144 E1.45949
G1 X124.465 Y45.508 E1.46591
