; generated by PrusaSlicer 2.3.0+win64 on 2021-02-28 at 21:47:23 UTC

; 

; external perimeters extrusion width = 0.45mm
; perimeters extrusion width = 0.45mm
; infill extrusion width = 0.45mm
; solid infill extrusion width = 0.45mm
; top infill extrusion width = 0.40mm
; support material extrusion width = 0.38mm
; first layer extrusion width = 0.30mm

M73 P0 R83
M73 Q0 S83
M201 X500 Y500 Z100 E5000 ; sets maximum accelerations, mm/sec^2
M203 X500 Y500 Z10 E60 ; sets maximum feedrates, mm/sec
M204 P500 R1000 T500 ; sets acceleration (P, T) and retract acceleration (R), mm/sec^2
M205 X8.00 Y8.00 Z0.40 E5.00 ; sets the jerk limits, mm/sec
M205 S0 T0 ; sets the minimum extruding and travel feed rate, mm/sec
M107
;TYPE:Custom
G90 ; use absolute coordinates
M83 ; extruder relative mode
M104 S215 ; set extruder temp
M140 S60 ; set bed temp
M190 S60 ; wait for bed temp
M109 S215 ; wait for extruder temp
M204 S600 ;acceleration
M220 S100 ;Reset Feedrate
M221 S100 ;Reset Flowrate
G28 ; home all
G29
G1 Z2 F240
G1 X2 Y10 F3000
G1 Z0.28 F240
G92 E0.0
G1 Y190 E15.0 F1500.0 ; intro line
G1 X2.3 F5000
G1 Y10 E30 F1200.0 ; intro line
G92 E0.0
G21 ; set units to millimeters
G90 ; use absolute coordinates
M82 ; use absolute distances for extrusion
G92 E0
; Filament gcode
;LAYER_CHANGE
;Z:0.2
;HEIGHT:0.2
;BEFORE_LAYER_CHANGE
M117 INDICATOR-Layer1
;0.2


G1 E-0.50000 F3600.000
G92 E0
G1 Z0.200 F18000.000
;AFTER_LAYER_CHANGE
;0.2
G1 X64.962 Y128.991
G1 E0.58000 F2400.000
;TYPE:Support material
;WIDTH:0.3
G1 F900.000
G1 X64.962 Y129.120 E0.58227
G1 X65.476 Y129.120 E0.59128
G1 X65.476 Y129.053 E0.59246
G1 X65.990 Y129.107 E0.60152
G1 X65.990 Y129.236 E0.60378
G1 E0.25378 F3600.000
;WIPE_START
G1 F14400.000
G1 X65.990 Y129.107 E0.22319
G1 X65.522 Y129.058 E0.11128
;WIPE_END
G1 E0.10378 F3600.000
G92 E0
G1 X69.589 Y131.554 F18000.000
G1 E0.58000 F2400.000
G1 F900.000
G1 X69.589 Y135.484 E0.64889
G1 E0.29889 F3600.000
;WIPE_START
G1 F14400.000
G1 X69.589 Y134.884 E0.15639
;WIPE_END
G1 E0.14889 F3600.000
G92 E0
G1 X66.505 Y134.688 F18000.000
G1 E0.58000 F2400.000
G1 F900.000
G1 X66.505 Y132.505 E0.61826
G1 X66.328 Y132.346 E0.62242
G1 X66.066 Y132.195 E0.62774
G1 X65.990 Y132.171 E0.62912
G1 X65.990 Y134.867 E0.67640
G1 X65.778 Y134.937 E0.68032
G1 X65.476 Y134.968 E0.68563
G1 X65.476 Y132.070 E0.73644
G1 X65.175 Y132.101 E0.74175
G1 X64.962 Y132.171 E0.74567
G1 X64.962 Y134.867 E0.79294
G1 X64.887 Y134.843 E0.79433
G1 X64.624 Y134.691 E0.79964
G1 X64.448 Y134.533 E0.80380
G1 X64.448 Y132.350 E0.84207
G1 E0.49207 F3600.000
;WIPE_START
G1 F14400.000
G1 X64.448 Y132.950 E0.34957
;WIPE_END
G1 E0.34207 F3600.000
G92 E0
G1 X61.363 Y131.554 F18000.000
G1 E0.58000 F2400.000
G1 F900.000
G1 X61.363 Y135.484 E0.64889
G1 E0.29889 F3600.000
;WIPE_START
G1 F14400.000
G1 X61.363 Y134.884 E0.15639
;WIPE_END
G1 E0.14889 F3600.000
G92 E0
G1 X69.589 Y182.953 F18000.000
G1 E0.58000 F2400.000
G1 F900.000
G1 X69.589 Y187.484 E0.65942
G1 E0.30942 F3600.000
;WIPE_START
G1 F14400.000
G1 X69.589 Y186.884 E0.16692
;WIPE_END
G1 E0.15942 F3600.000
G92 E0
G1 X66.505 Y186.688 F18000.000
G1 E0.58000 F2400.000
G1 F900.000
G1 X66.505 Y184.505 E0.61826
G1 X66.328 Y184.346 E0.62242
G1 X66.066 Y184.195 E0.62774
G1 X65.990 Y184.171 E0.62912
G1 X65.990 Y186.867 E0.67640
G1 X65.778 Y186.937 E0.68032
G1 X65.476 Y186.968 E0.68563
G1 X65.476 Y184.070 E0.73644
G1 X65.175 Y184.101 E0.74175
G1 X64.962 Y184.171 E0.74567
G1 X64.962 Y186.867 E0.79294
G1 X64.887 Y186.843 E0.79433
G1 X64.624 Y186.691 E0.79964
G1 X64.448 Y186.533 E0.80380
G1 X64.448 Y184.350 E0.84207
G1 E0.49207 F3600.000
;WIPE_START
G1 F14400.000
G1 X64.448 Y184.950 E0.34957
;WIPE_END
G1 E0.34207 F3600.000
G92 E0
G1 X61.363 Y182.953 F18000.000
G1 E0.58000 F2400.000
G1 F900.000
G1 X61.363 Y187.484 E0.65942
G1 E0.30942 F3600.000
;WIPE_START
G1 F14400.000
G1 X61.363 Y186.884 E0.16692
;WIPE_END
G1 E0.15942 F3600.000
G92 E0
G1 X64.962 Y189.802 F18000.000
G1 E0.58000 F2400.000
G1 F900.000
G1 X64.962 Y189.931 E0.58226
G1 X65.476 Y189.985 E0.59132
G1 X65.476 Y189.918 E0.59250
G1 X65.990 Y189.918 E0.60151
G1 X65.990 Y190.047 E0.60378
G1 E0.25378 F3600.000
;WIPE_START
G1 F14400.000
G1 X65.990 Y189.918 E0.22304
G1 X65.520 Y189.918 E0.11128
;WIPE_END
G1 E0.10378 F3600.000
G92 E0
G1 X66.000 Y187.982 F18000.000
G1 E0.58000 F2400.000
;TYPE:Perimeter
G1 F540.000
G1 X65.476 Y188.037 E0.58923
G1 X64.953 Y187.982 E0.59845
G1 X64.452 Y187.819 E0.60768
G1 X63.996 Y187.556 E0.61691
G1 X63.605 Y187.204 E0.62613
G1 X63.296 Y186.778 E0.63536
G1 X63.082 Y186.297 E0.64459
G1 X62.972 Y185.782 E0.65381
G1 X62.972 Y185.256 E0.66304
G1 X63.082 Y184.741 E0.67226
G1 X63.296 Y184.260 E0.68149
G1 X63.605 Y183.834 E0.69072
G1 X63.996 Y183.482 E0.69994
G1 X64.452 Y183.219 E0.70917
G1 X64.953 Y183.056 E0.71840
G1 X65.476 Y183.001 E0.72762
G1 X66.000 Y183.056 E0.73685
G1 X66.500 Y183.219 E0.74608
G1 X66.956 Y183.482 E0.75530
G1 X67.347 Y183.834 E0.76453
G1 X67.657 Y184.260 E0.77376
G1 X67.871 Y184.741 E0.78298
G1 X67.980 Y185.256 E0.79221
G1 X67.980 Y185.782 E0.80143
G1 X67.871 Y186.297 E0.81066
G1 X67.657 Y186.778 E0.81989
G1 X67.347 Y187.204 E0.82911
G1 X66.956 Y187.556 E0.83834
G1 X66.500 Y187.819 E0.84757
G1 X66.057 Y187.963 E0.85574
G1 X65.977 Y187.719 F18000.000
G1 F540.000
G1 X65.476 Y187.778 E0.86459
G1 X65.006 Y187.729 E0.87287
G1 X64.557 Y187.583 E0.88115
G1 X64.148 Y187.347 E0.88942
G1 X63.797 Y187.031 E0.89770
G1 X63.520 Y186.649 E0.90598
G1 X63.327 Y186.217 E0.91426
G1 X63.229 Y185.755 E0.92254
G1 X63.229 Y185.283 E0.93082
G1 X63.327 Y184.821 E0.93910
G1 X63.520 Y184.389 E0.94738
G1 X63.797 Y184.007 E0.95566
G1 X64.148 Y183.691 E0.96394
G1 X64.557 Y183.455 E0.97222
G1 X65.006 Y183.309 E0.98050
G1 X65.476 Y183.260 E0.98877
G1 X65.946 Y183.309 E0.99705
G1 X66.395 Y183.455 E1.00533
G1 X66.804 Y183.691 E1.01361
G1 X67.155 Y184.007 E1.02189
G1 X67.433 Y184.389 E1.03017
G1 X67.625 Y184.821 E1.03845
G1 X67.723 Y185.283 E1.04673
G1 X67.723 Y185.755 E1.05501
G1 X67.625 Y186.217 E1.06329
G1 X67.433 Y186.649 E1.07157
G1 X67.155 Y187.031 E1.07985
G1 X66.804 Y187.347 E1.08813
G1 X66.395 Y187.583 E1.09640
G1 X66.034 Y187.700 E1.10305
G1 X65.892 Y187.476 F18000.000
;TYPE:External perimeter
G1 F540.000
G1 X65.476 Y187.520 E1.11039
G1 X65.060 Y187.476 E1.11772
G1 X64.662 Y187.347 E1.12505
G1 X64.300 Y187.138 E1.13238
G1 X63.989 Y186.858 E1.13971
G1 X63.743 Y186.519 E1.14705
G1 X63.573 Y186.137 E1.15438
G1 X63.486 Y185.728 E1.16171
G1 X63.486 Y185.310 E1.16904
G1 X63.573 Y184.901 E1.17637
G1 X63.743 Y184.519 E1.18371
G1 X63.989 Y184.180 E1.19104
G1 X64.300 Y183.900 E1.19837
G1 X64.662 Y183.691 E1.20570
G1 X65.060 Y183.562 E1.21303
G1 X65.476 Y183.518 E1.22037
G1 X65.892 Y183.562 E1.22770
G1 X66.290 Y183.691 E1.23503
G1 X66.652 Y183.900 E1.24236
G1 X66.963 Y184.180 E1.24969
G1 X67.209 Y184.519 E1.25702
G1 X67.379 Y184.901 E1.26436
G1 X67.466 Y185.310 E1.27169
G1 X67.466 Y185.728 E1.27902
G1 X67.379 Y186.137 E1.28635
G1 X67.209 Y186.519 E1.29368
G1 X66.963 Y186.858 E1.30102
G1 X66.652 Y187.138 E1.30835
G1 X66.290 Y187.347 E1.31568
G1 X65.949 Y187.458 E1.32196
G1 X65.769 Y187.856 F18000.000
G1 E0.97196 F3600.000
;WIPE_START
G1 F14400.000
G1 X65.476 Y187.520 E0.85864
G1 X65.354 Y187.507 E0.82946
;WIPE_END
G1 E0.82196 F3600.000
G92 E0
G1 X67.933 Y186.790 F18000.000
G1 E0.58000 F2400.000
;TYPE:Perimeter
G1 F540.000
G1 X68.055 Y186.816 E0.58219
G1 X68.055 Y187.474 E0.59372
M73 P0 R82
M73 Q0 S82
G1 X68.030 Y187.729 E0.59821
G1 X67.969 Y187.930 E0.60190
G1 X67.869 Y188.116 E0.60559
G1 X67.736 Y188.279 E0.60929
G1 X67.573 Y188.412 E0.61298
G1 X67.387 Y188.511 E0.61667
G1 X67.186 Y188.573 E0.62036
G1 X66.931 Y188.598 E0.62485
G1 X64.021 Y188.598 E0.67585
G1 X63.767 Y188.573 E0.68034
G1 X63.565 Y188.511 E0.68403
G1 X63.379 Y188.412 E0.68772
G1 X63.217 Y188.279 E0.69141
G1 X63.083 Y188.116 E0.69510
G1 X62.984 Y187.930 E0.69879
G1 X62.923 Y187.729 E0.70249
G1 X62.897 Y187.474 E0.70697
G1 X62.897 Y186.816 E0.71851
G1 X63.020 Y186.790 E0.72070
G1 X63.072 Y186.907 E0.72295
G1 X63.413 Y187.377 E0.73312
G1 X63.844 Y187.765 E0.74329
G1 X64.347 Y188.055 E0.75347
G1 X64.899 Y188.235 E0.76364
G1 X65.476 Y188.295 E0.77382
G1 X66.053 Y188.235 E0.78399
G1 X66.605 Y188.055 E0.79416
G1 X67.108 Y187.765 E0.80434
G1 X67.539 Y187.377 E0.81451
G1 X67.881 Y186.907 E0.82468
G1 X67.908 Y186.845 E0.82588
G1 E0.47588 F3600.000
;WIPE_START
G1 F14400.000
G1 X68.055 Y186.816 E0.44040
G1 X68.055 Y187.266 E0.33338
;WIPE_END
G1 E0.32588 F3600.000
G92 E0
G1 X67.933 Y184.248 F18000.000
G1 E0.58000 F2400.000
G1 F2700.000
G1 X67.881 Y184.131 E0.58225
G1 X67.539 Y183.661 E0.59242
G1 X67.108 Y183.273 E0.60260
G1 X66.605 Y182.983 E0.61277
G1 X66.053 Y182.803 E0.62295
G1 X65.476 Y182.743 E0.63312
G1 X64.899 Y182.803 E0.64329
G1 X64.347 Y182.983 E0.65347
G1 X63.844 Y183.273 E0.66364
G1 X63.413 Y183.661 E0.67381
G1 X63.072 Y184.131 E0.68399
G1 X63.020 Y184.248 E0.68624
G1 X62.897 Y184.222 E0.68843
G1 X62.897 Y134.816 E1.55445
G1 X63.020 Y134.790 E1.55664
G1 X63.072 Y134.907 E1.55889
G1 X63.413 Y135.377 E1.56906
G1 X63.844 Y135.765 E1.57924
G1 X64.347 Y136.055 E1.58941
G1 X64.899 Y136.235 E1.59958
G1 X65.476 Y136.295 E1.60976
G1 X66.053 Y136.235 E1.61993
G1 X66.605 Y136.055 E1.63011
G1 X67.108 Y135.765 E1.64028
G1 X67.539 Y135.377 E1.65045
G1 X67.881 Y134.907 E1.66063
G1 X67.933 Y134.790 E1.66288
G1 X68.055 Y134.816 E1.66507
G1 X68.055 Y184.222 E2.53109
G1 X67.991 Y184.236 E2.53223
G1 E2.18223 F3600.000
;WIPE_START
G1 F14400.000
G1 X67.881 Y184.131 E2.14598
G1 X67.618 Y183.769 E2.03973
;WIPE_END
G1 E2.03223 F3600.000
G92 E0
G1 X65.476 Y136.037 F18000.000
G1 E0.58000 F2400.000
G1 F540.000
G1 X64.953 Y135.982 E0.58923
G1 X64.452 Y135.819 E0.59845
G1 X63.996 Y135.556 E0.60768
G1 X63.605 Y135.204 E0.61691
G1 X63.296 Y134.778 E0.62613
G1 X63.082 Y134.297 E0.63536
G1 X62.972 Y133.782 E0.64459
G1 X62.972 Y133.256 E0.65381
G1 X63.082 Y132.741 E0.66304
G1 X63.296 Y132.260 E0.67226
G1 X63.605 Y131.834 E0.68149
G1 X63.996 Y131.482 E0.69072
G1 X64.452 Y131.219 E0.69994
G1 X64.953 Y131.056 E0.70917
G1 X65.476 Y131.001 E0.71840
G1 X66.000 Y131.056 E0.72762
G1 X66.500 Y131.219 E0.73685
G1 X66.956 Y131.482 E0.74608
G1 X67.347 Y131.834 E0.75530
G1 X67.657 Y132.260 E0.76453
G1 X67.871 Y132.741 E0.77376
G1 X67.980 Y133.256 E0.78298
G1 X67.980 Y133.782 E0.79221
G1 X67.871 Y134.297 E0.80143
G1 X67.657 Y134.778 E0.81066
G1 X67.347 Y135.204 E0.81989
G1 X66.956 Y135.556 E0.82911
G1 X66.500 Y135.819 E0.83834
G1 X66.000 Y135.982 E0.84757
G1 X65.536 Y136.031 E0.85574
G1 X65.509 Y135.775 F18000.000
G1 F540.000
G1 X65.006 Y135.729 E0.86459
G1 X64.557 Y135.583 E0.87287
G1 X64.148 Y135.347 E0.88115
G1 X63.797 Y135.031 E0.88942
G1 X63.520 Y134.649 E0.89770
G1 X63.327 Y134.217 E0.90598
G1 X63.229 Y133.755 E0.91426
G1 X63.229 Y133.283 E0.92254
G1 X63.327 Y132.821 E0.93082
G1 X63.520 Y132.389 E0.93910
G1 X63.797 Y132.007 E0.94738
G1 X64.148 Y131.691 E0.95566
G1 X64.557 Y131.455 E0.96394
G1 X65.006 Y131.309 E0.97222
G1 X65.476 Y131.260 E0.98050
G1 X65.946 Y131.309 E0.98877
G1 X66.395 Y131.455 E0.99705
G1 X66.804 Y131.691 E1.00533
G1 X67.155 Y132.007 E1.01361
G1 X67.433 Y132.389 E1.02189
G1 X67.625 Y132.821 E1.03017
G1 X67.723 Y133.283 E1.03845
G1 X67.723 Y133.755 E1.04673
G1 X67.625 Y134.217 E1.05501
G1 X67.433 Y134.649 E1.06329
G1 X67.155 Y135.031 E1.07157
G1 X66.804 Y135.347 E1.07985
G1 X66.395 Y135.583 E1.08813
G1 X65.946 Y135.729 E1.09640
G1 X65.569 Y135.769 E1.10305
G1 X65.476 Y135.520 F18000.000
;TYPE:External perimeter
G1 F540.000
G1 X65.060 Y135.476 E1.11039
G1 X64.662 Y135.347 E1.11772
G1 X64.300 Y135.138 E1.12505
G1 X63.989 Y134.858 E1.13238
G1 X63.743 Y134.519 E1.13971
G1 X63.573 Y134.137 E1.14705
G1 X63.486 Y133.728 E1.15438
G1 X63.486 Y133.310 E1.16171
G1 X63.573 Y132.901 E1.16904
G1 X63.743 Y132.519 E1.17637
G1 X63.989 Y132.180 E1.18371
G1 X64.300 Y131.900 E1.19104
G1 X64.662 Y131.691 E1.19837
G1 X65.060 Y131.562 E1.20570
G1 X65.476 Y131.518 E1.21303
G1 X65.892 Y131.562 E1.22037
G1 X66.290 Y131.691 E1.22770
G1 X66.652 Y131.900 E1.23503
G1 X66.963 Y132.180 E1.24236
G1 X67.209 Y132.519 E1.24969
G1 X67.379 Y132.901 E1.25702
G1 X67.466 Y133.310 E1.26436
G1 X67.466 Y133.728 E1.27169
G1 X67.379 Y134.137 E1.27902
G1 X67.209 Y134.519 E1.28635
G1 X66.963 Y134.858 E1.29368
G1 X66.652 Y135.138 E1.30102
G1 X66.290 Y135.347 E1.30835
G1 X65.892 Y135.476 E1.31568
G1 X65.536 Y135.514 E1.32196
G1 X65.276 Y135.866 F18000.000
G1 E0.97196 F3600.000
;WIPE_START
G1 F14400.000
G1 X65.060 Y135.476 E0.85864
G1 X64.943 Y135.438 E0.82946
;WIPE_END
G1 E0.82196 F3600.000
G92 E0
G1 X67.933 Y132.248 F18000.000
G1 E0.58000 F2400.000
;TYPE:Perimeter
G1 F540.000
G1 X67.881 Y132.131 E0.58225
G1 X67.539 Y131.661 E0.59242
G1 X67.108 Y131.273 E0.60260
G1 X66.605 Y130.983 E0.61277
G1 X66.053 Y130.803 E0.62295
G1 X65.476 Y130.743 E0.63312
G1 X64.899 Y130.803 E0.64329
G1 X64.347 Y130.983 E0.65347
G1 X63.844 Y131.273 E0.66364
G1 X63.413 Y131.661 E0.67381
G1 X63.072 Y132.131 E0.68399
G1 X63.020 Y132.248 E0.68624
G1 X62.897 Y132.222 E0.68843
G1 X62.897 Y131.564 E0.69996
G1 X62.923 Y131.309 E0.70445
G1 X62.984 Y131.108 E0.70814
G1 X63.082 Y130.924 E0.71180
G1 X63.221 Y130.755 E0.71563
G1 X63.379 Y130.626 E0.71921
G1 X63.565 Y130.526 E0.72290
G1 X63.767 Y130.465 E0.72660
G1 X64.021 Y130.440 E0.73108
G1 X66.939 Y130.441 E0.78222
G1 X67.186 Y130.465 E0.78657
G1 X67.387 Y130.526 E0.79026
G1 X67.573 Y130.626 E0.79395
G1 X67.736 Y130.759 E0.79765
G1 X67.869 Y130.922 E0.80134
G1 X67.969 Y131.108 E0.80503
G1 X68.030 Y131.309 E0.80872
G1 X68.055 Y131.564 E0.81321
G1 X68.055 Y132.222 E0.82474
G1 X67.991 Y132.236 E0.82588
G1 X68.283 Y131.259 F18000.000
G1 F2700.000
G1 X68.312 Y131.552 E0.83103
G1 X68.312 Y187.486 E1.81149
G1 X68.283 Y187.779 E1.81664
G1 X68.207 Y188.029 E1.82122
G1 X68.084 Y188.259 E1.82580
G1 X67.919 Y188.461 E1.83038
G1 X67.717 Y188.627 E1.83496
G1 X67.486 Y188.750 E1.83954
G1 X67.236 Y188.826 E1.84412
G1 X66.944 Y188.855 E1.84927
G1 X64.009 Y188.855 E1.90071
G1 X63.716 Y188.826 E1.90587
G1 X63.466 Y188.750 E1.91045
G1 X63.236 Y188.627 E1.91502
G1 X63.034 Y188.461 E1.91960
G1 X62.868 Y188.259 E1.92418
G1 X62.745 Y188.029 E1.92876
G1 X62.669 Y187.779 E1.93334
G1 X62.640 Y187.486 E1.93849
G1 X62.640 Y131.552 E2.91895
G1 X62.669 Y131.259 E2.92410
G1 X62.745 Y131.009 E2.92868
G1 X62.868 Y130.780 E2.93324
G1 X63.039 Y130.572 E2.93795
G1 X63.236 Y130.411 E2.94242
G1 X63.466 Y130.288 E2.94700
G1 X63.716 Y130.212 E2.95158
G1 X64.009 Y130.183 E2.95673
G1 X66.951 Y130.184 E3.00831
G1 X67.236 Y130.212 E3.01332
G1 X67.486 Y130.288 E3.01790
G1 X67.717 Y130.411 E3.02248
G1 X67.919 Y130.577 E3.02706
G1 X68.084 Y130.779 E3.03164
G1 X68.207 Y131.009 E3.03622
G1 X68.266 Y131.202 E3.03975
G1 X68.537 Y131.209 F18000.000
G1 F2700.000
G1 X68.569 Y131.539 E3.04557
G1 X68.569 Y187.499 E4.02646
G1 X68.537 Y187.829 E4.03228
G1 X68.446 Y188.128 E4.03775
G1 X68.299 Y188.403 E4.04322
G1 X68.101 Y188.644 E4.04868
G1 X67.860 Y188.842 E4.05415
G1 X67.585 Y188.989 E4.05962
G1 X67.287 Y189.079 E4.06508
G1 X66.956 Y189.112 E4.07090
G1 X63.996 Y189.112 E4.12279
G1 X63.666 Y189.079 E4.12861
G1 X63.367 Y188.989 E4.13407
G1 X63.092 Y188.842 E4.13954
G1 X62.851 Y188.644 E4.14501
G1 X62.653 Y188.403 E4.15047
G1 X62.506 Y188.128 E4.15594
G1 X62.416 Y187.829 E4.16141
G1 X62.383 Y187.499 E4.16723
G1 X62.383 Y131.539 E5.14812
G1 X62.416 Y131.209 E5.15394
G1 X62.506 Y130.910 E5.15941
G1 X62.653 Y130.636 E5.16486
G1 X62.857 Y130.390 E5.17046
G1 X63.092 Y130.196 E5.17581
G1 X63.367 Y130.049 E5.18127
G1 X63.666 Y129.959 E5.18674
G1 X63.996 Y129.926 E5.19256
G1 X66.964 Y129.927 E5.24458
G1 X67.287 Y129.959 E5.25026
G1 X67.585 Y130.049 E5.25573
G1 X67.860 Y130.196 E5.26120
G1 X68.101 Y130.394 E5.26666
G1 X68.299 Y130.635 E5.27213
G1 X68.446 Y130.910 E5.27760
G1 X68.519 Y131.151 E5.28201
G1 X68.790 Y131.158 F18000.000
;TYPE:External perimeter
G1 F540.000
G1 X68.826 Y131.526 E5.28849
G1 X68.826 Y187.512 E6.26983
M73 P1 R82
M73 Q1 S82
G1 X68.790 Y187.880 E6.27632
G1 X68.685 Y188.227 E6.28267
G1 X68.514 Y188.546 E6.28903
G1 X68.284 Y188.827 E6.29538
G1 X68.004 Y189.057 E6.30174
G1 X67.684 Y189.227 E6.30809
