; generated by PrusaSlicer 2.3.0+win64 on 2021-03-01 at 19:48:33 UTC

; 

; external perimeters extrusion width = 0.45mm
; perimeters extrusion width = 0.45mm
; infill extrusion width = 0.45mm
; solid infill extrusion width = 0.45mm
; top infill extrusion width = 0.40mm
; first layer extrusion width = 0.30mm

M73 P0 R34
M73 Q0 S34
M201 X500 Y500 Z100 E5000 ; sets maximum accelerations, mm/sec^2
M203 X500 Y500 Z10 E60 ; sets maximum feedrates, mm/sec
M204 P500 R1000 T500 ; sets acceleration (P, T) and retract acceleration (R), mm/sec^2
M205 X8.00 Y8.00 Z0.40 E5.00 ; sets the jerk limits, mm/sec
M205 S0 T0 ; sets the minimum extruding and travel feed rate, mm/sec
M107
;TYPE:Custom
G90 ; use absolute coordinates
M83 ; extruder relative mode
M104 S215 ; set extruder temp
M140 S60 ; set bed temp
M190 S60 ; wait for bed temp
M109 S215 ; wait for extruder temp
M204 S600 ;acceleration
M220 S100 ;Reset Feedrate
M221 S100 ;Reset Flowrate
G28 ; home all
G29
G1 Z2 F240
G1 X2 Y10 F3000
G1 Z0.28 F240
G92 E0.0
G1 Y190 E15.0 F1500.0 ; intro line
M73 P0 R33
M73 Q0 S33
G1 X2.3 F5000
G1 Y10 E30 F1200.0 ; intro line
G92 E0.0
G21 ; set units to millimeters
G90 ; use absolute coordinates
M82 ; use absolute distances for extrusion
G92 E0
; Filament gcode
;LAYER_CHANGE
;Z:0.2
;HEIGHT:0.2
;BEFORE_LAYER_CHANGE
M117 INDICATOR-Layer1
;0.2


G1 E-0.50000 F3600.000
G92 E0
G1 Z0.200 F18000.000
;AFTER_LAYER_CHANGE
;0.2
G1 X48.534 Y135.357
G1 E0.58000 F2400.000
;TYPE:Perimeter
;WIDTH:0.3
G1 F540.000
G1 X49.034 Y135.194 E0.58923
G1 X49.558 Y135.139 E0.59845
G1 X50.081 Y135.194 E0.60768
G1 X50.582 Y135.357 E0.61691
G1 X51.038 Y135.620 E0.62613
G1 X51.429 Y135.972 E0.63536
G1 X51.738 Y136.398 E0.64459
G1 X51.952 Y136.879 E0.65381
G1 X52.062 Y137.393 E0.66304
G1 X52.062 Y137.920 E0.67226
G1 X51.952 Y138.435 E0.68149
G1 X51.738 Y138.916 E0.69072
G1 X51.429 Y139.341 E0.69994
G1 X51.038 Y139.694 E0.70917
G1 X50.582 Y139.957 E0.71840
G1 X50.081 Y140.119 E0.72762
G1 X49.558 Y140.174 E0.73685
G1 X49.034 Y140.119 E0.74608
G1 X48.534 Y139.957 E0.75530
G1 X48.078 Y139.694 E0.76453
G1 X47.687 Y139.341 E0.77376
G1 X47.377 Y138.916 E0.78298
G1 X47.163 Y138.435 E0.79221
G1 X47.054 Y137.920 E0.80143
G1 X47.054 Y137.393 E0.81066
G1 X47.163 Y136.879 E0.81989
M73 P1 R33
M73 Q1 S33
G1 X47.377 Y136.398 E0.82911
G1 X47.687 Y135.972 E0.83834
G1 X48.078 Y135.620 E0.84757
G1 X48.482 Y135.387 E0.85574
G1 X48.610 Y135.609 F18000.000
G1 F540.000
G1 X49.088 Y135.447 E0.86459
G1 X49.558 Y135.397 E0.87287
G1 X50.027 Y135.447 E0.88115
G1 X50.477 Y135.593 E0.88942
G1 X50.886 Y135.829 E0.89770
G1 X51.237 Y136.145 E0.90598
G1 X51.514 Y136.527 E0.91426
G1 X51.706 Y136.958 E0.92254
G1 X51.805 Y137.420 E0.93082
G1 X51.805 Y137.893 E0.93910
G1 X51.706 Y138.355 E0.94738
G1 X51.514 Y138.786 E0.95566
G1 X51.237 Y139.168 E0.96394
G1 X50.886 Y139.484 E0.97222
G1 X50.477 Y139.721 E0.98050
G1 X50.027 Y139.867 E0.98877
G1 X49.558 Y139.916 E0.99705
G1 X49.088 Y139.867 E1.00533
G1 X48.639 Y139.721 E1.01361
G1 X48.230 Y139.484 E1.02189
G1 X47.879 Y139.168 E1.03017
G1 X47.601 Y138.786 E1.03845
G1 X47.409 Y138.355 E1.04673
G1 X47.311 Y137.893 E1.05501
G1 X47.311 Y137.420 E1.06329
G1 X47.409 Y136.958 E1.07157
G1 X47.601 Y136.527 E1.07985
G1 X47.879 Y136.145 E1.08813
G1 X48.230 Y135.829 E1.09640
G1 X48.558 Y135.639 E1.10305
G1 X48.744 Y135.829 F18000.000
;TYPE:External perimeter
G1 F540.000
G1 X49.142 Y135.700 E1.11039
G1 X49.558 Y135.656 E1.11772
G1 X49.974 Y135.700 E1.12505
G1 X50.371 Y135.829 E1.13238
G1 X50.734 Y136.038 E1.13971
G1 X51.045 Y136.318 E1.14705
G1 X51.290 Y136.656 E1.15438
G1 X51.461 Y137.038 E1.16171
G1 X51.548 Y137.448 E1.16904
G1 X51.548 Y137.866 E1.17637
G1 X51.461 Y138.275 E1.18371
G1 X51.290 Y138.657 E1.19104
G1 X51.045 Y138.995 E1.19837
G1 X50.734 Y139.275 E1.20570
G1 X50.371 Y139.484 E1.21303
G1 X49.974 Y139.614 E1.22037
G1 X49.558 Y139.657 E1.22770
G1 X49.142 Y139.614 E1.23503
G1 X48.744 Y139.484 E1.24236
G1 X48.382 Y139.275 E1.24969
G1 X48.071 Y138.995 E1.25702
G1 X47.825 Y138.657 E1.26436
G1 X47.655 Y138.275 E1.27169
G1 X47.568 Y137.866 E1.27902
G1 X47.568 Y137.448 E1.28635
G1 X47.655 Y137.038 E1.29368
G1 X47.825 Y136.656 E1.30102
G1 X48.071 Y136.318 E1.30835
G1 X48.382 Y136.038 E1.31568
G1 X48.692 Y135.859 E1.32196
G1 X48.786 Y135.431 F18000.000
G1 E0.97196 F3600.000
;WIPE_START
G1 F14400.000
G1 X49.142 Y135.700 E0.85864
G1 X49.264 Y135.687 E0.82946
;WIPE_END
G1 E0.82196 F3600.000
G92 E0
G1 X47.101 Y138.927 F18000.000
G1 E0.58000 F2400.000
;TYPE:Perimeter
G1 F540.000
G1 X47.153 Y139.045 E0.58225
G1 X47.494 Y139.514 E0.59242
G1 X47.926 Y139.903 E0.60260
G1 X48.428 Y140.193 E0.61277
G1 X48.980 Y140.372 E0.62295
G1 X49.558 Y140.433 E0.63312
G1 X50.135 Y140.372 E0.64329
G1 X50.687 Y140.193 E0.65347
G1 X51.190 Y139.903 E0.66364
G1 X51.621 Y139.514 E0.67381
G1 X51.962 Y139.045 E0.68399
G1 X52.014 Y138.927 E0.68624
G1 X52.136 Y138.953 E0.68843
G1 X52.136 Y139.611 E0.69996
G1 X52.111 Y139.866 E0.70445
G1 X52.050 Y140.068 E0.70814
G1 X51.951 Y140.253 E0.71183
G1 X51.817 Y140.416 E0.71552
G1 X51.655 Y140.550 E0.71922
G1 X51.469 Y140.649 E0.72291
G1 X51.267 Y140.710 E0.72660
G1 X51.012 Y140.735 E0.73109
G1 X48.103 Y140.735 E0.78209
G1 X47.848 Y140.710 E0.78657
G1 X47.647 Y140.649 E0.79027
G1 X47.461 Y140.550 E0.79396
G1 X47.298 Y140.416 E0.79765
G1 X47.164 Y140.253 E0.80134
G1 X47.065 Y140.068 E0.80503
G1 X47.004 Y139.866 E0.80872
G1 X46.979 Y139.611 E0.81321
G1 X46.979 Y138.953 E0.82475
G1 X47.042 Y138.940 E0.82588
G1 E0.47588 F3600.000
;WIPE_START
G1 F14400.000
G1 X47.153 Y139.045 E0.43963
G1 X47.416 Y139.407 E0.33338
;WIPE_END
G1 E0.32588 F3600.000
G92 E0
G1 X47.101 Y136.386 F18000.000
G1 E0.58000 F2400.000
G1 F2700.000
G1 X46.979 Y136.360 E0.58219
G1 X46.979 Y86.953 E1.44821
G1 X47.101 Y86.927 E1.45040
G1 X47.153 Y87.045 E1.45265
G1 X47.494 Y87.514 E1.46283
G1 X47.926 Y87.903 E1.47300
G1 X48.428 Y88.193 E1.48317
G1 X48.980 Y88.372 E1.49335
G1 X49.558 Y88.433 E1.50352
G1 X50.135 Y88.372 E1.51369
G1 X50.687 Y88.193 E1.52387
G1 X51.190 Y87.903 E1.53404
G1 X51.621 Y87.514 E1.54421
G1 X51.962 Y87.045 E1.55439
G1 X52.014 Y86.927 E1.55664
G1 X52.136 Y86.953 E1.55883
G1 X52.136 Y136.360 E2.42485
G1 X52.014 Y136.386 E2.42704
G1 X51.962 Y136.268 E2.42929
G1 X51.621 Y135.799 E2.43946
G1 X51.190 Y135.411 E2.44964
G1 X50.687 Y135.120 E2.45981
G1 X50.135 Y134.941 E2.46998
G1 X49.558 Y134.880 E2.48016
G1 X48.980 Y134.941 E2.49033
G1 X48.428 Y135.120 E2.50051
G1 X47.926 Y135.411 E2.51068
G1 X47.494 Y135.799 E2.52085
G1 X47.153 Y136.268 E2.53103
G1 X47.125 Y136.331 E2.53223
G1 E2.18223 F3600.000
;WIPE_START
G1 F14400.000
G1 X46.979 Y136.360 E2.14675
G1 X46.979 Y135.909 E2.03973
;WIPE_END
G1 E2.03223 F3600.000
G92 E0
G1 X49.558 Y88.174 F18000.000
G1 E0.58000 F2400.000
G1 F540.000
G1 X49.034 Y88.119 E0.58923
G1 X48.534 Y87.957 E0.59845
G1 X48.078 Y87.694 E0.60768
G1 X47.687 Y87.341 E0.61691
G1 X47.377 Y86.916 E0.62613
G1 X47.163 Y86.435 E0.63536
G1 X47.054 Y85.920 E0.64459
G1 X47.054 Y85.393 E0.65381
G1 X47.163 Y84.879 E0.66304
G1 X47.377 Y84.398 E0.67226
G1 X47.687 Y83.972 E0.68149
G1 X48.078 Y83.620 E0.69072
G1 X48.534 Y83.357 E0.69994
G1 X49.034 Y83.194 E0.70917
G1 X49.558 Y83.139 E0.71840
G1 X50.081 Y83.194 E0.72762
G1 X50.582 Y83.357 E0.73685
G1 X51.038 Y83.620 E0.74608
G1 X51.429 Y83.972 E0.75530
G1 X51.738 Y84.398 E0.76453
G1 X51.952 Y84.879 E0.77376
G1 X52.062 Y85.393 E0.78298
G1 X52.062 Y85.920 E0.79221
G1 X51.952 Y86.435 E0.80143
G1 X51.738 Y86.916 E0.81066
G1 X51.429 Y87.341 E0.81989
G1 X51.038 Y87.694 E0.82911
G1 X50.582 Y87.957 E0.83834
G1 X50.081 Y88.119 E0.84757
G1 X49.617 Y88.168 E0.85574
G1 X49.590 Y87.913 F18000.000
G1 F540.000
G1 X49.088 Y87.867 E0.86459
G1 X48.639 Y87.721 E0.87287
G1 X48.230 Y87.484 E0.88115
G1 X47.879 Y87.168 E0.88942
G1 X47.601 Y86.786 E0.89770
G1 X47.409 Y86.355 E0.90598
G1 X47.311 Y85.893 E0.91426
G1 X47.311 Y85.420 E0.92254
G1 X47.409 Y84.958 E0.93082
G1 X47.601 Y84.527 E0.93910
G1 X47.879 Y84.145 E0.94738
G1 X48.230 Y83.829 E0.95566
G1 X48.639 Y83.593 E0.96394
G1 X49.088 Y83.447 E0.97222
G1 X49.558 Y83.397 E0.98050
G1 X50.027 Y83.447 E0.98877
G1 X50.477 Y83.593 E0.99705
G1 X50.886 Y83.829 E1.00533
G1 X51.237 Y84.145 E1.01361
G1 X51.514 Y84.527 E1.02189
G1 X51.706 Y84.958 E1.03017
G1 X51.805 Y85.420 E1.03845
G1 X51.805 Y85.893 E1.04673
G1 X51.706 Y86.355 E1.05501
G1 X51.514 Y86.786 E1.06329
G1 X51.237 Y87.168 E1.07157
G1 X50.886 Y87.484 E1.07985
G1 X50.477 Y87.721 E1.08813
G1 X50.027 Y87.867 E1.09640
G1 X49.650 Y87.906 E1.10305
G1 X49.558 Y87.657 F18000.000
;TYPE:External perimeter
G1 F540.000
G1 X49.142 Y87.614 E1.11039
G1 X48.744 Y87.484 E1.11772
G1 X48.382 Y87.275 E1.12505
G1 X48.071 Y86.995 E1.13238
G1 X47.825 Y86.657 E1.13971
G1 X47.655 Y86.275 E1.14705
G1 X47.568 Y85.866 E1.15438
G1 X47.568 Y85.448 E1.16171
G1 X47.655 Y85.038 E1.16904
G1 X47.825 Y84.656 E1.17637
G1 X48.071 Y84.318 E1.18371
G1 X48.382 Y84.038 E1.19104
G1 X48.744 Y83.829 E1.19837
G1 X49.142 Y83.700 E1.20570
G1 X49.558 Y83.656 E1.21303
G1 X49.974 Y83.700 E1.22037
G1 X50.371 Y83.829 E1.22770
G1 X50.734 Y84.038 E1.23503
G1 X51.045 Y84.318 E1.24236
G1 X51.290 Y84.656 E1.24969
G1 X51.461 Y85.038 E1.25702
G1 X51.548 Y85.448 E1.26436
G1 X51.548 Y85.866 E1.27169
G1 X51.461 Y86.275 E1.27902
G1 X51.290 Y86.657 E1.28635
G1 X51.045 Y86.995 E1.29368
G1 X50.734 Y87.275 E1.30102
G1 X50.371 Y87.484 E1.30835
G1 X49.974 Y87.614 E1.31568
G1 X49.617 Y87.651 E1.32196
G1 X49.358 Y88.004 F18000.000
G1 E0.97196 F3600.000
;WIPE_START
G1 F14400.000
G1 X49.142 Y87.614 E0.85864
G1 X49.025 Y87.576 E0.82946
;WIPE_END
G1 E0.82196 F3600.000
G92 E0
G1 X52.014 Y84.386 F18000.000
G1 E0.58000 F2400.000
;TYPE:Perimeter
G1 F540.000
G1 X51.962 Y84.268 E0.58225
G1 X51.621 Y83.799 E0.59242
G1 X51.190 Y83.411 E0.60260
G1 X50.687 Y83.120 E0.61277
G1 X50.135 Y82.941 E0.62295
G1 X49.558 Y82.880 E0.63312
G1 X48.980 Y82.941 E0.64329
G1 X48.428 Y83.120 E0.65347
G1 X47.926 Y83.411 E0.66364
G1 X47.494 Y83.799 E0.67381
G1 X47.153 Y84.268 E0.68399
G1 X47.101 Y84.386 E0.68624
G1 X46.979 Y84.360 E0.68843
G1 X46.979 Y83.702 E0.69996
G1 X47.004 Y83.447 E0.70445
G1 X47.065 Y83.246 E0.70814
G1 X47.164 Y83.061 E0.71180
G1 X47.303 Y82.893 E0.71563
G1 X47.461 Y82.763 E0.71921
G1 X47.647 Y82.664 E0.72290
G1 X47.848 Y82.603 E0.72660
G1 X48.103 Y82.578 E0.73108
G1 X51.020 Y82.579 E0.78222
G1 X51.267 Y82.603 E0.78657
G1 X51.469 Y82.664 E0.79026
G1 X51.655 Y82.763 E0.79395
G1 X51.817 Y82.897 E0.79765
G1 X51.951 Y83.060 E0.80134
G1 X52.050 Y83.246 E0.80503
G1 X52.111 Y83.447 E0.80872
G1 X52.136 Y83.702 E0.81321
G1 X52.136 Y84.360 E0.82474
G1 X52.073 Y84.373 E0.82588
G1 X52.365 Y83.397 F18000.000
G1 F2700.000
G1 X52.394 Y83.689 E0.83103
G1 X52.394 Y139.624 E1.81149
G1 X52.365 Y139.917 E1.81664
G1 X52.289 Y140.167 E1.82122
G1 X52.166 Y140.397 E1.82580
G1 X52.000 Y140.599 E1.83038
G1 X51.798 Y140.765 E1.83496
G1 X51.568 Y140.888 E1.83954
G1 X51.318 Y140.964 E1.84412
G1 X51.025 Y140.992 E1.84927
G1 X48.090 Y140.992 E1.90071
G1 X47.798 Y140.964 E1.90587
G1 X47.548 Y140.888 E1.91045
G1 X47.317 Y140.765 E1.91502
G1 X47.115 Y140.599 E1.91960
G1 X46.950 Y140.397 E1.92418
G1 X46.826 Y140.167 E1.92876
G1 X46.751 Y139.917 E1.93334
G1 X46.722 Y139.624 E1.93849
G1 X46.722 Y83.689 E2.91895
G1 X46.751 Y83.397 E2.92410
G1 X46.826 Y83.147 E2.92868
G1 X46.949 Y82.917 E2.93324
G1 X47.120 Y82.710 E2.93795
G1 X47.317 Y82.549 E2.94242
G1 X47.548 Y82.425 E2.94700
G1 X47.798 Y82.350 E2.95158
G1 X48.090 Y82.321 E2.95673
G1 X51.033 Y82.322 E3.00831
G1 X51.318 Y82.350 E3.01332
G1 X51.568 Y82.425 E3.01790
G1 X51.798 Y82.549 E3.02248
G1 X52.000 Y82.714 E3.02706
G1 X52.166 Y82.916 E3.03164
G1 X52.289 Y83.147 E3.03622
G1 X52.347 Y83.339 E3.03975
G1 X52.618 Y83.346 F18000.000
G1 F2700.000
G1 X52.651 Y83.677 E3.04557
G1 X52.651 Y139.637 E4.02646
G1 X52.618 Y139.967 E4.03228
G1 X52.528 Y140.265 E4.03775
G1 X52.381 Y140.541 E4.04322
G1 X52.183 Y140.782 E4.04868
G1 X51.942 Y140.979 E4.05415
G1 X51.667 Y141.126 E4.05962
G1 X51.368 Y141.217 E4.06508
G1 X51.038 Y141.250 E4.07090
G1 X48.078 Y141.250 E4.12279
G1 X47.747 Y141.217 E4.12861
G1 X47.449 Y141.126 E4.13407
G1 X47.174 Y140.979 E4.13954
G1 X46.933 Y140.782 E4.14501
G1 X46.735 Y140.541 E4.15047
G1 X46.588 Y140.265 E4.15594
G1 X46.497 Y139.967 E4.16141
G1 X46.465 Y139.637 E4.16723
G1 X46.465 Y83.677 E5.14812
M73 P2 R33
M73 Q2 S33
G1 X46.497 Y83.346 E5.15394
G1 X46.588 Y83.048 E5.15941
G1 X46.734 Y82.773 E5.16486
G1 X46.938 Y82.527 E5.17046
G1 X47.174 Y82.334 E5.17581
G1 X47.449 Y82.187 E5.18127
G1 X47.747 Y82.096 E5.18674
G1 X48.078 Y82.064 E5.19256
G1 X51.045 Y82.064 E5.24458
G1 X51.368 Y82.096 E5.25026
G1 X51.667 Y82.187 E5.25573
G1 X51.942 Y82.334 E5.26120
G1 X52.183 Y82.532 E5.26666
G1 X52.381 Y82.773 E5.27213
G1 X52.528 Y83.048 E5.27760
G1 X52.601 Y83.289 E5.28201
G1 X52.871 Y83.296 F18000.000
;TYPE:External perimeter
G1 F540.000
G1 X52.908 Y83.664 E5.28849
G1 X52.908 Y139.649 E6.26983
G1 X52.871 Y140.017 E6.27632
G1 X52.766 Y140.364 E6.28267
G1 X52.595 Y140.684 E6.28903
G1 X52.365 Y140.964 E6.29538
G1 X52.085 Y141.194 E6.30174
G1 X51.765 Y141.365 E6.30809
G1 X51.418 Y141.470 E6.31445
G1 X51.050 Y141.507 E6.32093
G1 X48.065 Y141.507 E6.37326
G1 X47.697 Y141.470 E6.37974
G1 X47.350 Y141.365 E6.38610
G1 X47.030 Y141.194 E6.39245
G1 X46.750 Y140.964 E6.39880
G1 X46.520 Y140.684 E6.40516
G1 X46.349 Y140.364 E6.41151
G1 X46.244 Y140.017 E6.41787
G1 X46.208 Y139.649 E6.42435
G1 X46.208 Y83.664 E7.40569
G1 X46.244 Y83.296 E7.41218
G1 X46.349 Y82.949 E7.41853
G1 X46.520 Y82.629 E7.42488
G1 X46.756 Y82.344 E7.43137
G1 X47.030 Y82.119 E7.43759
G1 X47.350 Y81.948 E7.44395
G1 X47.697 Y81.843 E7.45030
G1 X48.065 Y81.807 E7.45678
G1 X51.058 Y81.807 E7.50925
G1 X51.418 Y81.843 E7.51560
G1 X51.765 Y81.948 E7.52195
G1 X52.085 Y82.119 E7.52830
G1 X52.365 Y82.349 E7.53466
G1 X52.595 Y82.629 E7.54101
G1 X52.766 Y82.949 E7.54737
G1 X52.854 Y83.238 E7.55267
G1 X52.593 Y83.540 F18000.000
G1 X52.118 Y84.495
;TYPE:Gap fill
;WIDTH:0.234806
G1 F540.000
G1 X52.188 Y85.003 E7.55938
;WIDTH:0.118485
G1 X52.228 Y85.380 E7.56133
G1 X52.227 Y85.941 E7.56422
;WIDTH:0.157259
G1 X52.208 Y86.126 E7.56567
;WIDTH:0.196034
G1 X52.188 Y86.310 E7.56761
;WIDTH:0.241288
G1 X52.118 Y86.818 E7.57454
G1 X52.008 Y87.278 F18000.000
;WIDTH:0.121536
G1 F540.000
G1 X51.820 Y87.486 E7.57605
G1 X51.687 Y87.555 F18000.000
;TYPE:Solid infill
;WIDTH:0.300537
G1 F1800.000
G1 X51.944 Y87.811 E7.58242
G1 X51.944 Y88.176 E7.58882
G1 X51.579 Y87.811 E7.59787
G1 X51.388 Y87.984 E7.60240
G1 X51.944 Y88.540 E7.61621
G1 X51.944 Y88.904 E7.62261
G1 X51.174 Y88.134 E7.64174
G1 X50.943 Y88.268 E7.64642
G1 X51.944 Y89.268 E7.67128
G1 X51.944 Y89.633 E7.67768
G1 X50.702 Y88.391 E7.70853
G1 X50.427 Y88.480 E7.71361
G1 X51.944 Y89.997 E7.75129
G1 X51.944 Y90.361 E7.75769
G1 X50.147 Y88.565 E7.80232
G1 X49.817 Y88.600 E7.80814
G1 X51.944 Y90.726 E7.86096
G1 X51.944 Y91.090 E7.86736
G1 X49.471 Y88.618 E7.92878
G1 X49.064 Y88.575 E7.93597
G1 X51.944 Y91.454 E8.00750
G1 X51.944 Y91.819 E8.01390
G1 X48.565 Y88.440 E8.09783
G1 X48.350 Y88.370 E8.10181
G1 X47.831 Y88.071 E8.11232
G1 X51.944 Y92.183 E8.21447
G1 X51.944 Y92.547 E8.22087
G1 X47.172 Y87.775 E8.33941
G1 X47.172 Y88.140 E8.34581
G1 X51.944 Y92.912 E8.46435
G1 X51.944 Y93.276 E8.47075
G1 X47.172 Y88.504 E8.58929
G1 X47.172 Y88.868 E8.59569
G1 X51.944 Y93.640 E8.71423
G1 X51.944 Y94.005 E8.72062
G1 X47.172 Y89.233 E8.83916
G1 X47.172 Y89.597 E8.84556
G1 X51.944 Y94.369 E8.96410
G1 X51.944 Y94.733 E8.97050
G1 X47.172 Y89.961 E9.08904
G1 X47.172 Y90.326 E9.09544
G1 X51.944 Y95.098 E9.21398
G1 X51.944 Y95.462 E9.22038
G1 X47.172 Y90.690 E9.33892
M73 P3 R33
M73 Q3 S33
G1 X47.172 Y91.054 E9.34532
G1 X51.944 Y95.826 E9.46386
G1 X51.944 Y96.191 E9.47026
G1 X47.172 Y91.419 E9.58880
G1 X47.172 Y91.783 E9.59520
G1 X51.944 Y96.555 E9.71374
G1 X51.944 Y96.919 E9.72014
G1 X47.172 Y92.147 E9.83868
G1 X47.172 Y92.512 E9.84508
G1 X51.944 Y97.284 E9.96361
G1 X51.944 Y97.648 E9.97001
G1 X47.172 Y92.876 E10.08855
G1 X47.172 Y93.240 E10.09495
G1 X51.944 Y98.012 E10.21349
G1 X51.944 Y98.377 E10.21989
G1 X47.172 Y93.605 E10.33843
