; generated by PrusaSlicer 2.3.0+win64 on 2021-03-03 at 18:03:53 UTC

; 

; external perimeters extrusion width = 0.45mm
; perimeters extrusion width = 0.45mm
; infill extrusion width = 0.45mm
; solid infill extrusion width = 0.45mm
; top infill extrusion width = 0.40mm
; first layer extrusion width = 0.30mm

M73 P0 R100
M73 Q0 S100
M201 X500 Y500 Z100 E5000 ; sets maximum accelerations, mm/sec^2
M203 X500 Y500 Z10 E60 ; sets maximum feedrates, mm/sec
M204 P500 R1000 T500 ; sets acceleration (P, T) and retract acceleration (R), mm/sec^2
M205 X8.00 Y8.00 Z0.40 E5.00 ; sets the jerk limits, mm/sec
M205 S0 T0 ; sets the minimum extruding and travel feed rate, mm/sec
M107
;TYPE:Custom
G90 ; use absolute coordinates
M83 ; extruder relative mode
M104 S195 ; set extruder temp
M140 S45 ; set bed temp
M190 S45 ; wait for bed temp
M109 S195 ; wait for extruder temp
M204 S600 ;acceleration
M220 S100 ;Reset Feedrate
M221 S100 ;Reset Flowrate
G28 ; home all
G29
G1 Z2 F240
G1 X2 Y10 F3000
G1 Z0.28 F240
G92 E0.0
G1 Y190 E15.0 F1500.0 ; intro line
G1 X2.3 F5000
G1 Y10 E30 F1200.0 ; intro line
G92 E0.0
G21 ; set units to millimeters
G90 ; use absolute coordinates
M82 ; use absolute distances for extrusion
G92 E0
; Filament gcode
;LAYER_CHANGE
;Z:0.2
;HEIGHT:0.2
;BEFORE_LAYER_CHANGE
M117 INDICATOR-Layer1
;0.2


M73 P0 R99
M73 Q0 S99
G1 E-0.50000 F3600.000
G92 E0
G1 Z0.200 F18000.000
;AFTER_LAYER_CHANGE
;0.2
G1 X48.378 Y67.531
G1 E0.58000 F2400.000
;TYPE:Perimeter
;WIDTH:0.3
G1 F2700.000
G1 X148.706 Y67.531 E2.33861
G1 X148.706 Y77.860 E2.51965
G1 X48.378 Y77.860 E4.27826
G1 X48.378 Y67.591 E4.45824
G1 X48.635 Y67.788 F18000.000
G1 F2700.000
G1 X148.449 Y67.788 E6.20784
G1 X148.449 Y77.603 E6.37987
G1 X48.635 Y77.603 E8.12946
G1 X48.635 Y67.848 E8.30044
G1 X48.892 Y68.046 F18000.000
;TYPE:External perimeter
G1 F540.000
G1 X148.192 Y68.046 E10.04102
G1 X148.192 Y77.346 E10.20404
G1 X48.892 Y77.346 E11.94462
G1 X48.892 Y68.106 E12.10659
G1 X48.703 Y67.693 F18000.000
G1 E11.75659 F3600.000
;WIPE_START
G1 F14400.000
G1 X49.492 Y68.105 E11.61409
;WIPE_END
G1 E11.60659 F3600.000
G92 E0
G1 X153.378 Y65.860 F18000.000
G1 E0.58000 F2400.000
;TYPE:Perimeter
G1 F2700.000
G1 X171.997 Y65.860 E0.90637
G1 X172.130 Y65.878 E0.90873
G1 X172.207 Y65.910 E0.91018
G1 X172.275 Y65.962 E0.91169
G1 X172.361 Y66.110 E0.91469
G1 X172.378 Y66.239 E0.91697
G1 X172.378 Y67.152 E0.93297
G1 X172.361 Y67.281 E0.93525
G1 X172.275 Y67.429 E0.93824
G1 X172.127 Y67.514 E0.94124
G1 X171.999 Y67.531 E0.94352
G1 X153.378 Y67.531 E1.26991
G1 X153.378 Y77.860 E1.45095
G1 X171.999 Y77.860 E1.77734
G1 X172.127 Y77.877 E1.77963
G1 X172.207 Y77.910 E1.78114
G1 X172.275 Y77.962 E1.78265
G1 X172.361 Y78.110 E1.78564
G1 X172.378 Y78.239 E1.78792
G1 X172.378 Y79.152 E1.80392
G1 X172.361 Y79.281 E1.80620
G1 X172.275 Y79.429 E1.80920
G1 X172.127 Y79.514 E1.81219
G1 X171.999 Y79.531 E1.81447
G1 X153.378 Y79.531 E2.14087
G1 X153.378 Y91.652 E2.35332
G1 X153.361 Y91.781 E2.35560
G1 X153.328 Y91.861 E2.35711
G1 X153.275 Y91.929 E2.35863
G1 X153.127 Y92.014 E2.36162
G1 X152.999 Y92.031 E2.36390
G1 X149.086 Y92.031 E2.43249
G1 X148.957 Y92.014 E2.43477
G1 X148.877 Y91.981 E2.43628
G1 X148.809 Y91.929 E2.43779
G1 X148.723 Y91.781 E2.44079
G1 X148.706 Y91.652 E2.44307
G1 X148.706 Y79.531 E2.65552
G1 X48.378 Y79.531 E4.41413
G1 X48.378 Y91.652 E4.62659
G1 X48.361 Y91.781 E4.62887
G1 X48.275 Y91.929 E4.63186
G1 X48.207 Y91.981 E4.63337
G1 X48.127 Y92.014 E4.63488
G1 X47.999 Y92.031 E4.63716
G1 X44.086 Y92.031 E4.70575
G1 X43.957 Y92.014 E4.70803
G1 X43.877 Y91.981 E4.70954
G1 X43.809 Y91.929 E4.71105
G1 X43.723 Y91.781 E4.71405
G1 X43.706 Y91.652 E4.71633
G1 X43.706 Y53.739 E5.38089
M73 P1 R99
M73 Q1 S99
G1 X43.723 Y53.610 E5.38317
G1 X43.755 Y53.534 E5.38460
G1 X43.816 Y53.457 E5.38634
G1 X43.957 Y53.377 E5.38918
G1 X44.085 Y53.360 E5.39145
G1 X48.011 Y53.361 E5.46027
G1 X48.127 Y53.377 E5.46232
G1 X48.207 Y53.410 E5.46383
G1 X48.275 Y53.462 E5.46534
G1 X48.361 Y53.610 E5.46834
G1 X48.378 Y53.739 E5.47062
G1 X48.378 Y65.860 E5.68308
G1 X148.706 Y65.860 E7.44168
G1 X148.706 Y53.739 E7.65414
G1 X148.723 Y53.610 E7.65642
G1 X148.756 Y53.530 E7.65793
G1 X148.877 Y53.410 E7.66093
G1 X148.957 Y53.377 E7.66244
G1 X149.086 Y53.360 E7.66472
G1 X152.999 Y53.360 E7.73331
G1 X153.127 Y53.377 E7.73559
G1 X153.275 Y53.462 E7.73858
G1 X153.361 Y53.610 E7.74158
G1 X153.378 Y53.739 E7.74386
G1 X153.378 Y65.800 E7.95526
G1 X153.635 Y65.603 F18000.000
G1 F2700.000
G1 X172.014 Y65.603 E8.27743
G1 X172.198 Y65.628 E8.28068
G1 X172.337 Y65.685 E8.28331
G1 X172.459 Y65.779 E8.28600
G1 X172.552 Y65.901 E8.28870
G1 X172.611 Y66.043 E8.29140
G1 X172.635 Y66.222 E8.29457
G1 X172.635 Y67.169 E8.31116
G1 X172.611 Y67.348 E8.31433
G1 X172.552 Y67.490 E8.31703
G1 X172.459 Y67.612 E8.31972
G1 X172.337 Y67.706 E8.32242
G1 X172.195 Y67.765 E8.32512
G1 X172.015 Y67.788 E8.32829
G1 X153.635 Y67.788 E8.65047
G1 X153.635 Y77.603 E8.82250
G1 X172.015 Y77.603 E9.14468
G1 X172.195 Y77.626 E9.14785
G1 X172.337 Y77.685 E9.15054
G1 X172.459 Y77.779 E9.15324
G1 X172.552 Y77.901 E9.15594
G1 X172.611 Y78.043 E9.15863
G1 X172.635 Y78.222 E9.16180
G1 X172.635 Y79.169 E9.17840
G1 X172.611 Y79.348 E9.18156
G1 X172.552 Y79.490 E9.18426
G1 X172.459 Y79.612 E9.18696
G1 X172.337 Y79.706 E9.18966
G1 X172.195 Y79.765 E9.19235
G1 X172.015 Y79.788 E9.19552
G1 X153.635 Y79.788 E9.51770
G1 X153.635 Y91.669 E9.72595
G1 X153.611 Y91.848 E9.72912
G1 X153.552 Y91.990 E9.73181
G1 X153.459 Y92.112 E9.73451
G1 X153.337 Y92.206 E9.73721
G1 X153.195 Y92.265 E9.73991
G1 X153.015 Y92.288 E9.74307
G1 X149.069 Y92.288 E9.81225
G1 X148.889 Y92.265 E9.81542
G1 X148.747 Y92.206 E9.81812
G1 X148.625 Y92.112 E9.82082
G1 X148.532 Y91.990 E9.82351
G1 X148.473 Y91.848 E9.82621
G1 X148.449 Y91.669 E9.82938
G1 X148.449 Y79.788 E10.03763
G1 X48.635 Y79.788 E11.78722
G1 X48.635 Y91.669 E11.99547
G1 X48.611 Y91.848 E11.99864
G1 X48.552 Y91.990 E12.00133
G1 X48.459 Y92.112 E12.00403
G1 X48.337 Y92.206 E12.00673
G1 X48.195 Y92.265 E12.00942
G1 X48.015 Y92.288 E12.01259
G1 X44.069 Y92.288 E12.08177
G1 X43.889 Y92.265 E12.08494
G1 X43.747 Y92.206 E12.08764
G1 X43.625 Y92.112 E12.09033
G1 X43.532 Y91.990 E12.09303
G1 X43.473 Y91.848 E12.09573
G1 X43.449 Y91.669 E12.09890
G1 X43.449 Y53.722 E12.76405
G1 X43.473 Y53.543 E12.76721
G1 X43.531 Y53.403 E12.76987
G1 X43.634 Y53.272 E12.77279
G1 X43.747 Y53.185 E12.77530
G1 X43.889 Y53.126 E12.77800
G1 X44.069 Y53.103 E12.78116
G1 X48.028 Y53.104 E12.85057
G1 X48.195 Y53.126 E12.85351
G1 X48.337 Y53.185 E12.85621
G1 X48.459 Y53.279 E12.85890
G1 X48.552 Y53.401 E12.86160
G1 X48.611 Y53.543 E12.86430
G1 X48.635 Y53.722 E12.86747
G1 X48.635 Y65.603 E13.07571
G1 X148.449 Y65.603 E14.82531
G1 X148.449 Y53.722 E15.03355
G1 X148.473 Y53.543 E15.03672
G1 X148.532 Y53.401 E15.03942
G1 X148.625 Y53.279 E15.04212
G1 X148.747 Y53.185 E15.04481
G1 X148.889 Y53.126 E15.04751
G1 X149.069 Y53.103 E15.05068
G1 X153.015 Y53.103 E15.11986
G1 X153.195 Y53.126 E15.12303
G1 X153.337 Y53.185 E15.12572
G1 X153.459 Y53.279 E15.12842
G1 X153.552 Y53.401 E15.13112
G1 X153.611 Y53.543 E15.13382
G1 X153.635 Y53.722 E15.13698
G1 X153.635 Y65.543 E15.34418
G1 X153.892 Y65.346 F18000.000
;TYPE:External perimeter
G1 F540.000
G1 X172.032 Y65.346 E15.66214
G1 X172.266 Y65.377 E15.66628
G1 X172.466 Y65.461 E15.67009
G1 X172.642 Y65.595 E15.67397
G1 X172.777 Y65.771 E15.67785
G1 X172.862 Y65.976 E15.68174
G1 X172.892 Y66.205 E15.68580
G1 X172.892 Y67.186 E15.70298
G1 X172.862 Y67.415 E15.70704
G1 X172.777 Y67.620 E15.71092
G1 X172.642 Y67.796 E15.71480
G1 X172.466 Y67.931 E15.71869
G1 X172.262 Y68.015 E15.72257
G1 X172.032 Y68.046 E15.72663
G1 X153.892 Y68.046 E16.04460
M73 P1 R98
M73 Q1 S98
G1 X153.892 Y77.346 E16.20761
G1 X172.032 Y77.346 E16.52558
G1 X172.262 Y77.376 E16.52964
G1 X172.466 Y77.461 E16.53353
G1 X172.642 Y77.595 E16.53741
G1 X172.777 Y77.771 E16.54129
G1 X172.862 Y77.976 E16.54518
G1 X172.892 Y78.205 E16.54923
G1 X172.892 Y79.186 E16.56642
G1 X172.862 Y79.415 E16.57048
G1 X172.777 Y79.620 E16.57436
G1 X172.642 Y79.796 E16.57824
G1 X172.466 Y79.931 E16.58213
G1 X172.262 Y80.015 E16.58601
G1 X172.032 Y80.046 E16.59007
G1 X153.892 Y80.046 E16.90804
G1 X153.892 Y91.686 E17.11207
G1 X153.862 Y91.915 E17.11613
G1 X153.777 Y92.120 E17.12001
G1 X153.642 Y92.296 E17.12390
G1 X153.466 Y92.431 E17.12778
G1 X153.262 Y92.515 E17.13166
G1 X153.032 Y92.546 E17.13572
G1 X149.052 Y92.546 E17.20549
G1 X148.822 Y92.515 E17.20955
G1 X148.618 Y92.431 E17.21343
G1 X148.442 Y92.296 E17.21732
G1 X148.307 Y92.120 E17.22120
G1 X148.222 Y91.915 E17.22508
G1 X148.192 Y91.686 E17.22914
G1 X148.192 Y80.046 E17.43318
G1 X48.892 Y80.046 E19.17376
G1 X48.892 Y91.686 E19.37779
G1 X48.862 Y91.915 E19.38185
G1 X48.777 Y92.120 E19.38573
G1 X48.642 Y92.296 E19.38962
G1 X48.466 Y92.431 E19.39350
G1 X48.262 Y92.515 E19.39739
G1 X48.032 Y92.546 E19.40144
G1 X44.052 Y92.546 E19.47121
G1 X43.822 Y92.515 E19.47527
G1 X43.618 Y92.431 E19.47915
G1 X43.442 Y92.296 E19.48304
G1 X43.307 Y92.120 E19.48692
G1 X43.222 Y91.915 E19.49080
G1 X43.192 Y91.686 E19.49486
G1 X43.192 Y53.705 E20.16060
G1 X43.222 Y53.476 E20.16466
G1 X43.307 Y53.272 E20.16852
G1 X43.452 Y53.088 E20.17263
G1 X43.618 Y52.961 E20.17630
G1 X43.822 Y52.876 E20.18018
G1 X44.052 Y52.846 E20.18424
G1 X48.045 Y52.847 E20.25424
G1 X48.262 Y52.876 E20.25807
G1 X48.466 Y52.961 E20.26195
G1 X48.642 Y53.095 E20.26583
G1 X48.777 Y53.271 E20.26972
G1 X48.862 Y53.476 E20.27360
G1 X48.892 Y53.705 E20.27766
G1 X48.892 Y65.346 E20.48169
G1 X148.192 Y65.346 E22.22228
G1 X148.192 Y53.705 E22.42631
G1 X148.222 Y53.476 E22.43037
G1 X148.307 Y53.271 E22.43425
G1 X148.442 Y53.095 E22.43814
G1 X148.618 Y52.961 E22.44202
G1 X148.822 Y52.876 E22.44590
G1 X149.052 Y52.846 E22.44996
G1 X153.032 Y52.846 E22.51973
G1 X153.262 Y52.876 E22.52379
G1 X153.466 Y52.961 E22.52767
G1 X153.642 Y53.095 E22.53156
G1 X153.777 Y53.271 E22.53544
G1 X153.862 Y53.476 E22.53932
G1 X153.892 Y53.705 E22.54338
G1 X153.892 Y65.286 E22.74636
M73 P2 R98
M73 Q2 S98
G1 X153.892 Y65.746 F18000.000
G1 E22.39636 F3600.000
;WIPE_START
G1 F14400.000
G1 X154.492 Y65.288 E22.25386
;WIPE_END
G1 E22.24636 F3600.000
G92 E0
G1 X171.610 Y65.937 F18000.000
G1 E0.58000 F2400.000
;TYPE:Solid infill
;WIDTH:0.300158
G1 F1800.000
G1 X172.185 Y66.512 E0.59426
G1 X172.185 Y66.875 E0.60064
G1 X171.362 Y66.052 E0.62105
G1 X170.998 Y66.052 E0.62743
G1 X172.171 Y67.225 E0.65650
G1 X172.128 Y67.299 E0.65802
G1 X172.077 Y67.327 E0.65902
G1 X171.921 Y67.339 E0.66177
G1 X170.635 Y66.052 E0.69367
G1 X170.271 Y66.052 E0.70005
G1 X171.557 Y67.339 E0.73195
G1 X171.193 Y67.339 E0.73834
G1 X169.907 Y66.052 E0.77024
G1 X169.543 Y66.052 E0.77662
G1 X170.829 Y67.339 E0.80852
G1 X170.466 Y67.339 E0.81490
G1 X169.180 Y66.052 E0.84680
G1 X168.816 Y66.052 E0.85318
G1 X170.102 Y67.339 E0.88508
G1 X169.738 Y67.339 E0.89146
G1 X168.452 Y66.052 E0.92336
G1 X168.088 Y66.052 E0.92974
G1 X169.374 Y67.339 E0.96164
G1 X169.010 Y67.339 E0.96802
G1 X167.724 Y66.052 E0.99992
G1 X167.361 Y66.052 E1.00630
G1 X168.647 Y67.339 E1.03820
G1 X168.283 Y67.339 E1.04458
G1 X166.997 Y66.052 E1.07649
G1 X166.633 Y66.052 E1.08287
G1 X167.919 Y67.339 E1.11477
G1 X167.555 Y67.339 E1.12115
G1 X166.269 Y66.052 E1.15305
G1 X165.905 Y66.052 E1.15943
G1 X167.191 Y67.339 E1.19133
G1 X166.828 Y67.339 E1.19771
G1 X165.542 Y66.052 E1.22961
G1 X165.178 Y66.052 E1.23599
G1 X166.464 Y67.339 E1.26789
G1 X166.100 Y67.339 E1.27427
G1 X164.814 Y66.052 E1.30617
G1 X164.450 Y66.052 E1.31255
G1 X165.736 Y67.339 E1.34445
G1 X165.373 Y67.339 E1.35083
G1 X164.086 Y66.052 E1.38273
G1 X163.723 Y66.052 E1.38912
G1 X165.009 Y67.339 E1.42102
G1 X164.645 Y67.339 E1.42740
G1 X163.359 Y66.052 E1.45930
G1 X162.995 Y66.052 E1.46568
G1 X164.281 Y67.339 E1.49758
G1 X163.917 Y67.339 E1.50396
G1 X162.631 Y66.052 E1.53586
G1 X162.268 Y66.052 E1.54224
G1 X163.554 Y67.339 E1.57414
G1 X163.190 Y67.339 E1.58052
G1 X161.904 Y66.052 E1.61242
G1 X161.540 Y66.052 E1.61880
G1 X162.826 Y67.339 E1.65070
G1 X162.462 Y67.339 E1.65708
G1 X161.176 Y66.052 E1.68898
G1 X160.812 Y66.052 E1.69536
G1 X162.098 Y67.339 E1.72727
G1 X161.735 Y67.339 E1.73365
G1 X160.449 Y66.052 E1.76555
G1 X160.085 Y66.052 E1.77193
G1 X161.371 Y67.339 E1.80383
G1 X161.007 Y67.339 E1.81021
G1 X159.721 Y66.052 E1.84211
G1 X159.357 Y66.052 E1.84849
G1 X160.643 Y67.339 E1.88039
G1 X160.279 Y67.339 E1.88677
G1 X158.993 Y66.052 E1.91867
G1 X158.630 Y66.052 E1.92505
G1 X159.916 Y67.339 E1.95695
G1 X159.552 Y67.339 E1.96333
G1 X158.266 Y66.052 E1.99523
G1 X157.902 Y66.052 E2.00161
G1 X159.188 Y67.339 E2.03351
G1 X158.824 Y67.339 E2.03989
G1 X157.538 Y66.052 E2.07180
G1 X157.174 Y66.052 E2.07818
G1 X158.461 Y67.339 E2.11008
G1 X158.097 Y67.339 E2.11646
G1 X156.811 Y66.052 E2.14836
G1 X156.447 Y66.052 E2.15474
G1 X157.733 Y67.339 E2.18664
G1 X157.369 Y67.339 E2.19302
G1 X156.083 Y66.052 E2.22492
G1 X155.719 Y66.052 E2.23130
G1 X157.005 Y67.339 E2.26320
G1 X156.642 Y67.339 E2.26958
G1 X155.356 Y66.052 E2.30148
G1 X154.992 Y66.052 E2.30786
G1 X156.278 Y67.339 E2.33976
G1 X155.914 Y67.339 E2.34614
G1 X154.628 Y66.052 E2.37804
G1 X154.264 Y66.052 E2.38443
G1 X155.550 Y67.339 E2.41633
G1 X155.186 Y67.339 E2.42271
G1 X153.785 Y65.937 E2.45748
G1 E2.10748 F3600.000
;WIPE_START
G1 F14400.000
G1 X154.209 Y66.361 E1.96498
;WIPE_END
G1 E1.95748 F3600.000
G92 E0
G1 X153.301 Y53.812 F18000.000
G1 E0.58000 F2400.000
G1 F1800.000
G1 X153.050 Y53.561 E0.58622
G1 X152.678 Y53.552 E0.59275
G1 X153.185 Y54.060 E0.60533
G1 X153.185 Y54.424 E0.61171
G1 X152.314 Y53.552 E0.63332
G1 X151.950 Y53.552 E0.63970
G1 X153.185 Y54.787 E0.67033
G1 X153.185 Y55.151 E0.67671
G1 X151.586 Y53.552 E0.71636
G1 X151.223 Y53.552 E0.72274
G1 X153.185 Y55.515 E0.77142
G1 X153.185 Y55.879 E0.77780
G1 X150.859 Y53.552 E0.83550
G1 X150.495 Y53.552 E0.84188
G1 X153.185 Y56.242 E0.90860
G1 X153.185 Y56.606 E0.91498
G1 X150.131 Y53.552 E0.99073
G1 X149.768 Y53.552 E0.99711
G1 X153.185 Y56.970 E1.08188
G1 X153.185 Y57.334 E1.08826
G1 X149.404 Y53.552 E1.18206
G1 X149.047 Y53.559 E1.18832
G1 X153.185 Y57.698 E1.29097
G1 X153.185 Y58.061 E1.29735
G1 X148.899 Y53.775 E1.40366
G1 X148.899 Y54.139 E1.41004
G1 X153.185 Y58.425 E1.51636
G1 X153.185 Y58.789 E1.52274
G1 X148.899 Y54.503 E1.62905
G1 X148.899 Y54.867 E1.63543
G1 X153.185 Y59.153 E1.74175
G1 X153.185 Y59.517 E1.74813
G1 X148.899 Y55.231 E1.85444
G1 X148.899 Y55.594 E1.86082
G1 X153.185 Y59.880 E1.96713
G1 X153.185 Y60.244 E1.97351
G1 X148.899 Y55.958 E2.07983
G1 X148.899 Y56.322 E2.08621
G1 X153.185 Y60.608 E2.19252
G1 X153.185 Y60.972 E2.19890
G1 X148.899 Y56.686 E2.30522
G1 X148.899 Y57.049 E2.31160
G1 X153.185 Y61.336 E2.41791
G1 X153.185 Y61.699 E2.42429
G1 X148.899 Y57.413 E2.53061
G1 X148.899 Y57.777 E2.53699
G1 X153.185 Y62.063 E2.64330
G1 X153.185 Y62.427 E2.64968
G1 X148.899 Y58.141 E2.75599
G1 X148.899 Y58.505 E2.76237
G1 X153.185 Y62.791 E2.86869
G1 X153.185 Y63.154 E2.87507
G1 X148.899 Y58.868 E2.98138
G1 X148.899 Y59.232 E2.98776
G1 X153.185 Y63.518 E3.09408
G1 X153.185 Y63.882 E3.10046
G1 X148.899 Y59.596 E3.20677
G1 X148.899 Y59.960 E3.21315
G1 X153.185 Y64.246 E3.31946
G1 X153.185 Y64.610 E3.32585
G1 X148.899 Y60.324 E3.43216
G1 X148.899 Y60.687 E3.43854
G1 X153.185 Y64.973 E3.54485
G1 X153.185 Y65.337 E3.55123
G1 X148.899 Y61.051 E3.65755
G1 X148.899 Y61.415 E3.66393
G1 X153.185 Y65.701 E3.77024
G1 X153.185 Y66.052 E3.77641
G1 X153.537 Y66.052 E3.78257
G1 X154.823 Y67.339 E3.81447
G1 X154.459 Y67.339 E3.82085
G1 X148.899 Y61.779 E3.95876
G1 X148.899 Y62.143 E3.96514
G1 X154.095 Y67.339 E4.09403
G1 X153.731 Y67.339 E4.10041
G1 X148.899 Y62.506 E4.22027
G1 X148.899 Y62.870 E4.22665
G1 X153.367 Y67.339 E4.33749
G1 X153.185 Y67.339 E4.34069
G1 X153.185 Y67.520 E4.34387
G1 X148.899 Y63.234 E4.45018
G1 X148.899 Y63.598 E4.45656
G1 X153.185 Y67.884 E4.56288
G1 X153.185 Y68.248 E4.56926
M73 P2 R97
M73 Q2 S97
G1 X148.899 Y63.961 E4.67557
G1 X148.899 Y64.325 E4.68195
G1 X153.185 Y68.611 E4.78827
G1 X153.185 Y68.975 E4.79465
G1 X148.899 Y64.689 E4.90096
G1 X148.899 Y65.053 E4.90734
