; generated by PrusaSlicer 2.3.0+win64 on 2021-03-12 at 19:14:06 UTC

; 

; external perimeters extrusion width = 0.45mm
; perimeters extrusion width = 0.45mm
; infill extrusion width = 0.45mm
; solid infill extrusion width = 0.45mm
; top infill extrusion width = 0.40mm
; support material extrusion width = 0.38mm
; first layer extrusion width = 0.30mm

M73 P0 R55
M73 Q0 S55
M201 X500 Y500 Z100 E5000 ; sets maximum accelerations, mm/sec^2
M203 X500 Y500 Z10 E60 ; sets maximum feedrates, mm/sec
M204 P500 R1000 T500 ; sets acceleration (P, T) and retract acceleration (R), mm/sec^2
M205 X8.00 Y8.00 Z0.40 E5.00 ; sets the jerk limits, mm/sec
M205 S0 T0 ; sets the minimum extruding and travel feed rate, mm/sec
M107
;TYPE:Custom
G90 ; use absolute coordinates
M83 ; extruder relative mode
M104 S195 ; set extruder temp
M140 S50 ; set bed temp
M190 S50 ; wait for bed temp
M109 S195 ; wait for extruder temp
M204 S600 ;acceleration
M220 S100 ;Reset Feedrate
M221 S100 ;Reset Flowrate
G28 ; home all
G29
G1 Z2 F240
G1 X2 Y10 F3000
G1 Z0.28 F240
G92 E0.0
G1 Y190 E15.0 F1500.0 ; intro line
G1 X2.3 F5000
G1 Y10 E30 F1200.0 ; intro line
G92 E0.0
G21 ; set units to millimeters
G90 ; use absolute coordinates
M82 ; use absolute distances for extrusion
G92 E0
; Filament gcode
;LAYER_CHANGE
;Z:0.2
;HEIGHT:0.2
;BEFORE_LAYER_CHANGE
M117 INDICATOR-Layer1
;0.2


G1 E-0.50000 F3600.000
G92 E0
G1 Z0.200 F18000.000
;AFTER_LAYER_CHANGE
;0.2
G1 X95.396 Y82.465
G1 E0.58000 F2400.000
;TYPE:Support material
;WIDTH:0.3
G1 F900.000
G1 X95.396 Y83.784 E0.60311
G1 X95.910 Y83.784 E0.61212
G1 X95.910 Y82.581 E0.63321
G1 X96.424 Y82.581 E0.64222
G1 X96.424 Y83.784 E0.66330
G1 X96.938 Y83.784 E0.67232
G1 X96.938 Y82.581 E0.69340
G1 X97.452 Y82.581 E0.70241
G1 X97.452 Y83.784 E0.72350
G1 X97.967 Y83.784 E0.73251
G1 X97.967 Y82.581 E0.75359
G1 X98.481 Y82.581 E0.76260
G1 X98.481 Y83.784 E0.78369
G1 X98.995 Y83.784 E0.79270
G1 X98.995 Y82.581 E0.81378
G1 X99.509 Y82.581 E0.82280
G1 X99.509 Y83.784 E0.84388
G1 X100.023 Y83.784 E0.85289
G1 X100.023 Y82.612 E0.87343
G1 X100.537 Y82.828 E0.88321
G1 X100.537 Y83.784 E0.89996
G1 X101.052 Y83.784 E0.90897
G1 X101.052 Y83.045 E0.92192
G1 X101.566 Y83.261 E0.93170
G1 X101.566 Y83.784 E0.94086
G1 X102.080 Y83.784 E0.94987
G1 X102.080 Y83.506 E0.95474
G1 X102.594 Y83.763 E0.96481
G1 X102.594 Y83.899 E0.96720
G1 E0.61720 F3600.000
;WIPE_START
G1 F14400.000
G1 X102.594 Y83.763 E0.58474
G1 X102.180 Y83.556 E0.47470
;WIPE_END
G1 E0.46720 F3600.000
G92 E0
G1 X95.396 Y85.465 F18000.000
G1 E0.58000 F2400.000
G1 F900.000
G1 X95.396 Y90.863 E0.67461
G1 X95.910 Y90.863 E0.68362
G1 X95.910 Y85.581 E0.77621
G1 X96.424 Y85.581 E0.78522
G1 X96.424 Y90.863 E0.87780
G1 X96.938 Y90.863 E0.88681
G1 X96.938 Y85.581 E0.97940
G1 X97.452 Y85.581 E0.98841
G1 X97.452 Y90.863 E1.08099
G1 X97.967 Y90.863 E1.09000
G1 X97.967 Y85.581 E1.18259
G1 X98.481 Y85.581 E1.19160
G1 X98.481 Y90.863 E1.28418
G1 X98.995 Y90.863 E1.29319
G1 X98.995 Y85.581 E1.38577
G1 X99.344 Y85.581 E1.39189
G1 X99.509 Y85.650 E1.39503
G1 X99.509 Y90.863 E1.48640
G1 X100.023 Y90.863 E1.49541
G1 X100.023 Y85.867 E1.58298
G1 X100.537 Y86.089 E1.59279
G1 X100.537 Y90.863 E1.67647
G1 X101.052 Y90.863 E1.68548
G1 X101.052 Y86.346 E1.76466
G1 X101.566 Y86.602 E1.77473
G1 X101.566 Y90.863 E1.84941
G1 X102.080 Y90.863 E1.85842
G1 X102.080 Y86.898 E1.92792
G1 X102.594 Y87.197 E1.93835
G1 X102.594 Y90.863 E2.00260
G1 X103.108 Y90.863 E2.01161
G1 X103.108 Y87.531 E2.07002
G1 X103.622 Y87.876 E2.08088
G1 X103.622 Y90.863 E2.13322
G1 X104.137 Y90.863 E2.14223
G1 X104.137 Y88.256 E2.18793
G1 X104.651 Y88.652 E2.19930
G1 X104.651 Y90.863 E2.23806
G1 X105.165 Y90.863 E2.24707
G1 X105.165 Y89.086 E2.27821
G1 X105.679 Y89.538 E2.29021
G1 X105.679 Y90.978 E2.31547
G1 E1.96547 F3600.000
;WIPE_START
G1 F14400.000
G1 X105.679 Y90.378 E1.82297
;WIPE_END
G1 E1.81547 F3600.000
G92 E0
G1 X108.555 Y90.659 F18000.000
G1 E0.58000 F2400.000
;TYPE:Perimeter
G1 F540.000
G1 X108.743 Y90.636 E0.58331
G1 X109.313 Y90.419 E0.59401
G1 X109.807 Y90.078 E0.60453
G1 X110.217 Y89.616 E0.61535
G1 X110.500 Y89.075 E0.62606
G1 X110.645 Y88.483 E0.63674
G1 X110.644 Y87.875 E0.64741
G1 X110.501 Y87.292 E0.65793
G1 X110.215 Y86.745 E0.66875
G1 X109.811 Y86.289 E0.67942
G1 X109.310 Y85.943 E0.69009
G1 X108.740 Y85.727 E0.70077
G1 X108.135 Y85.654 E0.71145
G1 X107.532 Y85.727 E0.72210
G1 X106.960 Y85.944 E0.73282
G1 X106.459 Y86.290 E0.74350
G1 X106.055 Y86.746 E0.75419
G1 X105.771 Y87.286 E0.76487
G1 X105.654 Y87.760 E0.77344
G1 X104.566 Y86.920 E0.79755
G1 X103.427 Y86.155 E0.82160
G1 X102.261 Y85.476 E0.84525
G1 X101.754 Y85.222 E0.85519
G1 X101.782 Y85.103 E0.85733
G1 X111.214 Y85.103 E1.02266
G1 X111.214 Y94.533 E1.18795
G1 X111.095 Y94.562 E1.19009
G1 X110.861 Y94.092 E1.19928
G1 X110.161 Y92.887 E1.22371
G1 X109.395 Y91.749 E1.24776
G1 X108.592 Y90.706 E1.27083
G1 X108.038 Y90.462 F18000.000
G1 F2700.000
G1 X108.681 Y90.385 E1.28218
G1 X109.192 Y90.190 E1.29177
G1 X109.635 Y89.884 E1.30121
G1 X110.004 Y89.469 E1.31094
G1 X110.258 Y88.984 E1.32054
G1 X110.388 Y88.452 E1.33013
G1 X110.387 Y87.906 E1.33971
G1 X110.259 Y87.383 E1.34914
G1 X110.002 Y86.892 E1.35887
G1 X109.639 Y86.483 E1.36844
G1 X109.190 Y86.173 E1.37802
G1 X108.678 Y85.979 E1.38760
G1 X108.135 Y85.913 E1.39718
G1 X107.594 Y85.979 E1.40674
G1 X107.081 Y86.173 E1.41637
G1 X106.630 Y86.484 E1.42595
G1 X106.268 Y86.893 E1.43554
G1 X106.013 Y87.378 E1.44513
G1 X105.883 Y87.909 E1.45472
G1 X105.883 Y88.302 E1.46161
G1 X105.505 Y87.970 E1.47041
G1 X104.415 Y87.129 E1.49455
G1 X103.290 Y86.373 E1.51831
G1 X102.139 Y85.702 E1.54167
G1 X100.901 Y85.083 E1.56592
G1 X100.632 Y84.970 E1.57104
G1 X100.657 Y84.846 E1.57325
G1 X111.471 Y84.846 E1.76281
G1 X111.471 Y95.661 E1.95238
G1 X111.347 Y95.686 E1.95459
G1 X111.230 Y95.407 E1.95990
M73 P1 R55
M73 Q1 S55
G1 X110.635 Y94.215 E1.98326
G1 X109.943 Y93.024 E2.00740
G1 X109.186 Y91.899 E2.03116
G1 X108.373 Y90.844 E2.05451
G1 X108.078 Y90.507 E2.06237
G1 E1.71237 F3600.000
;WIPE_START
G1 F14400.000
G1 X108.666 Y90.388 E1.56987
;WIPE_END
G1 E1.56237 F3600.000
G92 E0
G1 X111.095 Y113.803 F18000.000
G1 E0.58000 F2400.000
G1 F540.000
G1 X111.214 Y113.831 E0.58214
G1 X111.214 Y123.261 E0.74744
G1 X101.784 Y123.261 E0.91273
G1 X101.756 Y123.142 E0.91487
G1 X102.245 Y122.898 E0.92445
G1 X103.430 Y122.208 E0.94848
G1 X104.568 Y121.443 E0.97252
G1 X105.655 Y120.605 E0.99658
G1 X105.775 Y121.085 E1.00527
G1 X106.054 Y121.617 E1.01578
G1 X106.458 Y122.074 E1.02648
G1 X106.967 Y122.423 E1.03731
G1 X107.528 Y122.636 E1.04782
G1 X108.133 Y122.710 E1.05849
G1 X108.738 Y122.637 E1.06917
G1 X109.309 Y122.421 E1.07988
G1 X109.816 Y122.069 E1.09071
G1 X110.214 Y121.620 E1.10122
G1 X110.498 Y121.082 E1.11189
G1 X110.644 Y120.490 E1.12257
G1 X110.645 Y119.879 E1.13328
G1 X110.496 Y119.280 E1.14411
G1 X110.217 Y118.749 E1.15463
G1 X109.814 Y118.292 E1.16530
G1 X109.313 Y117.946 E1.17598
G1 X108.743 Y117.728 E1.18668
G1 X108.555 Y117.706 E1.18999
G1 X109.396 Y116.614 E1.21414
G1 X110.161 Y115.477 E1.23817
G1 X110.851 Y114.292 E1.26221
G1 X111.068 Y113.857 E1.27074
G1 X111.347 Y112.678 F18000.000
G1 F2700.000
G1 X111.471 Y112.703 E1.27295
G1 X111.471 Y123.518 E1.46251
G1 X100.656 Y123.518 E1.65208
G1 X100.631 Y123.394 E1.65429
G1 X100.910 Y123.277 E1.65959
G1 X102.122 Y122.672 E1.68334
G1 X103.293 Y121.990 E1.70709
G1 X104.417 Y121.234 E1.73083
G1 X105.490 Y120.407 E1.75458
G1 X105.883 Y120.062 E1.76374
G1 X105.883 Y120.455 E1.77062
G1 X106.017 Y120.993 E1.78035
G1 X106.267 Y121.470 E1.78978
G1 X106.630 Y121.880 E1.79938
G1 X107.087 Y122.194 E1.80911
G1 X107.590 Y122.385 E1.81854
G1 X108.133 Y122.451 E1.82812
G1 X108.676 Y122.386 E1.83770
G1 X109.189 Y122.192 E1.84731
G1 X109.644 Y121.876 E1.85704
G1 X110.001 Y121.473 E1.86647
G1 X110.256 Y120.989 E1.87605
G1 X110.387 Y120.459 E1.88563
G1 X110.388 Y119.911 E1.89524
G1 X110.254 Y119.372 E1.90497
G1 X110.004 Y118.896 E1.91440
G1 X109.642 Y118.486 E1.92398
G1 X109.193 Y118.175 E1.93356
G1 X108.681 Y117.980 E1.94317
G1 X108.039 Y117.903 E1.95449
G1 X108.360 Y117.537 E1.96302
G1 X109.187 Y116.464 E1.98677
G1 X109.943 Y115.340 E2.01051
G1 X110.625 Y114.169 E2.03426
G1 X111.230 Y112.957 E2.05801
G1 X111.324 Y112.734 E2.06226
G1 E1.71226 F3600.000
;WIPE_START
G1 F14400.000
G1 X111.471 Y112.703 E1.67661
G1 X111.471 Y113.153 E1.56976
;WIPE_END
G1 E1.56226 F3600.000
G92 E0
G1 X82.515 Y123.142 F18000.000
G1 E0.58000 F2400.000
G1 F540.000
G1 X82.487 Y123.261 E0.58214
G1 X73.057 Y123.261 E0.74744
G1 X73.057 Y113.831 E0.91273
G1 X73.175 Y113.803 E0.91487
G1 X73.419 Y114.292 E0.92445
G1 X74.110 Y115.477 E0.94849
G1 X74.888 Y116.632 E0.97291
G1 X75.715 Y117.705 E0.99665
G1 X75.536 Y117.727 E0.99981
G1 X74.958 Y117.945 E1.01063
G1 X74.456 Y118.292 E1.02134
G1 X74.053 Y118.749 E1.03202
G1 X73.771 Y119.288 E1.04269
G1 X73.627 Y119.871 E1.05321
G1 X73.626 Y120.489 E1.06403
G1 X73.773 Y121.082 E1.07474
G1 X74.057 Y121.621 E1.08542
G1 X74.461 Y122.076 E1.09609
G1 X74.955 Y122.417 E1.10661
G1 X75.531 Y122.637 E1.11743
G1 X76.138 Y122.710 E1.12814
G1 X76.743 Y122.636 E1.13882
G1 X77.312 Y122.420 E1.14949
G1 X77.806 Y122.079 E1.16001
G1 X78.216 Y121.618 E1.17083
G1 X78.500 Y121.077 E1.18153
G1 X78.616 Y120.605 E1.19005
G1 X79.703 Y121.443 E1.21411
G1 X80.841 Y122.208 E1.23814
G1 X82.026 Y122.898 E1.26218
G1 X82.461 Y123.115 E1.27070
G1 X83.639 Y123.394 F18000.000
G1 F2700.000
G1 X83.614 Y123.518 E1.27292
G1 X72.799 Y123.518 E1.46248
G1 X72.799 Y112.703 E1.65205
G1 X72.923 Y112.678 E1.65426
G1 X73.041 Y112.957 E1.65956
G1 X73.646 Y114.169 E1.68331
G1 X74.328 Y115.340 E1.70706
G1 X75.097 Y116.482 E1.73119
G1 X75.910 Y117.537 E1.75455
G1 X76.230 Y117.901 E1.76305
G1 X75.598 Y117.978 E1.77421
G1 X75.079 Y118.174 E1.78394
G1 X74.628 Y118.486 E1.79354
G1 X74.266 Y118.896 E1.80313
G1 X74.013 Y119.380 E1.81271
G1 X73.884 Y119.903 E1.82214
G1 X73.883 Y120.458 E1.83187
G1 X74.015 Y120.989 E1.84147
G1 X74.270 Y121.473 E1.85106
G1 X74.632 Y121.882 E1.86064
G1 X75.075 Y122.188 E1.87007
G1 X75.594 Y122.386 E1.87980
G1 X76.138 Y122.451 E1.88940
G1 X76.681 Y122.385 E1.89899
G1 X77.191 Y122.190 E1.90857
G1 X77.634 Y121.885 E1.91800
G1 X78.003 Y121.471 E1.92772
G1 X78.257 Y120.985 E1.93733
G1 X78.386 Y120.463 E1.94676
G1 X78.387 Y120.062 E1.95378
G1 X78.780 Y120.407 E1.96295
G1 X79.853 Y121.234 E1.98669
G1 X80.978 Y121.990 E2.01044
G1 X82.148 Y122.672 E2.03419
G1 X83.360 Y123.277 E2.05793
G1 X83.584 Y123.371 E2.06219
G1 E1.71219 F3600.000
;WIPE_START
G1 F14400.000
G1 X83.614 Y123.518 E1.67654
G1 X83.164 Y123.518 E1.56969
;WIPE_END
G1 E1.56219 F3600.000
G92 E0
G1 X73.175 Y94.562 F18000.000
G1 E0.58000 F2400.000
G1 F540.000
G1 X73.057 Y94.534 E0.58214
G1 X73.057 Y85.103 E0.74744
G1 X82.487 Y85.103 E0.91273
G1 X82.515 Y85.222 E0.91487
G1 X82.026 Y85.466 E0.92445
G1 X80.841 Y86.157 E0.94849
G1 X79.685 Y86.935 E0.97291
G1 X78.616 Y87.759 E0.99658
G1 X78.495 Y87.279 E1.00526
G1 X78.216 Y86.747 E1.01579
G1 X77.813 Y86.291 E1.02647
G1 X77.311 Y85.944 E1.03716
G1 X76.740 Y85.727 E1.04787
G1 X76.128 Y85.655 E1.05867
G1 X75.531 Y85.727 E1.06920
G1 X74.962 Y85.943 E1.07988
G1 X74.460 Y86.289 E1.09056
G1 X74.054 Y86.746 E1.10127
G1 X73.770 Y87.292 E1.11207
G1 X73.626 Y87.876 E1.12261
G1 X73.625 Y88.487 E1.13332
G1 X73.775 Y89.085 E1.14411
G1 X74.054 Y89.617 E1.15466
G1 X74.459 Y90.075 E1.16536
G1 X74.966 Y90.423 E1.17616
G1 X75.529 Y90.636 E1.18670
G1 X75.715 Y90.659 E1.18999
G1 X74.875 Y91.750 E1.21412
G1 X74.110 Y92.888 E1.23816
G1 X73.419 Y94.073 E1.26220
G1 X73.202 Y94.508 E1.27072
G1 X72.923 Y95.686 F18000.000
G1 F2700.000
G1 X72.799 Y95.661 E1.27293
G1 X72.799 Y84.846 E1.46250
G1 X83.614 Y84.846 E1.65206
G1 X83.639 Y84.970 E1.65428
G1 X83.360 Y85.087 E1.65958
G1 X82.148 Y85.693 E1.68333
G1 X80.977 Y86.375 E1.70708
G1 X79.836 Y87.144 E1.73121
G1 X78.780 Y87.957 E1.75457
G1 X78.388 Y88.302 E1.76372
G1 X78.388 Y87.908 E1.77062
G1 X78.254 Y87.371 E1.78033
G1 X78.003 Y86.894 E1.78978
G1 X77.641 Y86.484 E1.79936
G1 X77.191 Y86.173 E1.80895
G1 X76.678 Y85.979 E1.81856
G1 X76.128 Y85.914 E1.82826
G1 X75.593 Y85.979 E1.83771
G1 X75.082 Y86.172 E1.84730
G1 X74.631 Y86.483 E1.85689
G1 X74.268 Y86.893 E1.86649
G1 X74.012 Y87.384 E1.87620
G1 X73.883 Y87.908 E1.88565
G1 X73.883 Y88.456 E1.89525
G1 X74.016 Y88.993 E1.90496
G1 X74.267 Y89.470 E1.91441
G1 X74.630 Y89.881 E1.92402
G1 X75.086 Y90.194 E1.93372
G1 X75.591 Y90.385 E1.94317
G1 X76.230 Y90.463 E1.95446
G1 X75.910 Y90.827 E1.96295
G1 X75.084 Y91.900 E1.98670
G1 X74.328 Y93.024 E2.01045
G1 X73.646 Y94.195 E2.03419
G1 X73.041 Y95.407 E2.05794
G1 X72.946 Y95.631 E2.06219
G1 E1.71219 F3600.000
;WIPE_START
G1 F14400.000
G1 X72.799 Y95.661 E1.67655
G1 X72.799 Y95.211 E1.56969
;WIPE_END
G1 E1.56219 F3600.000
G92 E0
G1 X76.819 Y90.182 F18000.000
G1 E0.58000 F2400.000
G1 F2700.000
G1 X76.751 Y90.083 E0.58211
G1 X76.616 Y90.134 E0.58465
G1 X76.135 Y90.192 E0.59313
G1 X75.653 Y90.134 E0.60164
G1 X75.207 Y89.964 E0.61001
G1 X74.802 Y89.686 E0.61862
G1 X74.480 Y89.323 E0.62712
G1 X74.258 Y88.900 E0.63549
G1 X74.140 Y88.424 E0.64410
G1 X74.140 Y87.939 E0.65260
G1 X74.254 Y87.475 E0.66097
G1 X74.481 Y87.040 E0.66957
G1 X74.803 Y86.677 E0.67808
G1 X75.202 Y86.402 E0.68657
G1 X75.655 Y86.230 E0.69507
G1 X76.129 Y86.173 E0.70343
G1 X76.617 Y86.230 E0.71204
G1 X77.070 Y86.403 E0.72055
G1 X77.469 Y86.678 E0.72904
G1 X77.790 Y87.041 E0.73753
G1 X78.012 Y87.463 E0.74589
G1 X78.131 Y87.940 E0.75450
G1 X78.131 Y88.425 E0.76301
G1 X78.036 Y88.810 E0.76995
G1 X78.133 Y88.868 E0.77194
G1 X78.944 Y88.156 E0.79086
G1 X79.986 Y87.353 E0.81393
G1 X81.114 Y86.593 E0.83777
G1 X82.270 Y85.919 E0.86123
G1 X83.468 Y85.321 E0.88468
G1 X84.765 Y84.775 E0.90935
G1 X99.506 Y84.775 E1.16775
G1 X100.794 Y85.317 E1.19224
G1 X102.017 Y85.928 E1.21620
G1 X103.154 Y86.591 E1.23927
G1 X104.265 Y87.338 E1.26273
G1 X105.342 Y88.169 E1.28658
G1 X106.138 Y88.868 E1.30515
G1 X106.235 Y88.809 E1.30714
G1 X106.140 Y88.424 E1.31409
G1 X106.140 Y87.940 E1.32258
G1 X106.256 Y87.469 E1.33108
G1 X106.481 Y87.040 E1.33957
G1 X106.802 Y86.677 E1.34807
G1 X107.201 Y86.402 E1.35656
G1 X107.656 Y86.230 E1.36509
G1 X108.135 Y86.172 E1.37355
G1 X108.616 Y86.230 E1.38204
G1 X109.069 Y86.402 E1.39053
G1 X109.468 Y86.677 E1.39902
G1 X109.788 Y87.039 E1.40749
G1 X110.016 Y87.475 E1.41612
G1 X110.130 Y87.937 E1.42447
G1 X110.131 Y88.422 E1.43295
G1 X110.016 Y88.892 E1.44145
G1 X109.791 Y89.322 E1.44995
G1 X109.464 Y89.690 E1.45858
G1 X109.072 Y89.961 E1.46693
G1 X108.619 Y90.133 E1.47543
G1 X108.130 Y90.192 E1.48406
G1 X107.654 Y90.134 E1.49246
G1 X107.520 Y90.083 E1.49498
G1 X107.451 Y90.182 E1.49710
G1 X108.174 Y91.007 E1.51633
G1 X108.978 Y92.050 E1.53940
G1 X109.725 Y93.160 E1.56286
G1 X110.408 Y94.337 E1.58671
G1 X110.996 Y95.514 E1.60978
G1 X111.542 Y96.811 E1.63445
G1 X111.542 Y111.553 E1.89285
G1 X110.996 Y112.850 E1.91752
G1 X110.399 Y114.047 E1.94097
G1 X109.725 Y115.203 E1.96443
G1 X108.978 Y116.314 E1.98788
G1 X108.162 Y117.374 E2.01134
G1 X107.451 Y118.182 E2.03020
G1 X107.520 Y118.281 E2.03231
G1 X107.654 Y118.230 E2.03483
G1 X108.130 Y118.173 E2.04322
G1 X108.619 Y118.231 E2.05185
G1 X109.072 Y118.404 E2.06036
G1 X109.470 Y118.680 E2.06885
G1 X109.791 Y119.043 E2.07734
G1 X110.012 Y119.464 E2.08568
G1 X110.131 Y119.942 E2.09431
G1 X110.130 Y120.427 E2.10282
G1 X110.014 Y120.897 E2.11131
G1 X109.788 Y121.326 E2.11980
G1 X109.472 Y121.682 E2.12814
G1 X109.068 Y121.963 E2.13677
G1 X108.614 Y122.134 E2.14528
G1 X108.133 Y122.192 E2.15377
G1 X107.652 Y122.133 E2.16226
G1 X107.207 Y121.965 E2.17060
G1 X106.801 Y121.686 E2.17923
G1 X106.480 Y121.323 E2.18773
G1 X106.259 Y120.901 E2.19608
G1 X106.140 Y120.424 E2.20470
G1 X106.140 Y119.938 E2.21321
G1 X106.235 Y119.555 E2.22013
M73 P1 R54
M73 Q1 S54
G1 X106.138 Y119.496 E2.22212
G1 X105.327 Y120.209 E2.24104
G1 X104.267 Y121.025 E2.26450
G1 X103.156 Y121.772 E2.28795
G1 X102.000 Y122.445 E2.31141
G1 X100.803 Y123.043 E2.33486
G1 X99.506 Y123.589 E2.35953
G1 X84.765 Y123.589 E2.61793
G1 X83.468 Y123.043 E2.64259
G1 X82.270 Y122.445 E2.66605
G1 X81.114 Y121.772 E2.68950
