; generated by PrusaSlicer 2.3.0+win64 on 2021-03-12 at 17:24:37 UTC

; 

; external perimeters extrusion width = 0.45mm
; perimeters extrusion width = 0.45mm
; infill extrusion width = 0.45mm
; solid infill extrusion width = 0.45mm
; top infill extrusion width = 0.40mm
; support material extrusion width = 0.38mm
; first layer extrusion width = 0.30mm

M73 P0 R96
M73 Q0 S96
M201 X500 Y500 Z100 E5000 ; sets maximum accelerations, mm/sec^2
M203 X500 Y500 Z10 E60 ; sets maximum feedrates, mm/sec
M204 P500 R1000 T500 ; sets acceleration (P, T) and retract acceleration (R), mm/sec^2
M205 X8.00 Y8.00 Z0.40 E5.00 ; sets the jerk limits, mm/sec
M205 S0 T0 ; sets the minimum extruding and travel feed rate, mm/sec
M107
;TYPE:Custom
G90 ; use absolute coordinates
M83 ; extruder relative mode
M104 S195 ; set extruder temp
M140 S50 ; set bed temp
M190 S50 ; wait for bed temp
M109 S195 ; wait for extruder temp
M204 S600 ;acceleration
M220 S100 ;Reset Feedrate
M221 S100 ;Reset Flowrate
G28 ; home all
G29
G1 Z2 F240
G1 X2 Y10 F3000
G1 Z0.28 F240
G92 E0.0
G1 Y190 E15.0 F1500.0 ; intro line
G1 X2.3 F5000
G1 Y10 E30 F1200.0 ; intro line
G92 E0.0
G21 ; set units to millimeters
G90 ; use absolute coordinates
M82 ; use absolute distances for extrusion
G92 E0
; Filament gcode
;LAYER_CHANGE
;Z:0.2
;HEIGHT:0.2
;BEFORE_LAYER_CHANGE
M117 INDICATOR-Layer1
;0.2


G1 E-0.50000 F3600.000
G92 E0
G1 Z0.200 F18000.000
;AFTER_LAYER_CHANGE
;0.2
G1 X82.274 Y150.190
G1 E0.58000 F2400.000
;TYPE:Support material
;WIDTH:0.3
G1 F900.000
G1 X82.274 Y134.646 E0.85246
M73 P0 R95
M73 Q0 S95
G1 X82.788 Y134.646 E0.86147
G1 X82.788 Y150.074 E1.13191
G1 X83.303 Y150.074 E1.14092
G1 X83.303 Y134.646 E1.41135
G1 X83.817 Y134.646 E1.42036
G1 X83.817 Y150.074 E1.69080
G1 X84.331 Y150.074 E1.69981
G1 X84.331 Y132.309 E2.01121
G1 X84.845 Y132.309 E2.02022
G1 X84.845 Y150.074 E2.33162
G1 X85.359 Y150.074 E2.34063
G1 X85.359 Y132.309 E2.65203
G1 X85.873 Y132.309 E2.66104
G1 X85.873 Y150.074 E2.97244
G1 X86.388 Y150.074 E2.98145
G1 X86.388 Y132.309 E3.29285
G1 X86.902 Y132.309 E3.30187
G1 X86.902 Y150.074 E3.61326
G1 X87.416 Y150.074 E3.62228
G1 X87.416 Y132.309 E3.93368
G1 X87.930 Y132.309 E3.94269
G1 X87.930 Y150.074 E4.25409
G1 X88.444 Y150.074 E4.26310
G1 X88.444 Y132.309 E4.57450
G1 X88.958 Y132.309 E4.58351
G1 X88.958 Y150.074 E4.89491
G1 X89.472 Y150.074 E4.90392
G1 X89.472 Y132.309 E5.21532
G1 X89.987 Y132.309 E5.22433
G1 X89.987 Y150.074 E5.53573
G1 X90.501 Y150.074 E5.54474
G1 X90.501 Y132.309 E5.85614
G1 X91.015 Y132.309 E5.86515
G1 X91.015 Y150.074 E6.17655
G1 X91.529 Y150.074 E6.18557
G1 X91.529 Y132.309 E6.49696
G1 X92.043 Y132.309 E6.50598
G1 X92.043 Y150.074 E6.81738
G1 X92.557 Y150.074 E6.82639
G1 X92.557 Y132.309 E7.13779
G1 X93.072 Y132.309 E7.14680
G1 X93.072 Y150.074 E7.45820
G1 X93.586 Y150.074 E7.46721
G1 X93.586 Y132.309 E7.77861
G1 X94.100 Y132.309 E7.78762
G1 X94.100 Y150.074 E8.09902
G1 X94.614 Y150.074 E8.10803
G1 X94.614 Y132.309 E8.41943
G1 X95.128 Y132.309 E8.42844
G1 X95.128 Y150.074 E8.73984
G1 X95.642 Y150.074 E8.74885
G1 X95.642 Y132.309 E9.06025
G1 X96.157 Y132.309 E9.06927
G1 X96.157 Y150.074 E9.38066
G1 X96.671 Y150.074 E9.38968
G1 X96.671 Y132.309 E9.70108
G1 X97.185 Y132.309 E9.71009
G1 X97.185 Y150.074 E10.02149
G1 X97.699 Y150.074 E10.03050
G1 X97.699 Y132.309 E10.34190
G1 X98.213 Y132.309 E10.35091
G1 X98.213 Y150.074 E10.66231
M73 P1 R95
M73 Q1 S95
G1 X98.727 Y150.074 E10.67132
G1 X98.727 Y132.309 E10.98272
G1 X99.242 Y132.309 E10.99173
G1 X99.242 Y150.074 E11.30313
G1 X99.756 Y150.074 E11.31214
G1 X99.756 Y132.309 E11.62354
G1 X100.270 Y132.309 E11.63256
G1 X100.270 Y150.074 E11.94395
G1 X100.784 Y150.074 E11.95297
G1 X100.784 Y132.309 E12.26436
G1 X101.298 Y132.309 E12.27338
G1 X101.298 Y150.074 E12.58478
G1 X101.812 Y150.074 E12.59379
G1 X101.812 Y132.309 E12.90519
G1 X102.326 Y132.309 E12.91420
G1 X102.326 Y150.074 E13.22560
G1 X102.841 Y150.074 E13.23461
G1 X102.841 Y132.309 E13.54601
G1 X103.355 Y132.309 E13.55502
G1 X103.355 Y150.074 E13.86642
G1 X103.869 Y150.074 E13.87543
G1 X103.869 Y132.309 E14.18683
G1 X104.383 Y132.309 E14.19584
G1 X104.383 Y150.074 E14.50724
G1 X104.897 Y150.074 E14.51626
G1 X104.897 Y132.309 E14.82765
G1 X105.411 Y132.309 E14.83667
G1 X105.411 Y150.074 E15.14807
G1 X105.926 Y150.074 E15.15708
G1 X105.926 Y132.309 E15.46848
G1 X106.440 Y132.309 E15.47749
G1 X106.440 Y150.074 E15.78889
G1 X106.954 Y150.074 E15.79790
G1 X106.954 Y132.309 E16.10930
G1 X107.468 Y132.309 E16.11831
G1 X107.468 Y150.074 E16.42971
M73 P1 R94
M73 Q1 S94
G1 X107.982 Y150.074 E16.43872
G1 X107.982 Y132.309 E16.75012
G1 X108.496 Y132.309 E16.75913
G1 X108.496 Y150.074 E17.07053
G1 X109.011 Y150.074 E17.07954
G1 X109.011 Y132.309 E17.39094
G1 X109.525 Y132.309 E17.39996
G1 X109.525 Y150.074 E17.71135
G1 X110.039 Y150.074 E17.72037
G1 X110.039 Y129.972 E18.07273
G1 X110.553 Y129.972 E18.08174
G1 X110.553 Y150.074 E18.43411
G1 X111.067 Y150.074 E18.44312
G1 X111.067 Y129.972 E18.79548
G1 X111.581 Y129.972 E18.80450
G1 X111.581 Y150.074 E19.15686
G1 X112.095 Y150.074 E19.16587
G1 X112.095 Y129.972 E19.51824
G1 X112.610 Y129.972 E19.52725
G1 X112.610 Y150.074 E19.87961
G1 X113.124 Y150.074 E19.88863
G1 X113.124 Y129.972 E20.24099
G1 X113.638 Y129.972 E20.25000
G1 X113.638 Y150.074 E20.60237
G1 X114.152 Y150.074 E20.61138
G1 X114.152 Y129.972 E20.96374
G1 X114.665 Y129.972 E20.97273
G1 X114.665 Y127.635 E21.01369
G1 X114.666 Y150.074 E21.40702
G1 X115.180 Y150.074 E21.41603
G1 X115.180 Y127.635 E21.80936
G1 X115.695 Y127.635 E21.81838
G1 X115.695 Y150.074 E22.21171
G1 X116.209 Y150.074 E22.22072
G1 X116.209 Y127.635 E22.61405
G1 X116.723 Y127.635 E22.62306
G1 X116.723 Y150.074 E23.01639
G1 X117.237 Y150.074 E23.02540
G1 X117.237 Y127.635 E23.41873
G1 X117.751 Y127.635 E23.42775
G1 X117.751 Y150.074 E23.82108
G1 X118.265 Y150.074 E23.83009
G1 X118.265 Y127.635 E24.22342
G1 X118.507 Y127.635 E24.22766
G1 X118.507 Y140.858 E24.45944
G1 X118.741 Y141.092 E24.46523
G1 X118.780 Y141.092 E24.46591
G1 X118.780 Y150.074 E24.62336
G1 X119.294 Y150.074 E24.63238
G1 X119.294 Y141.092 E24.78983
G1 X119.808 Y141.092 E24.79884
G1 X119.808 Y150.074 E24.95629
G1 X120.322 Y150.074 E24.96530
G1 X120.322 Y141.092 E25.12275
G1 X120.836 Y141.092 E25.13177
G1 X120.836 Y150.074 E25.28922
G1 X121.350 Y150.074 E25.29823
G1 X121.350 Y141.092 E25.45568
G1 X121.865 Y141.092 E25.46469
G1 X121.865 Y150.074 E25.62214
M73 P2 R94
M73 Q2 S94
G1 X122.379 Y150.074 E25.63116
G1 X122.379 Y141.092 E25.78861
G1 X122.893 Y141.092 E25.79762
G1 X122.893 Y150.074 E25.95507
G1 X123.407 Y150.074 E25.96408
G1 X123.407 Y141.092 E26.12153
G1 X123.921 Y141.092 E26.13055
G1 X123.921 Y150.074 E26.28800
G1 X124.435 Y150.074 E26.29701
G1 X124.435 Y141.092 E26.45446
G1 X124.949 Y141.092 E26.46347
G1 X124.949 Y150.074 E26.62092
G1 X125.419 Y150.074 E26.62915
G1 X125.419 Y147.737 E26.67011
G1 X125.464 Y147.737 E26.67090
G1 X125.464 Y141.092 E26.78739
G1 X125.978 Y141.092 E26.79640
G1 X125.978 Y147.737 E26.91288
G1 X126.492 Y147.737 E26.92190
G1 X126.492 Y141.092 E27.03838
G1 X127.006 Y141.092 E27.04739
G1 X127.006 Y147.737 E27.16388
G1 X127.520 Y147.737 E27.17289
G1 X127.520 Y141.092 E27.28938
G1 X128.034 Y141.092 E27.29839
G1 X128.034 Y145.400 E27.37391
G1 X128.549 Y145.400 E27.38292
G1 X128.549 Y141.092 E27.45844
G1 X129.063 Y141.092 E27.46745
G1 X129.063 Y145.400 E27.54297
G1 X129.577 Y145.400 E27.55199
G1 X129.577 Y141.092 E27.62751
G1 X130.091 Y141.092 E27.63652
G1 X130.091 Y145.516 E27.71407
G1 E27.36407 F3600.000
;WIPE_START
G1 F14400.000
G1 X130.091 Y144.916 E27.22157
;WIPE_END
G1 E27.21407 F3600.000
G92 E0
G1 X130.091 Y138.712 F18000.000
G1 E0.58000 F2400.000
G1 F900.000
G1 X130.091 Y138.092 E0.59086
G1 X129.577 Y138.092 E0.59988
G1 X129.577 Y138.444 E0.60604
G1 E0.25604 F3600.000
;WIPE_START
G1 F14400.000
G1 X129.577 Y138.092 E0.17251
G1 X129.825 Y138.092 E0.11354
;WIPE_END
G1 E0.10604 F3600.000
G92 E0
G1 X121.350 Y130.396 F18000.000
G1 E0.58000 F2400.000
G1 F900.000
G1 X121.350 Y127.635 E0.62840
G1 X120.836 Y127.635 E0.63741
G1 X120.836 Y129.143 E0.66384
G1 X120.322 Y127.941 E0.68675
G1 X120.322 Y127.519 E0.69415
G1 E0.34415 F3600.000
;WIPE_START
G1 F14400.000
G1 X120.322 Y127.941 E0.24386
G1 X120.392 Y128.105 E0.20165
;WIPE_END
G1 E0.19415 F3600.000
G92 E0
G1 X119.944 Y130.303 F18000.000
G1 E0.58000 F2400.000
;TYPE:Perimeter
G1 F540.000
G1 X120.440 Y131.252 E0.59877
G1 X121.288 Y132.614 E0.62690
G1 X122.247 Y133.921 E0.65530
G1 X122.501 Y134.217 E0.66214
G1 X122.251 Y134.250 E0.66656
G1 X121.641 Y134.503 E0.67814
G1 X121.117 Y134.905 E0.68971
G1 X120.715 Y135.429 E0.70128
G1 X120.463 Y136.039 E0.71286
G1 X120.377 Y136.693 E0.72443
G1 X120.463 Y137.348 E0.73600
G1 X120.715 Y137.958 E0.74758
G1 X121.117 Y138.482 E0.75915
G1 X121.641 Y138.884 E0.77072
G1 X122.251 Y139.136 E0.78230
G1 X122.906 Y139.222 E0.79387
G1 X123.560 Y139.136 E0.80544
G1 X124.170 Y138.884 E0.81702
G1 X124.694 Y138.482 E0.82859
G1 X125.096 Y137.958 E0.84016
G1 X125.349 Y137.348 E0.85174
G1 X125.382 Y137.098 E0.85615
G1 X125.678 Y137.352 E0.86300
G1 X126.985 Y138.311 E0.89140
G1 X128.360 Y139.167 E0.91981
G1 X129.295 Y139.654 E0.93828
G1 X129.266 Y139.772 E0.94040
G1 X119.827 Y139.772 E1.10586
G1 X119.827 Y130.332 E1.27133
G1 X119.886 Y130.317 E1.27240
G1 X119.693 Y129.173 F18000.000
G1 F2700.000
G1 X119.915 Y129.692 E1.28229
G1 X120.664 Y131.125 E1.31062
G1 X121.501 Y132.470 E1.33841
G1 X122.448 Y133.761 E1.36647
G1 X123.005 Y134.410 E1.38146
G1 X122.318 Y134.501 E1.39361
G1 X121.771 Y134.727 E1.40400
G1 X121.301 Y135.088 E1.41439
G1 X120.940 Y135.558 E1.42477
G1 X120.713 Y136.106 E1.43516
G1 X120.636 Y136.693 E1.44555
G1 X120.713 Y137.281 E1.45593
G1 X120.940 Y137.828 E1.46632
G1 X121.301 Y138.298 E1.47671
G1 X121.771 Y138.659 E1.48709
G1 X122.318 Y138.886 E1.49748
G1 X122.906 Y138.963 E1.50787
G1 X123.493 Y138.886 E1.51825
G1 X124.041 Y138.659 E1.52864
G1 X124.511 Y138.298 E1.53903
G1 X124.872 Y137.828 E1.54941
G1 X125.098 Y137.281 E1.55980
G1 X125.189 Y136.594 E1.57195
G1 X125.838 Y137.151 E1.58694
G1 X127.129 Y138.098 E1.61500
G1 X128.488 Y138.944 E1.64307
G1 X129.907 Y139.684 E1.67113
G1 X130.426 Y139.906 E1.68101
G1 X130.401 Y140.029 E1.68322
G1 X119.570 Y140.029 E1.87307
G1 X119.570 Y129.198 E2.06291
G1 X119.634 Y129.185 E2.06407
G1 E1.71407 F3600.000
;WIPE_START
G1 F14400.000
G1 X119.915 Y129.692 E1.57647
G1 X119.925 Y129.710 E1.57157
;WIPE_END
G1 E1.56407 F3600.000
G92 E0
G1 X119.945 Y111.082 F18000.000
G1 E0.58000 F2400.000
G1 F540.000
G1 X119.827 Y111.054 E0.58212
G1 X119.827 Y101.614 E0.74757
G1 X129.266 Y101.614 E0.91303
G1 X129.295 Y101.732 E0.91515
G1 X128.360 Y102.219 E0.93363
G1 X126.985 Y103.076 E0.96203
G1 X125.678 Y104.034 E0.99044
G1 X125.381 Y104.289 E0.99729
G1 X125.348 Y104.036 E1.00175
G1 X125.095 Y103.426 E1.01333
G1 X124.698 Y102.910 E1.02475
G1 X124.170 Y102.502 E1.03645
G1 X123.559 Y102.250 E1.04804
G1 X122.905 Y102.164 E1.05960
G1 X122.259 Y102.249 E1.07101
G1 X121.642 Y102.502 E1.08270
G1 X121.117 Y102.905 E1.09430
G1 X120.715 Y103.430 E1.10589
G1 X120.462 Y104.047 E1.11758
G1 X120.377 Y104.692 E1.12899
G1 X120.463 Y105.348 E1.14058
G1 X120.719 Y105.963 E1.15227
G1 X121.116 Y106.480 E1.16369
G1 X121.640 Y106.883 E1.17527
G1 X122.257 Y107.137 E1.18697
G1 X122.501 Y107.169 E1.19129
G1 X122.247 Y107.465 E1.19813
G1 X121.288 Y108.772 E1.22653
G1 X120.432 Y110.148 E1.25494
G1 X119.972 Y111.029 E1.27236
G1 X119.693 Y112.213 F18000.000
G1 F2700.000
G1 X119.570 Y112.188 E1.27457
G1 X119.570 Y101.357 E1.46442
G1 X130.401 Y101.357 E1.65426
G1 X130.426 Y101.481 E1.65647
G1 X129.907 Y101.703 E1.66636
G1 X128.488 Y102.443 E1.69442
G1 X127.129 Y103.289 E1.72248
G1 X125.838 Y104.236 E1.75054
G1 X125.188 Y104.794 E1.76556
G1 X125.098 Y104.104 E1.77776
G1 X124.870 Y103.556 E1.78815
G1 X124.515 Y103.093 E1.79839
G1 X124.040 Y102.727 E1.80890
G1 X123.492 Y102.500 E1.81929
G1 X122.905 Y102.423 E1.82967
G1 X122.326 Y102.500 E1.83991
G1 X121.772 Y102.727 E1.85041
G1 X121.301 Y103.088 E1.86081
G1 X120.939 Y103.559 E1.87121
G1 X120.712 Y104.113 E1.88171
G1 X120.636 Y104.692 E1.89195
G1 X120.713 Y105.280 E1.90235
G1 X120.944 Y105.833 E1.91285
G1 X121.299 Y106.297 E1.92309
G1 X121.769 Y106.658 E1.93348
G1 X122.323 Y106.887 E1.94399
G1 X123.005 Y106.976 E1.95604
G1 X122.448 Y107.625 E1.97103
G1 X121.501 Y108.916 E1.99909
G1 X120.655 Y110.275 E2.02716
G1 X119.915 Y111.695 E2.05522
G1 X119.717 Y112.158 E2.06405
G1 E1.71405 F3600.000
;WIPE_START
G1 F14400.000
G1 X119.570 Y112.188 E1.67845
G1 X119.570 Y111.738 E1.57155
;WIPE_END
G1 E1.56405 F3600.000
G92 E0
G1 X123.582 Y106.699 F18000.000
G1 E0.58000 F2400.000
G1 F2700.000
G1 X123.511 Y106.600 E0.58213
G1 X123.425 Y106.636 E0.58376
G1 X122.903 Y106.704 E0.59299
G1 X122.390 Y106.636 E0.60205
G1 X121.899 Y106.433 E0.61137
G1 X121.483 Y106.113 E0.62057
G1 X121.168 Y105.703 E0.62963
G1 X120.963 Y105.213 E0.63895
G1 X120.895 Y104.692 E0.64815
G1 X120.963 Y104.180 E0.65721
G1 X121.164 Y103.688 E0.66653
G1 X121.484 Y103.271 E0.67573
G1 X121.901 Y102.952 E0.68494
G1 X122.392 Y102.750 E0.69425
G1 X122.905 Y102.683 E0.70331
G1 X123.425 Y102.751 E0.71251
G1 X123.910 Y102.951 E0.72171
G1 X124.331 Y103.276 E0.73103
G1 X124.646 Y103.686 E0.74009
G1 X124.847 Y104.171 E0.74929
G1 X124.916 Y104.698 E0.75861
G1 X124.848 Y105.213 E0.76771
G1 X124.813 Y105.298 E0.76933
G1 X124.911 Y105.370 E0.77147
G1 X125.998 Y104.437 E0.79656
G1 X127.273 Y103.502 E0.82428
G1 X128.615 Y102.666 E0.85200
G1 X130.018 Y101.935 E0.87972
G1 X131.534 Y101.286 E0.90863
G1 X146.278 Y101.286 E1.16707
G1 X147.794 Y101.935 E1.19598
G1 X149.196 Y102.666 E1.22370
G1 X150.539 Y103.502 E1.25141
G1 X151.814 Y104.437 E1.27913
G1 X152.900 Y105.370 E1.30423
G1 X152.999 Y105.298 E1.30636
G1 X152.963 Y105.212 E1.30799
G1 X152.895 Y104.690 E1.31723
G1 X152.965 Y104.170 E1.32642
G1 X153.162 Y103.694 E1.33546
G1 X153.485 Y103.270 E1.34480
G1 X153.902 Y102.951 E1.35400
G1 X154.387 Y102.751 E1.36319
G1 X154.898 Y102.683 E1.37223
G1 X155.426 Y102.751 E1.38156
G1 X155.911 Y102.952 E1.39077
G1 X156.328 Y103.272 E1.39998
G1 X156.650 Y103.696 E1.40931
G1 X156.848 Y104.172 E1.41835
G1 X156.916 Y104.693 E1.42755
G1 X156.845 Y105.221 E1.43689
G1 X156.648 Y105.697 E1.44592
G1 X156.329 Y106.114 E1.45513
G1 X155.905 Y106.437 E1.46446
G1 X155.429 Y106.634 E1.47350
G1 X154.909 Y106.704 E1.48269
G1 X154.387 Y106.636 E1.49193
G1 X154.301 Y106.600 E1.49356
G1 X154.229 Y106.699 E1.49569
G1 X155.162 Y107.785 E1.52079
G1 X156.097 Y109.060 E1.54851
G1 X156.933 Y110.403 E1.57623
G1 X157.664 Y111.805 E1.60395
G1 X158.313 Y113.321 E1.63286
G1 X158.313 Y128.065 E1.89129
G1 X157.664 Y129.581 E1.92020
M73 P2 R93
M73 Q2 S93
G1 X156.933 Y130.984 E1.94792
G1 X156.097 Y132.326 E1.97564
G1 X155.171 Y133.588 E2.00309
G1 X154.229 Y134.688 E2.02846
G1 X154.300 Y134.786 E2.03059
G1 X154.386 Y134.751 E2.03222
G1 X154.901 Y134.683 E2.04132
G1 X155.428 Y134.752 E2.05064
G1 X155.913 Y134.953 E2.05985
G1 X156.329 Y135.273 E2.06904
G1 X156.648 Y135.689 E2.07823
G1 X156.846 Y136.167 E2.08729
G1 X156.916 Y136.694 E2.09661
G1 X156.848 Y137.214 E2.10581
G1 X156.650 Y137.692 E2.11487
G1 X156.328 Y138.115 E2.12420
G1 X155.904 Y138.437 E2.13353
G1 X155.427 Y138.635 E2.14258
G1 X154.906 Y138.704 E2.15179
G1 X154.379 Y138.633 E2.16110
G1 X153.902 Y138.435 E2.17016
G1 X153.485 Y138.116 E2.17937
G1 X153.162 Y137.694 E2.18868
G1 X152.964 Y137.216 E2.19775
G1 X152.895 Y136.696 E2.20694
G1 X152.963 Y136.174 E2.21617
G1 X152.999 Y136.088 E2.21780
G1 X152.900 Y136.017 E2.21993
G1 X151.814 Y136.949 E2.24503
G1 X150.539 Y137.885 E2.27274
G1 X149.196 Y138.720 E2.30046
G1 X147.794 Y139.451 E2.32818
G1 X146.278 Y140.100 E2.35709
G1 X131.534 Y140.100 E2.61553
G1 X130.018 Y139.451 E2.64444
G1 X128.615 Y138.720 E2.67216
G1 X127.273 Y137.885 E2.69988
G1 X125.998 Y136.949 E2.72760
G1 X124.911 Y136.017 E2.75269
G1 X124.813 Y136.088 E2.75483
G1 X124.848 Y136.173 E2.75643
G1 X124.916 Y136.693 E2.76563
G1 X124.848 Y137.214 E2.77483
G1 X124.647 Y137.698 E2.78403
G1 X124.327 Y138.115 E2.79323
G1 X123.911 Y138.434 E2.80243
G1 X123.426 Y138.635 E2.81163
