; generated by PrusaSlicer 2.3.0+win64 on 2021-03-01 at 18:47:15 UTC

; 

; external perimeters extrusion width = 0.45mm
; perimeters extrusion width = 0.45mm
; infill extrusion width = 0.45mm
; solid infill extrusion width = 0.45mm
; top infill extrusion width = 0.40mm
; first layer extrusion width = 0.30mm

M73 P0 R79
M73 Q0 S79
M201 X500 Y500 Z100 E5000 ; sets maximum accelerations, mm/sec^2
M203 X500 Y500 Z10 E60 ; sets maximum feedrates, mm/sec
M204 P500 R1000 T500 ; sets acceleration (P, T) and retract acceleration (R), mm/sec^2
M205 X8.00 Y8.00 Z0.40 E5.00 ; sets the jerk limits, mm/sec
M205 S0 T0 ; sets the minimum extruding and travel feed rate, mm/sec
M107
;TYPE:Custom
G90 ; use absolute coordinates
M83 ; extruder relative mode
M104 S215 ; set extruder temp
M140 S60 ; set bed temp
M190 S60 ; wait for bed temp
M109 S215 ; wait for extruder temp
M204 S600 ;acceleration
M220 S100 ;Reset Feedrate
M221 S100 ;Reset Flowrate

G21 ; set units to millimeters
G90 ; use absolute coordinates
M82 ; use absolute distances for extrusion

G1 Z12
G1 X56.184 Y181.768

G92 E0.6
G1 Z8.400 F18000.000
;AFTER_LAYER_CHANGE
;8.4

;WIDTH:0.180307
G1 F1800.000
G1 X56.184 Y181.768 E0.61714
G1 X55.992 Y181.950 E0.61962
G1 X55.597 Y182.137 E0.62371
G1 X54.771 Y182.282 F18000.000
;WIDTH:0.55728
G1 F1800.000
G1 X54.142 Y182.315 E0.64581
;WIDTH:0.518381
G1 X53.463 Y182.282 E0.66785
G1 X52.637 Y182.137 F18000.000
;WIDTH:0.18754
G1 F1800.000
G1 X52.245 Y181.952 E0.67213
G1 X52.050 Y181.768 E0.67477
;WIDTH:0.180308
G1 X51.907 Y181.585 E0.67695
G1 X51.626 Y180.983 F18000.000
;WIDTH:0.153532
G1 F1800.000
G1 X51.492 Y180.092 E0.68374
;WIDTH:0.12342
G1 X51.477 Y179.952 E0.68451
G1 X51.486 Y178.778 F18000.000
;WIDTH:0.130874
G1 F1800.000
G1 X51.518 Y178.539 E0.68596
;WIDTH:0.164966
G1 X51.541 Y178.448 E0.68674
;WIDTH:0.20544
G1 X51.586 Y178.297 E0.68849
;WIDTH:0.245913
G1 X51.631 Y178.145 E0.69068
;WIDTH:0.29307
G1 X51.686 Y177.970 E0.69381
;WIDTH:0.332573
G1 X51.734 Y177.870 E0.69600
;WIDTH:0.372077
G1 X51.782 Y177.770 E0.69849
;WIDTH:0.385117
G1 X51.927 Y177.484 E0.70597
G1 X52.240 Y177.453 E0.71332
;LAYER_CHANGE
;Z:8.6
;HEIGHT:0.200001
;BEFORE_LAYER_CHANGE
M117 INDICATOR-Layer1
;8.6


G1 E0.36332 F3600.000
;WIPE_START
G1 F14400.000
G1 X51.927 Y177.484 E0.28852
G1 X51.798 Y177.739 E0.22082
;WIPE_END
G1 E0.21332 F3600.000
G92 E0
G1 Z8.600 F18000.000
;AFTER_LAYER_CHANGE
;8.6
G1 X63.324 Y184.276
G1 E0.58000 F2400.000
;TYPE:Perimeter
;WIDTH:0.45
G1 F1800.000
G1 X63.629 Y183.856 E0.59442
G1 X64.015 Y183.508 E0.60885
G1 X64.465 Y183.248 E0.62327
G1 X64.959 Y183.088 E0.63769
G1 X65.417 Y183.040 E0.65046
G1 X65.986 Y183.085 E0.66629
G1 X66.487 Y183.248 E0.68093
G1 X66.937 Y183.508 E0.69535
G1 X67.323 Y183.856 E0.70978
G1 X67.629 Y184.276 E0.72420
G1 X67.840 Y184.751 E0.73862
G1 X67.948 Y185.259 E0.75305
G1 X67.948 Y185.779 E0.76747
G1 X67.840 Y186.287 E0.78189
G1 X67.629 Y186.762 E0.79631
G1 X67.323 Y187.182 E0.81074
G1 X66.937 Y187.530 E0.82516
G1 X66.487 Y187.790 E0.83958
G1 X65.993 Y187.950 E0.85400
G1 X65.476 Y188.005 E0.86843
G1 X64.959 Y187.950 E0.88285
G1 X64.465 Y187.790 E0.89727
G1 X64.015 Y187.530 E0.91170
G1 X63.629 Y187.182 E0.92612
G1 X63.324 Y186.762 E0.94054
G1 X63.112 Y186.287 E0.95496
G1 X63.004 Y185.779 E0.96939
G1 X63.004 Y185.259 E0.98381
G1 X63.112 Y184.751 E0.99823
G1 X63.299 Y184.331 E1.01099
G1 X63.671 Y184.497 F18000.000
;TYPE:External perimeter
G1 F1800.000
G1 X63.933 Y184.130 E1.02350
G1 X64.256 Y183.839 E1.03555
G1 X64.632 Y183.622 E1.04760
G1 X65.045 Y183.488 E1.05965
G1 X65.422 Y183.448 E1.07019
G1 X65.905 Y183.487 E1.08364
G1 X66.321 Y183.622 E1.09576
G1 X66.697 Y183.839 E1.10781
G1 X67.019 Y184.130 E1.11986
G1 X67.274 Y184.481 E1.13190
G1 X67.451 Y184.877 E1.14395
G1 X67.541 Y185.302 E1.15600
G1 X67.541 Y185.736 E1.16805
G1 X67.451 Y186.161 E1.18010
G1 X67.274 Y186.557 E1.19214
G1 X67.019 Y186.908 E1.20419
G1 X66.697 Y187.199 E1.21624
G1 X66.321 Y187.416 E1.22829
G1 X65.908 Y187.550 E1.24033
G1 X65.476 Y187.595 E1.25238
G1 X65.045 Y187.550 E1.26443
G1 X64.632 Y187.416 E1.27648
G1 X64.256 Y187.199 E1.28852
G1 X63.933 Y186.908 E1.30057
G1 X63.678 Y186.557 E1.31262
G1 X63.502 Y186.161 E1.32467
G1 X63.411 Y185.736 E1.33671
G1 X63.411 Y185.302 E1.34876
G1 X63.502 Y184.877 E1.36081
G1 X63.647 Y184.551 E1.37071
G1 X63.469 Y184.151 F18000.000
G1 E1.02071 F3600.000
;WIPE_START
G1 F14400.000
G1 X63.933 Y184.130 E0.89963
G1 X64.000 Y184.069 E0.87821
;WIPE_END
G1 E0.87071 F3600.000
G92 E0
G1 X63.184 Y187.262 F18000.000
G1 E0.58000 F2400.000
;TYPE:Perimeter
G1 F1800.000
G1 X63.325 Y187.456 E0.58665
G1 X63.775 Y187.861 E0.60344
G1 X64.299 Y188.164 E0.62024
G1 X64.638 Y188.274 E0.63014
G1 X64.605 Y188.480 E0.63593
G1 X64.027 Y188.480 E0.65197
G1 X63.790 Y188.456 E0.65860
G1 X63.610 Y188.402 E0.66380
G1 X63.445 Y188.314 E0.66900
G1 X63.300 Y188.195 E0.67420
G1 X63.181 Y188.050 E0.67940
G1 X63.093 Y187.885 E0.68460
G1 X63.039 Y187.705 E0.68980
G1 X63.015 Y187.317 E0.70060
G1 X63.127 Y187.281 E0.70386
G1 E0.35386 F3600.000
;WIPE_START
G1 F14400.000
G1 X63.325 Y187.456 E0.29110
G1 X63.574 Y187.681 E0.21136
;WIPE_END
G1 E0.20386 F3600.000
G92 E0
G1 X66.315 Y188.274 F18000.000
G1 E0.58000 F2400.000
G1 F1800.000
G1 X66.654 Y188.164 E0.58990
G1 X67.178 Y187.861 E0.60670
G1 X67.628 Y187.456 E0.62349
G1 X67.768 Y187.262 E0.63014
G1 X67.937 Y187.317 E0.63507
G1 X67.914 Y187.705 E0.64586
G1 X67.859 Y187.885 E0.65106
G1 X67.771 Y188.050 E0.65626
G1 X67.652 Y188.195 E0.66147
G1 X67.507 Y188.314 E0.66667
G1 X67.342 Y188.402 E0.67187
G1 X67.163 Y188.456 E0.67707
G1 X66.925 Y188.480 E0.68369
G1 X66.347 Y188.480 E0.69974
G1 X66.324 Y188.333 E0.70386
G1 E0.35386 F3600.000
;WIPE_START
G1 F14400.000
G1 X66.654 Y188.164 E0.26581
G1 X66.852 Y188.049 E0.21136
;WIPE_END
G1 E0.20386 F3600.000
G92 E0
G1 X66.624 Y182.437 F18000.000
G1 E0.58000 F2400.000
G1 F9000.000
G1 X66.146 Y182.281 E0.59393
G1 X65.407 Y182.222 E0.61451
G1 X64.789 Y182.287 E0.63176
G1 X64.329 Y182.437 E0.64519
G1 X64.577 Y181.808 E0.66396
G1 X64.770 Y181.089 E0.68462
G1 X64.886 Y180.357 E0.70518
G1 X64.922 Y179.628 E0.72544
G1 X64.922 Y139.410 E1.84175
G1 X64.886 Y138.681 E1.86200
G1 X64.770 Y137.949 E1.88257
G1 X64.577 Y137.230 E1.90323
G1 X64.329 Y136.601 E1.92199
G1 X64.789 Y136.751 E1.93542
G1 X65.476 Y136.823 E1.95460
G1 X66.163 Y136.751 E1.97377
G1 X66.624 Y136.601 E1.98721
G1 X66.375 Y137.230 E2.00597
G1 X66.182 Y137.949 E2.02663
G1 X66.066 Y138.681 E2.04720
G1 X66.030 Y139.410 E2.06745
G1 X66.030 Y179.628 E3.18376
G1 X66.066 Y180.357 E3.20401
G1 X66.182 Y181.089 E3.22458
G1 X66.375 Y181.808 E3.24524
G1 X66.602 Y182.381 E3.26234
G1 X67.458 Y183.158 F18000.000
G1 F9000.000
G1 X67.296 Y183.284 E3.26802
G1 X67.178 Y183.177 E3.27245
G1 X66.654 Y182.874 E3.28925
G1 X66.066 Y182.683 E3.30640
G1 X65.412 Y182.631 E3.32461
G1 X64.874 Y182.687 E3.33961
G1 X64.299 Y182.874 E3.35641
G1 X63.775 Y183.177 E3.37321
G1 X63.656 Y183.284 E3.37764
G1 X63.495 Y183.158 E3.38332
G1 X63.937 Y182.320 E3.40963
G1 X64.190 Y181.680 E3.42873
G1 X64.371 Y181.004 E3.44815
G1 X64.481 Y180.315 E3.46752
G1 X64.515 Y179.618 E3.48688
G1 X64.515 Y139.420 E4.60263
G1 X64.481 Y138.723 E4.62199
G1 X64.371 Y138.034 E4.64136
G1 X64.190 Y137.358 E4.66078
G1 X63.937 Y136.718 E4.67988
G1 X63.495 Y135.880 E4.70619
G1 X63.656 Y135.754 E4.71187
G1 X63.775 Y135.861 E4.71630
G1 X64.299 Y136.164 E4.73310
G1 X64.874 Y136.351 E4.74990
G1 X65.476 Y136.414 E4.76670
G1 X66.078 Y136.351 E4.78349
G1 X66.654 Y136.164 E4.80029
G1 X67.178 Y135.861 E4.81709
G1 X67.296 Y135.754 E4.82152
G1 X67.458 Y135.880 E4.82720
G1 X67.015 Y136.718 E4.85351
G1 X66.762 Y137.358 E4.87261
G1 X66.581 Y138.034 E4.89203
G1 X66.472 Y138.723 E4.91140
G1 X66.437 Y139.420 E4.93076
G1 X66.437 Y179.618 E6.04651
G1 X66.472 Y180.315 E6.06587
G1 X66.581 Y181.004 E6.08524
G1 X66.762 Y181.680 E6.10466
G1 X67.015 Y182.320 E6.12376
G1 X67.430 Y183.105 E6.14840
G1 E5.79840 F3600.000
;WIPE_START
G1 F14400.000
G1 X67.296 Y183.284 E5.74541
G1 X67.178 Y183.177 E5.70749
G1 X66.990 Y183.068 E5.65590
;WIPE_END
G1 E5.64840 F3600.000
G92 E0
G1 X67.768 Y131.776 F18000.000
G1 E0.58000 F2400.000
G1 F1800.000
G1 X67.628 Y131.582 E0.58665
G1 X67.178 Y131.177 E0.60344
G1 X66.654 Y130.874 E0.62024
G1 X66.343 Y130.773 E0.62931
G1 X66.376 Y130.567 E0.63511
G1 X67.163 Y130.582 E0.65696
G1 X67.342 Y130.636 E0.66216
G1 X67.507 Y130.724 E0.66736
G1 X67.652 Y130.843 E0.67256
G1 X67.771 Y130.988 E0.67776
G1 X67.859 Y131.153 E0.68296
G1 X67.914 Y131.332 E0.68816
G1 X67.937 Y131.721 E0.69896
G1 X67.825 Y131.757 E0.70222
G1 X67.323 Y131.856 F18000.000
G1 F1800.000
G1 X67.629 Y132.276 E0.71664
G1 X67.840 Y132.751 E0.73106
G1 X67.948 Y133.259 E0.74549
G1 X67.948 Y133.779 E0.75991
G1 X67.840 Y134.287 E0.77433
G1 X67.629 Y134.762 E0.78875
G1 X67.323 Y135.182 E0.80318
G1 X66.937 Y135.530 E0.81760
G1 X66.487 Y135.790 E0.83202
G1 X65.993 Y135.950 E0.84644
G1 X65.476 Y136.005 E0.86087
G1 X64.959 Y135.950 E0.87529
G1 X64.465 Y135.790 E0.88971
G1 X64.015 Y135.530 E0.90413
G1 X63.629 Y135.182 E0.91856
G1 X63.324 Y134.762 E0.93298
G1 X63.112 Y134.287 E0.94740
G1 X63.004 Y133.779 E0.96183
G1 X63.004 Y133.259 E0.97625
G1 X63.112 Y132.751 E0.99067
G1 X63.324 Y132.276 E1.00509
G1 X63.629 Y131.856 E1.01952
G1 X64.015 Y131.508 E1.03394
G1 X64.465 Y131.248 E1.04836
G1 X64.959 Y131.088 E1.06278
G1 X65.417 Y131.040 E1.07556
G1 X65.986 Y131.085 E1.09139
G1 X66.487 Y131.248 E1.10603
G1 X66.937 Y131.508 E1.12045
G1 X67.279 Y131.816 E1.13321
G1 X67.006 Y132.118 F18000.000
;TYPE:External perimeter
G1 F1800.000
G1 X67.274 Y132.481 E1.14572
G1 X67.451 Y132.877 E1.15777
G1 X67.541 Y133.302 E1.16982
G1 X67.541 Y133.736 E1.18186
G1 X67.451 Y134.161 E1.19391
G1 X67.274 Y134.557 E1.20596
G1 X67.019 Y134.908 E1.21801
G1 X66.697 Y135.199 E1.23005
G1 X66.321 Y135.416 E1.24210
G1 X65.908 Y135.550 E1.25415
G1 X65.476 Y135.595 E1.26620
G1 X65.045 Y135.550 E1.27824
G1 X64.632 Y135.416 E1.29029
G1 X64.256 Y135.199 E1.30234
G1 X63.933 Y134.908 E1.31439
G1 X63.678 Y134.557 E1.32643
G1 X63.502 Y134.161 E1.33848
G1 X63.411 Y133.736 E1.35053
G1 X63.411 Y133.302 E1.36258
G1 X63.502 Y132.877 E1.37462
G1 X63.678 Y132.481 E1.38667
G1 X63.933 Y132.130 E1.39872
G1 X64.256 Y131.839 E1.41077
G1 X64.632 Y131.622 E1.42282
G1 X65.045 Y131.488 E1.43486
G1 X65.422 Y131.448 E1.44540
G1 X65.905 Y131.487 E1.45885
G1 X66.321 Y131.622 E1.47098
G1 X66.697 Y131.839 E1.48303
G1 X66.962 Y132.078 E1.49293
G1 X67.397 Y132.033 F18000.000
G1 E1.14293 F3600.000
;WIPE_START
G1 F14400.000
G1 X67.274 Y132.481 E1.02184
G1 X67.311 Y132.563 E1.00043
;WIPE_END
G1 E0.99293 F3600.000
G92 E0
G1 X64.632 Y130.766 F18000.000
G1 E0.58000 F2400.000
;TYPE:Perimeter
G1 F1800.000
G1 X64.299 Y130.874 E0.58972
G1 X63.775 Y131.177 E0.60652
G1 X63.325 Y131.582 E0.62332
G1 X63.184 Y131.776 E0.62996
G1 X63.015 Y131.721 E0.63489
G1 X63.039 Y131.332 E0.64569
G1 X63.093 Y131.153 E0.65089
G1 X63.181 Y130.988 E0.65609
G1 X63.300 Y130.843 E0.66129
G1 X63.445 Y130.724 E0.66649
G1 X63.610 Y130.636 E0.67169
G1 X63.790 Y130.582 E0.67689
G1 X64.025 Y130.558 E0.68346
G1 X64.600 Y130.560 E0.69940
G1 X64.623 Y130.707 E0.70351
G1 E0.35351 F3600.000
;WIPE_START
G1 F14400.000
G1 X64.299 Y130.874 E0.26694
G1 X64.095 Y130.992 E0.21101
;WIPE_END
G1 E0.20351 F3600.000
G92 E0
G1 X67.242 Y130.180 F18000.000
G1 E0.58000 F2400.000
G1 F9000.000
G1 X67.499 Y130.258 E0.58743
G1 X67.734 Y130.384 E0.59485
G1 X67.941 Y130.554 E0.60228
G1 X68.111 Y130.761 E0.60971
G1 X68.237 Y130.997 E0.61713
G1 X68.315 Y131.253 E0.62456
G1 X68.344 Y131.550 E0.63285
G1 X68.344 Y133.941 E0.69921
G1 X68.316 Y134.450 E0.71336
G1 X68.236 Y134.936 E0.72705
G1 X68.102 Y135.417 E0.74090
G1 X67.917 Y135.882 E0.75480
G1 X67.386 Y136.888 E0.78638
G1 X67.150 Y137.486 E0.80421
G1 X66.980 Y138.119 E0.82239
G1 X66.877 Y138.765 E0.84056
G1 X66.844 Y139.430 E0.85903
G1 X66.844 Y179.608 E1.97421
G1 X66.877 Y180.273 E1.99269
G1 X66.980 Y180.919 E2.01086
G1 X67.150 Y181.552 E2.02904
G1 X67.386 Y182.149 E2.04687
G1 X67.917 Y183.156 E2.07845
G1 X68.102 Y183.621 E2.09234
G1 X68.236 Y184.101 E2.10620
G1 X68.316 Y184.588 E2.11988
G1 X68.344 Y185.097 E2.13404
G1 X68.344 Y187.488 E2.20040
G1 X68.315 Y187.785 E2.20869
G1 X68.237 Y188.041 E2.21611
G1 X68.111 Y188.277 E2.22354
G1 X67.941 Y188.484 E2.23097
G1 X67.734 Y188.654 E2.23839
G1 X67.499 Y188.780 E2.24582
G1 X67.242 Y188.858 E2.25325
G1 X66.945 Y188.887 E2.26154
G1 X64.007 Y188.887 E2.34308
G1 X63.710 Y188.858 E2.35138
G1 X63.454 Y188.780 E2.35880
G1 X63.218 Y188.654 E2.36623
G1 X63.011 Y188.484 E2.37365
G1 X62.841 Y188.277 E2.38108
G1 X62.715 Y188.041 E2.38851
G1 X62.638 Y187.785 E2.39593
G1 X62.608 Y187.488 E2.40423
G1 X62.608 Y185.097 E2.47058
G1 X62.636 Y184.588 E2.48474
G1 X62.717 Y184.101 E2.49843
G1 X62.851 Y183.621 E2.51228
G1 X63.035 Y183.156 E2.52617
G1 X63.567 Y182.149 E2.55775
G1 X63.803 Y181.552 E2.57558
G1 X63.973 Y180.919 E2.59377
G1 X64.075 Y180.273 E2.61193
G1 X64.108 Y179.608 E2.63041
G1 X64.108 Y139.430 E3.74559
G1 X64.075 Y138.765 E3.76407
G1 X63.973 Y138.119 E3.78223
G1 X63.803 Y137.486 E3.80041
G1 X63.567 Y136.888 E3.81825
G1 X63.035 Y135.882 E3.84983
G1 X62.851 Y135.417 E3.86372
G1 X62.717 Y134.936 E3.87757
G1 X62.636 Y134.450 E3.89126
G1 X62.608 Y133.941 E3.90541
G1 X62.608 Y131.550 E3.97177
G1 X62.638 Y131.253 E3.98006
G1 X62.715 Y130.997 E3.98749
G1 X62.841 Y130.761 E3.99492
G1 X63.011 Y130.554 E4.00234
G1 X63.218 Y130.384 E4.00977
G1 X63.454 Y130.258 E4.01720
G1 X63.710 Y130.180 E4.02462
G1 X64.006 Y130.151 E4.03288
G1 X67.183 Y130.174 E4.12106
G1 X67.223 Y129.769 F18000.000
;TYPE:External perimeter
G1 F1800.000
G1 X67.322 Y129.779 E4.12383
G1 X67.655 Y129.880 E4.13349
G1 X67.962 Y130.044 E4.14314
G1 X68.231 Y130.265 E4.15279
G1 X68.451 Y130.533 E4.16244
G1 X68.615 Y130.840 E4.17209
G1 X68.716 Y131.173 E4.18175
G1 X68.751 Y131.530 E4.19171
G1 X68.751 Y133.952 E4.25893
G1 X68.721 Y134.495 E4.27401
G1 X68.634 Y135.025 E4.28892
G1 X68.488 Y135.547 E4.30399
G1 X68.287 Y136.053 E4.31909
G1 X67.756 Y137.059 E4.35066
G1 X67.537 Y137.614 E4.36723
G1 X67.378 Y138.204 E4.38417
G1 X67.283 Y138.807 E4.40114
G1 X67.251 Y139.440 E4.41873
G1 X67.251 Y179.598 E5.53334
G1 X67.283 Y180.231 E5.55093
G1 X67.378 Y180.834 E5.56790
G1 X67.537 Y181.424 E5.58484
G1 X67.756 Y181.979 E5.60141
G1 X68.287 Y182.985 E5.63297
G1 X68.488 Y183.490 E5.64808
G1 X68.634 Y184.013 E5.66314
G1 X68.721 Y184.543 E5.67806
G1 X68.751 Y185.086 E5.69314
G1 X68.751 Y187.508 E5.76036
G1 X68.716 Y187.865 E5.77032
G1 X68.615 Y188.198 E5.77997
G1 X68.451 Y188.504 E5.78963
G1 X68.231 Y188.773 E5.79928
G1 X67.962 Y188.994 E5.80893
G1 X67.655 Y189.158 E5.81858
G1 X67.322 Y189.259 E5.82823
G1 X66.965 Y189.294 E5.83819
G1 X63.987 Y189.294 E5.92085
G1 X63.630 Y189.259 E5.93081
G1 X63.297 Y189.158 E5.94046
G1 X62.991 Y188.994 E5.95011
G1 X62.722 Y188.773 E5.95977
G1 X62.501 Y188.504 E5.96942
G1 X62.337 Y188.198 E5.97907
G1 X62.236 Y187.865 E5.98872
G1 X62.201 Y187.508 E5.99868
G1 X62.201 Y185.086 E6.06590
G1 X62.231 Y184.543 E6.08099
G1 X62.319 Y184.013 E6.09590
G1 X62.464 Y183.490 E6.11096
G1 X62.665 Y182.985 E6.12607
G1 X63.196 Y181.979 E6.15764
G1 X63.416 Y181.424 E6.17420
G1 X63.574 Y180.834 E6.19115
G1 X63.670 Y180.231 E6.20811
G1 X63.701 Y179.598 E6.22570
G1 X63.701 Y139.440 E7.34032
G1 X63.670 Y138.807 E7.35791
G1 X63.574 Y138.204 E7.37487
G1 X63.416 Y137.614 E7.39182
G1 X63.196 Y137.059 E7.40838
G1 X62.665 Y136.053 E7.43995
G1 X62.464 Y135.547 E7.45505
G1 X62.319 Y135.025 E7.47012
G1 X62.231 Y134.495 E7.48503
G1 X62.201 Y133.952 E7.50012
G1 X62.201 Y131.530 E7.56734
G1 X62.236 Y131.173 E7.57730
G1 X62.337 Y130.840 E7.58695
G1 X62.501 Y130.533 E7.59660
G1 X62.722 Y130.265 E7.60625
G1 X62.991 Y130.044 E7.61591
G1 X63.297 Y129.880 E7.62556
G1 X63.630 Y129.779 E7.63521
G1 X63.987 Y129.744 E7.64516
G1 X67.163 Y129.763 E7.73332
G1 X67.267 Y129.859 F18000.000
G1 X66.965 Y130.774
;TYPE:Gap fill
;WIDTH:0.180308
G1 F1800.000
G1 X67.351 Y130.958 E7.73733
G1 X67.543 Y131.140 E7.73981
G1 X67.687 Y131.323 E7.74198
G1 X67.422 Y130.918 F18000.000
;WIDTH:0.119478
G1 F1800.000
G1 X66.960 Y130.793 E7.74448
G1 X66.160 Y130.628 F18000.000
