; generated by PrusaSlicer 2.3.0+win64 on 2021-02-27 at 07:27:23 UTC

; 

; external perimeters extrusion width = 0.45mm
; perimeters extrusion width = 0.45mm
; infill extrusion width = 0.45mm
; solid infill extrusion width = 0.45mm
; top infill extrusion width = 0.40mm
; support material extrusion width = 0.38mm
; first layer extrusion width = 0.35mm

M73 P0 R109
M73 Q0 S109
M201 X500 Y500 Z100 E5000 ; sets maximum accelerations, mm/sec^2
M203 X500 Y500 Z10 E60 ; sets maximum feedrates, mm/sec
M204 P500 R1000 T500 ; sets acceleration (P, T) and retract acceleration (R), mm/sec^2
M205 X8.00 Y8.00 Z0.40 E5.00 ; sets the jerk limits, mm/sec
M205 S0 T0 ; sets the minimum extruding and travel feed rate, mm/sec
M107
;TYPE:Custom
G90 ; use absolute coordinates
M83 ; extruder relative mode
M104 S215 ; set extruder temp
M140 S60 ; set bed temp
M190 S60 ; wait for bed temp
M109 S215 ; wait for extruder temp
G28 ; home all
G1 Z2 F240
G1 X2 Y10 F3000
G1 Z0.28 F240
G92 E0.0
G1 Y190 E15.0 F1500.0 ; intro line
M73 P0 R108
M73 Q0 S108
G1 X2.3 F5000
G1 Y10 E30 F1200.0 ; intro line
G92 E0.0
G21 ; set units to millimeters
G90 ; use absolute coordinates
M82 ; use absolute distances for extrusion
G92 E0
; Filament gcode
;LAYER_CHANGE
;Z:0.2
;HEIGHT:0.2
;BEFORE_LAYER_CHANGE
M117 INDICATOR-Layer1
;0.2


G1 E-0.50000 F3600.000
G92 E0
G1 Z0.200 F4800.000
;AFTER_LAYER_CHANGE
;0.2
G1 X88.389 Y107.345
G1 E0.60000 F2400.000
;TYPE:Support material
;WIDTH:0.35
G1 F900.000
G1 X88.389 Y106.609 E0.61542
G1 X89.003 Y106.609 E0.62828
G1 X89.003 Y107.863 E0.65453
G1 X89.617 Y108.595 E0.67455
G1 X89.617 Y106.609 E0.71615
G1 X90.231 Y106.609 E0.72901
G1 X90.231 Y109.328 E0.78595
G1 X90.845 Y110.061 E0.80597
G1 X90.845 Y106.609 E0.87825
G1 X91.459 Y106.609 E0.89111
G1 X91.459 Y110.794 E0.97874
G1 X92.074 Y111.527 E0.99876
G1 X92.074 Y106.609 E1.10173
G1 X92.688 Y106.609 E1.11459
G1 X92.688 Y112.260 E1.23291
G1 X93.089 Y112.739 E1.24600
G1 X93.302 Y113.030 E1.25354
G1 X93.302 Y106.609 E1.38798
G1 X93.916 Y106.609 E1.40084
G1 X93.916 Y115.116 E1.57896
G1 E1.22896 F3600.000
;WIPE_START
G1 F3840.000
G1 X93.916 Y114.956 E1.08646
;WIPE_END
G1 E1.07896 F3600.000
G92 E0
G1 X91.459 Y116.604 F4800.000
G1 E0.60000 F2400.000
G1 F900.000
G1 X91.459 Y114.580 E0.64238
G1 X91.412 Y114.485 E0.64462
G1 X91.206 Y114.211 E0.65179
G1 X90.953 Y113.981 E0.65896
G1 X90.845 Y113.914 E0.66160
G1 X90.845 Y117.008 E0.72638
G1 X90.661 Y117.122 E0.73091
G1 X90.342 Y117.246 E0.73808
G1 X90.231 Y117.267 E0.74044
G1 X90.231 Y113.656 E0.81604
G1 X90.006 Y113.614 E0.82084
G1 X89.663 Y113.614 E0.82801
G1 X89.617 Y113.622 E0.82900
G1 X89.617 Y117.300 E0.90600
G1 X89.327 Y117.246 E0.91218
G1 X89.003 Y117.119 E0.91946
G1 X89.003 Y113.803 E0.98890
G1 X88.716 Y113.981 E0.99595
G1 X88.463 Y114.211 E1.00312
G1 X88.389 Y114.310 E1.00571
G1 X88.389 Y116.830 E1.05848
G1 E0.70848 F3600.000
;WIPE_START
G1 F3840.000
G1 X88.389 Y116.670 E0.56598
;WIPE_END
G1 E0.55848 F3600.000
G92 E0
G1 X81.633 Y113.944 F4800.000
G1 E0.60000 F2400.000
G1 F900.000
G1 X81.633 Y121.987 E0.76840
G1 X82.247 Y121.987 E0.78125
G1 X82.247 Y114.639 E0.93510
G1 X82.861 Y115.154 E0.95188
G1 X82.861 Y121.987 E1.09494
G1 X83.475 Y121.987 E1.10780
G1 X83.475 Y115.669 E1.24009
G1 X84.090 Y116.183 E1.25687
G1 X84.090 Y124.324 E1.42731
G1 X84.704 Y124.324 E1.44017
G1 X84.704 Y116.698 E1.59984
G1 X85.318 Y117.213 E1.61662
G1 X85.318 Y124.324 E1.76551
G1 X85.932 Y124.324 E1.77836
G1 X85.932 Y117.728 E1.91648
G1 X86.546 Y118.242 E1.93326
G1 X86.546 Y124.324 E2.06059
G1 X87.160 Y124.324 E2.07345
G1 X87.160 Y118.752 E2.19011
G1 X87.564 Y119.046 E2.20056
G1 X87.775 Y119.161 E2.20560
G1 X87.775 Y124.324 E2.31369
G1 X88.389 Y124.324 E2.32655
G1 X88.389 Y119.442 E2.42877
G1 X88.616 Y119.526 E2.43385
G1 X89.003 Y119.615 E2.44216
G1 X89.003 Y124.324 E2.54075
G1 X89.617 Y124.324 E2.55361
G1 X89.617 Y119.693 E2.65057
G1 X89.743 Y119.704 E2.65321
G1 X90.231 Y119.682 E2.66344
G1 X90.231 Y124.324 E2.76063
G1 X90.845 Y124.324 E2.77349
G1 X90.845 Y119.582 E2.87278
G1 X91.459 Y119.378 E2.88632
G1 X91.459 Y124.324 E2.98987
G1 X92.074 Y124.324 E3.00273
G1 X92.074 Y119.057 E3.11301
G1 X92.398 Y118.843 E3.12115
G1 X92.688 Y118.591 E3.12918
G1 X92.688 Y124.324 E3.24921
G1 X93.302 Y124.324 E3.26207
G1 X93.302 Y117.895 E3.39669
G1 X93.530 Y117.547 E3.40539
G1 X93.771 Y117.047 E3.41702
G1 X93.916 Y116.602 E3.42682
G1 X93.916 Y124.324 E3.58851
G1 X94.530 Y124.324 E3.60137
G1 X94.530 Y106.609 E3.97228
G1 X95.144 Y106.609 E3.98514
G1 X95.144 Y124.324 E4.35606
G1 X95.759 Y124.324 E4.36892
G1 X95.759 Y106.609 E4.73983
G1 X96.373 Y106.609 E4.75269
G1 X96.373 Y124.324 E5.12361
G1 X96.708 Y124.324 E5.13063
G1 X96.708 Y119.650 E5.22850
G1 X96.987 Y119.650 E5.23433
G1 X96.987 Y111.283 E5.40952
G1 X97.601 Y111.283 E5.42238
G1 X97.601 Y119.650 E5.59756
G1 X98.215 Y119.650 E5.61042
G1 X98.215 Y111.283 E5.78561
G1 X98.829 Y111.283 E5.79846
G1 X98.829 Y119.788 E5.97654
G1 E5.62654 F3600.000
;WIPE_START
G1 F3840.000
G1 X98.829 Y119.628 E5.48404
;WIPE_END
G1 E5.47654 F3600.000
G92 E0
G1 X92.532 Y116.506 F4800.000
G1 E0.60000 F2400.000
;TYPE:Perimeter
G1 F540.000
G1 X92.294 Y116.984 E0.61118
G1 X91.972 Y117.410 E0.62235
G1 X91.578 Y117.770 E0.63353
G1 X91.124 Y118.051 E0.64470
G1 X90.626 Y118.243 E0.65588
G1 X90.101 Y118.341 E0.66706
G1 X89.567 Y118.341 E0.67823
G1 X89.043 Y118.243 E0.68941
G1 X88.545 Y118.051 E0.70058
G1 X88.091 Y117.770 E0.71176
G1 X87.697 Y117.410 E0.72294
G1 X87.375 Y116.984 E0.73411
G1 X87.141 Y116.513 E0.74513
G1 X86.991 Y115.994 E0.75644
G1 X86.942 Y115.461 E0.76764
G1 X86.991 Y114.930 E0.77882
G1 X87.137 Y114.416 E0.78999
G1 X87.375 Y113.939 E0.80117
G1 X87.697 Y113.513 E0.81234
G1 X88.091 Y113.153 E0.82352
G1 X88.545 Y112.872 E0.83470
G1 X89.043 Y112.679 E0.84587
G1 X89.567 Y112.581 E0.85705
G1 X90.101 Y112.581 E0.86822
G1 X90.626 Y112.679 E0.87940
G1 X91.124 Y112.872 E0.89058
G1 X91.578 Y113.153 E0.90175
G1 X91.966 Y113.507 E0.91277
G1 X92.293 Y113.937 E0.92408
G1 X92.532 Y114.416 E0.93528
G1 X92.678 Y114.930 E0.94645
G1 X92.727 Y115.461 E0.95763
G1 X92.678 Y115.993 E0.96881
G1 X92.548 Y116.448 E0.97873
G1 X92.253 Y116.364 F4800.000
G1 F540.000
G1 X92.031 Y116.822 E0.98936
G1 X91.744 Y117.202 E0.99935
G1 X91.392 Y117.523 E1.00933
G1 X90.986 Y117.775 E1.01932
G1 X90.542 Y117.947 E1.02930
G1 X90.073 Y118.034 E1.03928
G1 X89.596 Y118.034 E1.04927
G1 X89.127 Y117.947 E1.05925
G1 X88.683 Y117.775 E1.06924
G1 X88.277 Y117.523 E1.07922
G1 X87.925 Y117.202 E1.08921
G1 X87.637 Y116.822 E1.09919
G1 X87.428 Y116.401 E1.10903
G1 X87.294 Y115.937 E1.11914
G1 X87.250 Y115.461 E1.12914
G1 X87.294 Y114.986 E1.13913
G1 X87.425 Y114.528 E1.14911
G1 X87.637 Y114.101 E1.15910
G1 X87.925 Y113.720 E1.16908
G1 X88.277 Y113.399 E1.17907
G1 X88.683 Y113.148 E1.18905
G1 X89.127 Y112.976 E1.19903
G1 X89.596 Y112.888 E1.20902
G1 X90.073 Y112.888 E1.21900
G1 X90.542 Y112.976 E1.22899
G1 X90.986 Y113.148 E1.23897
G1 X91.392 Y113.399 E1.24896
G1 X91.739 Y113.716 E1.25879
G1 X92.031 Y114.100 E1.26891
G1 X92.244 Y114.528 E1.27891
G1 X92.375 Y114.986 E1.28889
G1 X92.419 Y115.461 E1.29888
G1 X92.375 Y115.936 E1.30886
G1 X92.269 Y116.307 E1.31693
G1 X91.956 Y116.283 F4800.000
;TYPE:External perimeter
G1 F540.000
G1 X91.769 Y116.659 E1.32572
G1 X91.516 Y116.994 E1.33452
G1 X91.206 Y117.277 E1.34331
G1 X90.849 Y117.498 E1.35210
G1 X90.457 Y117.650 E1.36090
G1 X90.044 Y117.727 E1.36969
G1 X89.624 Y117.727 E1.37848
G1 X89.212 Y117.650 E1.38727
G1 X88.820 Y117.498 E1.39607
G1 X88.463 Y117.277 E1.40486
G1 X88.153 Y116.994 E1.41365
G1 X87.900 Y116.659 E1.42245
G1 X87.715 Y116.289 E1.43110
G1 X87.597 Y115.880 E1.44002
G1 X87.559 Y115.461 E1.44882
G1 X87.597 Y115.043 E1.45762
G1 X87.712 Y114.639 E1.46641
G1 X87.900 Y114.263 E1.47520
G1 X88.153 Y113.928 E1.48399
G1 X88.463 Y113.645 E1.49279
G1 X88.820 Y113.424 E1.50158
G1 X89.212 Y113.272 E1.51037
G1 X89.624 Y113.195 E1.51917
G1 X90.044 Y113.195 E1.52796
G1 X90.457 Y113.272 E1.53675
G1 X90.849 Y113.424 E1.54555
G1 X91.206 Y113.645 E1.55434
G1 X91.511 Y113.924 E1.56299
G1 X91.769 Y114.263 E1.57192
G1 X91.956 Y114.639 E1.58072
G1 X92.071 Y115.043 E1.58951
G1 X92.110 Y115.461 E1.59830
G1 X92.071 Y115.879 E1.60709
G1 X91.973 Y116.226 E1.61463
G1 X92.207 Y116.595 F4800.000
G1 E1.26463 F3600.000
;WIPE_START
G1 F3840.000
G1 X91.905 Y116.370 E1.12213
;WIPE_END
G1 E1.11463 F3600.000
G92 E0
G1 X90.935 Y112.470 F4800.000
G1 E0.60000 F2400.000
;TYPE:Perimeter
G1 F1440.000
G1 X90.710 Y112.383 E0.60505
G1 X90.130 Y112.274 E0.61742
G1 X89.539 Y112.274 E0.62979
G1 X88.958 Y112.383 E0.64216
G1 X88.408 Y112.596 E0.65452
G1 X87.905 Y112.907 E0.66689
G1 X87.469 Y113.305 E0.67926
G1 X87.113 Y113.776 E0.69163
G1 X86.850 Y114.305 E0.70399
G1 X86.688 Y114.873 E0.71636
G1 X86.633 Y115.461 E0.72873
G1 X86.688 Y116.051 E0.74113
G1 X86.837 Y116.568 E0.75238
G1 X86.722 Y116.642 E0.75524
G1 X79.233 Y110.365 E0.95984
G1 X61.931 Y110.365 E1.32211
G1 X61.931 Y105.558 E1.42277
G1 X85.323 Y105.558 E1.91255
G1 X91.019 Y112.354 E2.09821
G1 X90.970 Y112.421 E2.09994
G1 E1.74994 F3600.000
;WIPE_START
G1 F3840.000
G1 X90.812 Y112.398 E1.60744
;WIPE_END
G1 E1.59994 F3600.000
G92 E0
G1 X79.121 Y110.672 F4800.000
G1 E0.60000 F2400.000
G1 F1440.000
G1 X61.624 Y110.672 E0.96636
G1 X61.624 Y105.250 E1.07988
G1 X85.466 Y105.250 E1.57909
G1 X92.165 Y113.243 E1.79744
G1 X92.552 Y113.755 E1.81088
G1 X92.754 Y114.130 E1.81979
G1 X92.907 Y114.534 E1.82884
G1 X93.003 Y114.955 E1.83787
G1 X93.042 Y115.394 E1.84711
G1 X93.024 Y115.818 E1.85599
G1 X92.947 Y116.243 E1.86504
G1 X92.813 Y116.654 E1.87410
G1 X92.626 Y117.044 E1.88315
G1 X92.388 Y117.405 E1.89220
G1 X92.104 Y117.730 E1.90123
G1 X91.771 Y118.019 E1.91047
G1 X91.417 Y118.253 E1.91935
G1 X91.028 Y118.440 E1.92838
G1 X90.608 Y118.575 E1.93762
G1 X90.191 Y118.650 E1.94650
G1 X89.759 Y118.669 E1.95555
G1 X89.329 Y118.630 E1.96460
G1 X88.907 Y118.533 E1.97366
G1 X88.503 Y118.381 E1.98271
G1 X88.122 Y118.175 E1.99176
G1 X87.752 Y117.905 E2.00137
G1 X79.167 Y110.711 E2.23588
G1 X79.010 Y110.979 F4800.000
G1 F1440.000
G1 X61.316 Y110.979 E2.60633
G1 X61.316 Y104.943 E2.73271
G1 X85.609 Y104.943 E3.24135
G1 X92.405 Y113.052 E3.46286
G1 X92.811 Y113.589 E3.47695
G1 X93.034 Y114.002 E3.48678
G1 X93.201 Y114.445 E3.49670
G1 X93.307 Y114.906 E3.50661
G1 X93.350 Y115.387 E3.51672
G1 X93.329 Y115.852 E3.52646
G1 X93.245 Y116.318 E3.53638
G1 X93.099 Y116.769 E3.54630
G1 X92.894 Y117.196 E3.55622
G1 X92.633 Y117.591 E3.56614
G1 X92.322 Y117.948 E3.57605
G1 X91.957 Y118.264 E3.58615
G1 X91.569 Y118.521 E3.59589
G1 X91.142 Y118.726 E3.60580
G1 X90.683 Y118.874 E3.61591
G1 X90.225 Y118.956 E3.62565
G1 X89.752 Y118.977 E3.63557
G1 X89.280 Y118.934 E3.64549
G1 X88.818 Y118.828 E3.65541
G1 X88.375 Y118.661 E3.66533
G1 X87.958 Y118.436 E3.67525
G1 X87.562 Y118.147 E3.68551
G1 X79.056 Y111.018 E3.91789
G1 X78.898 Y111.286 F4800.000
;TYPE:External perimeter
G1 F540.000
G1 X61.009 Y111.286 E4.29244
G1 X61.009 Y104.636 E4.43168
G1 X85.753 Y104.636 E4.94975
G1 X92.645 Y112.860 E5.17442
G1 X93.070 Y113.422 E5.18916
M73 P1 R108
M73 Q1 S108
G1 X93.314 Y113.874 E5.19992
G1 X93.496 Y114.356 E5.21071
G1 X93.611 Y114.858 E5.22149
G1 X93.658 Y115.380 E5.23246
G1 X93.635 Y115.886 E5.24307
G1 X93.544 Y116.393 E5.25385
G1 X93.385 Y116.883 E5.26464
G1 X93.161 Y117.348 E5.27543
G1 X92.878 Y117.778 E5.28622
G1 X92.539 Y118.166 E5.29700
G1 X92.143 Y118.509 E5.30797
G1 X91.721 Y118.788 E5.31858
G1 X91.257 Y119.012 E5.32936
G1 X90.758 Y119.172 E5.34033
G1 X90.259 Y119.262 E5.35094
G1 X89.745 Y119.285 E5.36173
G1 X89.232 Y119.238 E5.37251
G1 X88.729 Y119.123 E5.38330
G1 X88.247 Y118.941 E5.39409
G1 X87.794 Y118.696 E5.40487
G1 X87.373 Y118.389 E5.41579
G1 X78.944 Y111.325 E5.64605
G1 X78.783 Y110.903 F4800.000
G1 E5.29605 F3600.000
;WIPE_START
G1 F3840.000
G1 X78.784 Y111.324 E5.15355
;WIPE_END
G1 E5.14605 F3600.000
G92 E0
G1 X86.853 Y116.740 F4800.000
M73 P1 R107
M73 Q1 S107
G1 E0.60000 F2400.000
;TYPE:Gap fill
;WIDTH:0.126341
G1 F540.000
G1 X87.571 Y117.529 E0.60607
G1 E0.25607 F3600.000
;WIPE_START
G1 F3840.000
G1 X87.463 Y117.411 E0.11357
;WIPE_END
G1 E0.10607 F3600.000
G92 E0
G1 X91.956 Y113.264 F4800.000
G1 E0.60000 F2400.000
;WIDTH:0.131673
G1 F540.000
G1 X91.700 Y112.997 E0.60224
G1 X91.479 Y112.805 E0.60401
;WIDTH:0.269165
G1 X91.102 Y112.501 E0.61149
G1 X90.663 Y112.169 F4800.000
;WIDTH:0.127988
G1 F540.000
G1 X90.350 Y112.140 E0.61331
G1 E0.26331 F3600.000
;WIPE_START
G1 F3840.000
G1 X90.509 Y112.154 E0.12081
;WIPE_END
G1 E0.11331 F3600.000
G92 E0
G1 X88.553 Y109.555 F4800.000
G1 E0.60000 F2400.000
;TYPE:Solid infill
;WIDTH:0.351545
G1 F1440.000
G1 X84.786 Y105.788 E0.71210
G1 X84.349 Y105.788 E0.72128
G1 X89.698 Y111.137 E0.88047
G1 X90.286 Y111.838 E0.89972
G1 X90.148 Y111.825 E0.90265
G1 X90.131 Y112.006 E0.90646
G1 X83.913 Y105.788 E1.09151
G1 X83.476 Y105.788 E1.10069
G1 X89.732 Y112.044 E1.28686
G1 X89.518 Y112.044 E1.29138
G1 X89.331 Y112.079 E1.29538
G1 X83.040 Y105.788 E1.48259
G1 X82.603 Y105.788 E1.49177
G1 X88.963 Y112.147 E1.68103
G1 X88.639 Y112.259 E1.68825
G1 X82.167 Y105.788 E1.88085
G1 X81.731 Y105.788 E1.89003
G1 X88.324 Y112.381 E2.08625
G1 X88.052 Y112.545 E2.09294
G1 X81.294 Y105.788 E2.29404
G1 X80.858 Y105.788 E2.30323
G1 X87.782 Y112.712 E2.50930
G1 X87.551 Y112.918 E2.51580
G1 X80.421 Y105.788 E2.72799
G1 X79.985 Y105.788 E2.73718
G1 X87.323 Y113.126 E2.95556
G1 X87.131 Y113.370 E2.96210
G1 X79.548 Y105.788 E3.18775
G1 X79.112 Y105.788 E3.19694
G1 X86.943 Y113.619 E3.42999
G1 X86.792 Y113.904 E3.43678
G1 X78.675 Y105.788 E3.67833
G1 X78.239 Y105.788 E3.68751
G1 X86.647 Y114.196 E3.93773
G1 X86.546 Y114.531 E3.94510
G1 X77.802 Y105.788 E4.20530
G1 X77.366 Y105.788 E4.21448
G1 X86.456 Y114.878 E4.48500
G1 X86.419 Y115.278 E4.49345
G1 X76.929 Y105.788 E4.77585
G1 X76.493 Y105.788 E4.78504
G1 X86.426 Y115.721 E5.08065
G1 X86.471 Y116.131 E5.08933
G1 X86.029 Y115.760 E5.10148
G1 X76.057 Y105.788 E5.39825
G1 X75.620 Y105.788 E5.40743
G1 X83.333 Y113.501 E5.63696
G1 X80.637 Y111.241 E5.71098
G1 X75.184 Y105.788 E5.87327
G1 X74.747 Y105.788 E5.88246
G1 X79.094 Y110.135 E6.01182
G1 X78.658 Y110.135 E6.02100
G1 X74.311 Y105.788 E6.15037
G1 X73.874 Y105.788 E6.15955
G1 X78.221 Y110.135 E6.28891
G1 X77.785 Y110.135 E6.29810
G1 X73.438 Y105.788 E6.42746
G1 X73.001 Y105.788 E6.43664
G1 X77.348 Y110.135 E6.56601
G1 X76.912 Y110.135 E6.57519
G1 X72.565 Y105.788 E6.70455
G1 X72.128 Y105.788 E6.71374
G1 X76.475 Y110.135 E6.84310
G1 X76.039 Y110.135 E6.85228
G1 X71.692 Y105.788 E6.98165
G1 X71.255 Y105.788 E6.99083
G1 X75.602 Y110.135 E7.12019
G1 X75.166 Y110.135 E7.12938
G1 X70.819 Y105.788 E7.25874
G1 X70.383 Y105.788 E7.26792
G1 X74.729 Y110.135 E7.39728
G1 X74.293 Y110.135 E7.40647
G1 X69.946 Y105.788 E7.53583
G1 X69.510 Y105.788 E7.54502
G1 X73.857 Y110.135 E7.67438
G1 X73.420 Y110.135 E7.68356
G1 X69.073 Y105.788 E7.81292
G1 X68.637 Y105.788 E7.82211
G1 X72.984 Y110.135 E7.95147
G1 X72.547 Y110.135 E7.96065
G1 X68.200 Y105.788 E8.09002
G1 X67.764 Y105.788 E8.09920
G1 X72.111 Y110.135 E8.22856
G1 X71.674 Y110.135 E8.23775
G1 X67.327 Y105.788 E8.36711
G1 X66.891 Y105.788 E8.37629
G1 X71.238 Y110.135 E8.50566
G1 X70.801 Y110.135 E8.51484
G1 X66.454 Y105.788 E8.64420
G1 X66.018 Y105.788 E8.65339
G1 X70.365 Y110.135 E8.78275
G1 X69.928 Y110.135 E8.79193
G1 X65.581 Y105.788 E8.92130
G1 X65.145 Y105.788 E8.93048
G1 X69.492 Y110.135 E9.05984
G1 X69.055 Y110.135 E9.06903
G1 X64.709 Y105.788 E9.19839
G1 X64.272 Y105.788 E9.20757
G1 X68.619 Y110.135 E9.33693
G1 X68.183 Y110.135 E9.34612
G1 X63.836 Y105.788 E9.47548
G1 X63.399 Y105.788 E9.48467
G1 X67.746 Y110.135 E9.61403
G1 X67.310 Y110.135 E9.62321
G1 X62.963 Y105.788 E9.75257
G1 X62.526 Y105.788 E9.76176
G1 X66.873 Y110.135 E9.89112
G1 X66.437 Y110.135 E9.90030
G1 X62.161 Y105.859 E10.02755
G1 X62.161 Y106.295 E10.03673
G1 X66.000 Y110.135 E10.15099
G1 X65.564 Y110.135 E10.16017
G1 X62.161 Y106.732 E10.26144
G1 X62.161 Y107.168 E10.27062
G1 X65.127 Y110.135 E10.35890
G1 X64.691 Y110.135 E10.36809
G1 X62.161 Y107.605 E10.44338
G1 X62.161 Y108.041 E10.45256
G1 X64.254 Y110.135 E10.51486
