; generated by PrusaSlicer 2.3.0+win64 on 2021-02-17 at 18:21:05 UTC

; 

; external perimeters extrusion width = 0.45mm
; perimeters extrusion width = 0.45mm
; infill extrusion width = 0.45mm
; solid infill extrusion width = 0.45mm
; top infill extrusion width = 0.40mm
; support material extrusion width = 0.38mm
; first layer extrusion width = 0.35mm

M73 P0 R52
M73 Q0 S52
M201 X500 Y500 Z100 E5000 ; sets maximum accelerations, mm/sec^2
M203 X500 Y500 Z10 E60 ; sets maximum feedrates, mm/sec
M204 P500 R1000 T500 ; sets acceleration (P, T) and retract acceleration (R), mm/sec^2
M205 X8.00 Y8.00 Z0.40 E5.00 ; sets the jerk limits, mm/sec
M205 S0 T0 ; sets the minimum extruding and travel feed rate, mm/sec
M107
;TYPE:Custom
G90 ; use absolute coordinates
M83 ; extruder relative mode
M104 S215 ; set extruder temp
M140 S60 ; set bed temp
M190 S60 ; wait for bed temp
M109 S215 ; wait for extruder temp
G28 ; home all
G1 Z2 F240
M73 P0 R51
M73 Q0 S51
G1 X2 Y10 F3000
G1 Z0.28 F240
G92 E0.0
G1 Y190 E15.0 F1500.0 ; intro line
G1 X2.3 F5000
G1 Y10 E30 F1200.0 ; intro line
G92 E0.0
G21 ; set units to millimeters
G90 ; use absolute coordinates
M82 ; use absolute distances for extrusion
G92 E0
; Filament gcode
;LAYER_CHANGE
;Z:0.2
;HEIGHT:0.2
;BEFORE_LAYER_CHANGE
M117 INDICATOR-Layer1
;0.2


G1 E-0.50000 F3600.000
G92 E0
G1 Z0.200 F18000.000
;AFTER_LAYER_CHANGE
;0.2
G1 X121.668 Y107.481
G1 E0.60000 F2400.000
;TYPE:Skirt
;WIDTH:0.35
G1 F900.000
G1 X122.645 Y107.501 E0.62098
G1 X122.917 Y107.575 E0.62701
G1 X123.349 Y107.802 E0.63748
G1 X123.827 Y108.294 E0.65219
G1 X124.126 Y109.076 E0.67014
G1 X124.126 Y122.779 E0.96406
G1 X123.933 Y123.341 E0.97679
G1 X123.881 Y123.425 E0.97892
G1 X123.325 Y123.970 E0.99561
G1 X123.176 Y124.052 E0.99926
G1 X122.697 Y124.191 E1.00995
G1 X111.419 Y124.206 E1.25185
G1 X110.738 Y123.976 E1.26727
G1 X110.570 Y123.863 E1.27160
G1 X109.974 Y123.251 E1.28993
G1 X109.840 Y123.459 E1.29524
G1 X109.422 Y123.872 E1.30784
G1 X108.587 Y124.206 E1.32712
G1 X106.720 Y124.206 E1.36716
G1 X106.561 Y124.180 E1.37062
G1 X106.069 Y124.180 E1.38118
G1 X105.910 Y124.206 E1.38464
G1 X97.482 Y124.206 E1.56540
G1 X96.841 Y124.001 E1.57983
G1 X96.694 Y123.916 E1.58347
G1 X96.146 Y123.357 E1.60027
G1 X96.096 Y123.272 E1.60238
G1 X95.874 Y122.604 E1.61748
G1 X95.874 Y108.905 E1.91129
G1 X96.137 Y108.239 E1.92666
G1 X96.638 Y107.742 E1.94179
G1 X96.995 Y107.562 E1.95036
G1 X97.157 Y107.516 E1.95397
G1 X98.131 Y107.492 E1.97487
G1 X98.131 Y99.743 E2.14107
G1 X98.394 Y98.995 E2.15809
G1 X98.852 Y98.495 E2.17262
G1 X99.458 Y98.190 E2.18716
G1 X99.584 Y98.159 E2.18996
G1 X100.475 Y98.135 E2.20908
G1 X100.481 Y97.347 E2.22598
G1 X100.551 Y97.037 E2.23279
G1 X100.821 Y96.530 E2.24512
G1 X101.210 Y96.142 E2.25692
G1 X101.676 Y95.890 E2.26828
G1 X102.015 Y95.807 E2.27575
G1 X105.092 Y95.795 E2.34175
G1 X105.103 Y94.975 E2.35934
G1 X105.182 Y94.666 E2.36617
G1 X105.409 Y94.233 E2.37666
G1 X105.826 Y93.807 E2.38945
G1 X106.416 Y93.509 E2.40361
G1 X106.643 Y93.469 E2.40856
G1 X120.129 Y93.468 E2.69781
G1 X120.867 Y93.759 E2.71482
G1 X121.391 Y94.300 E2.73097
G1 X121.645 Y94.925 E2.74545
G1 X121.668 Y107.421 E3.01347
G1 X121.361 Y107.784 F18000.000
G1 F900.000
G1 X122.588 Y107.803 E3.03979
G1 X122.791 Y107.855 E3.04428
G1 X123.186 Y108.063 E3.05385
G1 X123.554 Y108.437 E3.06510
G1 X123.819 Y109.106 E3.08053
G1 X123.819 Y122.751 E3.37321
G1 X123.634 Y123.242 E3.38445
G1 X123.154 Y123.714 E3.39889
G1 X123.068 Y123.764 E3.40104
G1 X122.673 Y123.884 E3.40989
G1 X118.396 Y123.899 E3.50163
G1 X118.291 Y123.880 E3.50390
G1 X118.186 Y123.899 E3.50618
G1 X117.168 Y123.899 E3.52804
G1 X117.063 Y123.880 E3.53032
G1 X116.958 Y123.899 E3.53260
G1 X115.939 Y123.899 E3.55445
G1 X115.835 Y123.880 E3.55673
G1 X115.730 Y123.899 E3.55902
G1 X114.711 Y123.899 E3.58087
G1 X114.606 Y123.880 E3.58315
G1 X114.501 Y123.899 E3.58543
G1 X113.483 Y123.899 E3.60728
G1 X113.378 Y123.880 E3.60956
G1 X113.273 Y123.899 E3.61185
G1 X112.254 Y123.899 E3.63370
G1 X112.150 Y123.880 E3.63598
G1 X112.045 Y123.899 E3.63826
G1 X111.445 Y123.899 E3.65113
G1 X110.888 Y123.707 E3.66376
G1 X110.777 Y123.636 E3.66659
G1 X110.359 Y123.206 E3.67946
G1 X110.098 Y122.585 E3.69389
G1 X109.878 Y122.601 E3.69861
G1 X109.808 Y122.870 E3.70457
G1 X109.599 Y123.267 E3.71420
G1 X109.273 Y123.602 E3.72421
G1 X108.556 Y123.899 E3.74087
G1 X107.955 Y123.899 E3.75375
G1 X107.850 Y123.880 E3.75603
G1 X107.746 Y123.899 E3.75831
G1 X106.735 Y123.899 E3.77999
G1 X106.589 Y123.873 E3.78317
G1 X106.041 Y123.873 E3.79493
G1 X105.895 Y123.899 E3.79810
G1 X104.884 Y123.899 E3.81978
G1 X104.780 Y123.880 E3.82206
G1 X104.675 Y123.899 E3.82434
G1 X103.656 Y123.899 E3.84620
G1 X103.551 Y123.880 E3.84848
G1 X103.447 Y123.899 E3.85076
G1 X102.428 Y123.899 E3.87261
G1 X102.323 Y123.880 E3.87489
G1 X102.218 Y123.899 E3.87717
G1 X101.199 Y123.899 E3.89903
G1 X101.095 Y123.880 E3.90131
G1 X100.990 Y123.899 E3.90359
G1 X99.971 Y123.899 E3.92544
G1 X99.866 Y123.880 E3.92772
G1 X99.762 Y123.899 E3.93000
G1 X98.743 Y123.899 E3.95186
G1 X98.638 Y123.880 E3.95414
G1 X98.533 Y123.899 E3.95642
G1 X97.507 Y123.899 E3.97843
G1 X96.956 Y123.715 E3.99089
G1 X96.869 Y123.664 E3.99305
G1 X96.380 Y123.153 E4.00823
G1 X96.181 Y122.577 E4.02128
G1 X96.181 Y108.934 E4.31391
G1 X96.378 Y108.431 E4.32549
G1 X96.799 Y108.005 E4.33835
G1 X97.118 Y107.844 E4.34600
G1 X97.216 Y107.818 E4.34819
G1 X98.438 Y107.794 E4.37440
G1 X98.438 Y99.769 E4.54653
M73 P1 R51
M73 Q1 S51
G1 X98.644 Y99.175 E4.56001
G1 X99.017 Y98.756 E4.57203
G1 X99.609 Y98.465 E4.58618
G1 X100.780 Y98.434 E4.61131
G1 X100.788 Y97.368 E4.63419
G1 X100.844 Y97.130 E4.63944
G1 X101.078 Y96.698 E4.64997
G1 X101.407 Y96.379 E4.65980
G1 X101.802 Y96.171 E4.66937
G1 X102.034 Y96.114 E4.67449
G1 X105.397 Y96.101 E4.74663
G1 X105.406 Y95.028 E4.76963
G1 X105.463 Y94.791 E4.77486
G1 X105.671 Y94.396 E4.78444
G1 X105.990 Y94.068 E4.79426
G1 X106.496 Y93.807 E4.80646
G1 X106.658 Y93.777 E4.81000
G1 X120.097 Y93.775 E5.09824
G1 X120.705 Y94.025 E5.11236
G1 X121.121 Y94.448 E5.12509
G1 X121.338 Y94.958 E5.13696
G1 X121.361 Y107.724 E5.41078
G1 X121.055 Y108.071 F18000.000
G1 F900.000
G1 X121.365 Y108.120 E5.41753
G1 X121.491 Y108.093 E5.42027
G1 X122.536 Y108.106 E5.44269
G1 X122.666 Y108.137 E5.44557
G1 X123.023 Y108.324 E5.45421
G1 X123.283 Y108.584 E5.46209
G1 X123.512 Y109.137 E5.47493
G1 X123.512 Y122.722 E5.76630
G1 X123.383 Y123.060 E5.77406
G1 X122.952 Y123.479 E5.78695
G1 X122.652 Y123.577 E5.79372
G1 X121.974 Y123.567 E5.80825
G1 X121.847 Y123.592 E5.81103
G1 X120.872 Y123.592 E5.83195
G1 X120.748 Y123.565 E5.83467
G1 X120.624 Y123.592 E5.83739
G1 X119.643 Y123.592 E5.85841
G1 X119.519 Y123.565 E5.86114
G1 X119.395 Y123.592 E5.86386
G1 X118.415 Y123.592 E5.88488
G1 X118.291 Y123.565 E5.88760
G1 X118.167 Y123.592 E5.89032
G1 X117.187 Y123.592 E5.91135
G1 X117.063 Y123.565 E5.91407
G1 X116.939 Y123.592 E5.91679
G1 X115.959 Y123.592 E5.93782
G1 X115.835 Y123.565 E5.94054
G1 X115.711 Y123.592 E5.94326
G1 X114.730 Y123.592 E5.96429
G1 X114.606 Y123.565 E5.96701
G1 X114.482 Y123.592 E5.96973
G1 X113.502 Y123.592 E5.99076
G1 X113.378 Y123.565 E5.99348
G1 X113.254 Y123.592 E5.99620
G1 X112.274 Y123.592 E6.01722
G1 X112.150 Y123.565 E6.01994
G1 X112.026 Y123.592 E6.02267
G1 X111.473 Y123.592 E6.03452
G1 X110.985 Y123.409 E6.04569
G1 X110.601 Y123.014 E6.05750
G1 X110.443 Y122.616 E6.06670
G1 X110.434 Y121.208 E6.09689
G1 X110.179 Y121.255 E6.10244
G1 X109.566 Y121.255 E6.11559
G1 X109.557 Y122.614 E6.14474
G1 X109.526 Y122.746 E6.14765
G1 X109.339 Y123.103 E6.15630
G1 X109.079 Y123.363 E6.16418
G1 X108.526 Y123.592 E6.17702
G1 X107.974 Y123.592 E6.18884
G1 X107.850 Y123.565 E6.19156
G1 X107.726 Y123.592 E6.19428
G1 X106.751 Y123.592 E6.21520
G1 X106.621 Y123.566 E6.21806
G1 X106.010 Y123.566 E6.23116
G1 X105.879 Y123.592 E6.23402
G1 X104.904 Y123.592 E6.25493
G1 X104.780 Y123.565 E6.25766
G1 X104.656 Y123.592 E6.26038
G1 X103.675 Y123.592 E6.28140
G1 X103.551 Y123.565 E6.28412
G1 X103.427 Y123.592 E6.28684
G1 X102.447 Y123.592 E6.30787
G1 X102.323 Y123.565 E6.31059
G1 X102.199 Y123.592 E6.31331
G1 X101.219 Y123.592 E6.33434
G1 X101.095 Y123.565 E6.33706
G1 X100.971 Y123.592 E6.33978
G1 X99.990 Y123.592 E6.36081
G1 X99.866 Y123.565 E6.36353
G1 X99.742 Y123.592 E6.36625
G1 X98.762 Y123.592 E6.38728
G1 X98.638 Y123.565 E6.39000
G1 X98.514 Y123.592 E6.39272
G1 X97.534 Y123.592 E6.41373
G1 X97.052 Y123.416 E6.42474
G1 X96.651 Y123.001 E6.43711
G1 X96.488 Y122.550 E6.44741
G1 X96.488 Y108.966 E6.73877
G1 X96.649 Y108.578 E6.74776
G1 X96.959 Y108.268 E6.75717
G1 X97.238 Y108.128 E6.76386
G1 X98.745 Y108.096 E6.79621
G1 X98.745 Y99.793 E6.97429
G1 X98.894 Y99.356 E6.98420
G1 X99.225 Y98.984 E6.99488
G1 X99.669 Y98.770 E7.00544
G1 X100.355 Y98.746 E7.02017
G1 X100.481 Y98.772 E7.02293
G1 X100.605 Y98.745 E7.02564
G1 X101.086 Y98.745 E7.03595
G1 X101.095 Y97.386 E7.06510
G1 X101.125 Y97.254 E7.06802
G1 X101.313 Y96.897 E7.07666
G1 X101.571 Y96.639 E7.08450
G1 X101.927 Y96.452 E7.09313
G1 X102.056 Y96.421 E7.09597
G1 X102.807 Y96.408 E7.11207
G1 X102.937 Y96.435 E7.11492
G1 X103.061 Y96.408 E7.11765
G1 X104.041 Y96.408 E7.13867
G1 X104.165 Y96.435 E7.14140
G1 X104.289 Y96.408 E7.14412
G1 X105.270 Y96.408 E7.16514
G1 X105.389 Y96.434 E7.16775
G1 X105.702 Y96.387 E7.17454
G1 X105.713 Y95.048 E7.20328
G1 X105.744 Y94.917 E7.20616
G1 X105.931 Y94.560 E7.21480
G1 X106.189 Y94.302 E7.22262
G1 X106.578 Y94.103 E7.23199
G1 X106.675 Y94.083 E7.23412
G1 X107.779 Y94.079 E7.25779
G1 X107.861 Y94.095 E7.25958
G1 X107.974 Y94.071 E7.26207
G1 X108.955 Y94.071 E7.28310
G1 X109.079 Y94.098 E7.28582
G1 X109.203 Y94.071 E7.28854
G1 X110.183 Y94.071 E7.30957
G1 X110.307 Y94.098 E7.31229
G1 X110.431 Y94.071 E7.31501
G1 X111.411 Y94.071 E7.33604
G1 X111.535 Y94.098 E7.33876
G1 X111.659 Y94.071 E7.34148
G1 X112.640 Y94.071 E7.36250
G1 X112.764 Y94.098 E7.36523
G1 X112.888 Y94.071 E7.36795
G1 X113.868 Y94.071 E7.38897
G1 X113.992 Y94.098 E7.39169
G1 X114.116 Y94.071 E7.39441
G1 X115.096 Y94.071 E7.41544
G1 X115.220 Y94.098 E7.41816
G1 X115.344 Y94.071 E7.42088
G1 X116.325 Y94.071 E7.44191
G1 X116.449 Y94.098 E7.44463
G1 X116.573 Y94.071 E7.44735
G1 X117.553 Y94.071 E7.46838
G1 X117.677 Y94.098 E7.47110
G1 X117.801 Y94.071 E7.47382
G1 X118.781 Y94.071 E7.49485
G1 X118.905 Y94.098 E7.49757
G1 X119.029 Y94.071 E7.50027
G1 X120.064 Y94.081 E7.52248
G1 X120.512 Y94.265 E7.53287
G1 X120.854 Y94.603 E7.54319
G1 X121.031 Y94.993 E7.55237
G1 X121.055 Y108.011 E7.83158
G1 X120.748 Y108.407 F18000.000
G1 F900.000
G1 X121.209 Y108.400 E7.84148
G1 X121.361 Y108.440 E7.84486
G1 X121.511 Y108.401 E7.84818
G1 X122.546 Y108.420 E7.87038
G1 X122.824 Y108.560 E7.87705
G1 X123.044 Y108.780 E7.88373
G1 X123.205 Y109.167 E7.89272
G1 X123.205 Y122.689 E8.18275
G1 X123.113 Y122.910 E8.18786
G1 X122.801 Y123.207 E8.19711
G1 X122.627 Y123.269 E8.20108
G1 X121.940 Y123.259 E8.21581
G1 X121.828 Y123.285 E8.21828
G1 X120.895 Y123.285 E8.23828
G1 X120.748 Y123.245 E8.24155
G1 X120.600 Y123.285 E8.24483
G1 X119.667 Y123.285 E8.26484
G1 X119.519 Y123.245 E8.26812
G1 X119.372 Y123.285 E8.27139
G1 X118.439 Y123.285 E8.29141
G1 X118.291 Y123.245 E8.29468
G1 X118.144 Y123.285 E8.29796
G1 X117.210 Y123.285 E8.31797
G1 X117.063 Y123.245 E8.32125
G1 X116.915 Y123.285 E8.32453
G1 X115.982 Y123.285 E8.34454
G1 X115.835 Y123.245 E8.34781
G1 X115.687 Y123.285 E8.35109
G1 X114.754 Y123.285 E8.37110
G1 X114.606 Y123.245 E8.37438
G1 X114.459 Y123.285 E8.37766
G1 X113.526 Y123.285 E8.39767
G1 X113.378 Y123.245 E8.40095
G1 X113.230 Y123.285 E8.40422
G1 X112.297 Y123.285 E8.42423
G1 X112.150 Y123.245 E8.42751
G1 X112.002 Y123.285 E8.43079
G1 X111.502 Y123.285 E8.44150
G1 X111.165 Y123.156 E8.44924
G1 X110.870 Y122.864 E8.45815
G1 X110.750 Y122.581 E8.46474
G1 X110.739 Y120.930 E8.50016
G1 X110.271 Y120.922 E8.51020
G1 X110.159 Y120.947 E8.51267
G1 X109.261 Y120.947 E8.53192
G1 X109.243 Y122.626 E8.56793
G1 X109.103 Y122.904 E8.57460
G1 X108.883 Y123.124 E8.58128
G1 X108.495 Y123.285 E8.59028
G1 X107.998 Y123.285 E8.60094
G1 X107.850 Y123.245 E8.60422
G1 X107.703 Y123.285 E8.60750
G1 X106.771 Y123.285 E8.62749
G1 X106.657 Y123.259 E8.62999
G1 X105.973 Y123.259 E8.64466
G1 X105.859 Y123.285 E8.64716
G1 X104.927 Y123.285 E8.66715
G1 X104.780 Y123.245 E8.67043
G1 X104.632 Y123.285 E8.67370
G1 X103.699 Y123.285 E8.69372
G1 X103.551 Y123.245 E8.69699
G1 X103.404 Y123.285 E8.70027
G1 X102.471 Y123.285 E8.72028
G1 X102.323 Y123.245 E8.72356
G1 X102.175 Y123.285 E8.72683
G1 X101.242 Y123.285 E8.74685
G1 X101.095 Y123.245 E8.75012
G1 X100.947 Y123.285 E8.75340
G1 X100.014 Y123.285 E8.77341
G1 X99.866 Y123.245 E8.77669
G1 X99.719 Y123.285 E8.77996
G1 X98.786 Y123.285 E8.79998
G1 X98.638 Y123.245 E8.80325
G1 X98.490 Y123.285 E8.80653
G1 X97.563 Y123.285 E8.82643
G1 X97.231 Y123.162 E8.83401
G1 X96.925 Y122.859 E8.84326
G1 X96.795 Y122.520 E8.85103
G1 X96.795 Y108.996 E9.14110
G1 X96.887 Y108.774 E9.14626
G1 X97.156 Y108.505 E9.15440
G1 X97.322 Y108.427 E9.15834
G1 X99.052 Y108.398 E9.19546
G1 X99.052 Y99.817 E9.37951
G1 X99.145 Y99.536 E9.38586
G1 X99.432 Y99.214 E9.39511
G1 X99.764 Y99.064 E9.40293
G1 X100.334 Y99.053 E9.41517
G1 X100.481 Y99.092 E9.41841
G1 X100.628 Y99.052 E9.42169
G1 X101.391 Y99.052 E9.43804
G1 X101.401 Y97.405 E9.47338
G1 X101.549 Y97.096 E9.48071
G1 X101.770 Y96.874 E9.48744
G1 X102.078 Y96.728 E9.49475
G1 X102.787 Y96.715 E9.50997
G1 X102.938 Y96.755 E9.51330
G1 X103.085 Y96.715 E9.51657
G1 X104.018 Y96.715 E9.53658
G1 X104.165 Y96.755 E9.53986
G1 X104.313 Y96.715 E9.54313
G1 X105.246 Y96.715 E9.56315
G1 X105.394 Y96.755 E9.56642
G1 X105.541 Y96.715 E9.56970
G1 X106.370 Y96.715 E9.58746
G1 X106.071 Y96.367 E9.59730
G1 X106.008 Y96.189 E9.60135
G1 X106.020 Y95.067 E9.62542
G1 X106.167 Y94.759 E9.63274
G1 X106.389 Y94.537 E9.63946
G1 X106.696 Y94.390 E9.64677
G1 X107.746 Y94.386 E9.66929
G1 X107.846 Y94.419 E9.67154
G1 X107.998 Y94.378 E9.67492
G1 X108.931 Y94.378 E9.69494
G1 X109.079 Y94.418 E9.69821
G1 X109.226 Y94.378 E9.70149
G1 X110.159 Y94.378 E9.72150
G1 X110.307 Y94.418 E9.72478
G1 X110.455 Y94.378 E9.72806
G1 X111.388 Y94.378 E9.74807
G1 X111.535 Y94.418 E9.75134
G1 X111.683 Y94.378 E9.75462
G1 X112.616 Y94.378 E9.77463
G1 X112.764 Y94.418 E9.77791
G1 X112.911 Y94.378 E9.78119
G1 X113.844 Y94.378 E9.80120
G1 X113.992 Y94.418 E9.80448
G1 X114.140 Y94.378 E9.80775
G1 X115.073 Y94.378 E9.82776
G1 X115.220 Y94.418 E9.83104
G1 X115.368 Y94.378 E9.83432
G1 X116.301 Y94.378 E9.85433
G1 X116.449 Y94.418 E9.85761
G1 X116.596 Y94.378 E9.86088
G1 X117.529 Y94.378 E9.88090
G1 X117.677 Y94.418 E9.88417
G1 X117.825 Y94.378 E9.88745
G1 X118.758 Y94.378 E9.90746
G1 X118.905 Y94.418 E9.91074
G1 X119.053 Y94.378 E9.91401
G1 X119.983 Y94.378 E9.93397
G1 X120.320 Y94.507 E9.94171
G1 X120.616 Y94.799 E9.95062
G1 X120.736 Y95.082 E9.95722
G1 X120.748 Y108.347 E10.24171
G1 X120.441 Y108.718 F18000.000
G1 F900.000
G1 X121.183 Y108.708 E10.25764
G1 X121.362 Y108.766 E10.26167
G1 X121.538 Y108.708 E10.26564
G1 X122.462 Y108.719 E10.28547
G1 X122.627 Y108.797 E10.28937
G1 X122.806 Y108.976 E10.29479
G1 X122.897 Y109.198 E10.29995
G1 X122.897 Y122.659 E10.58867
G1 X122.874 Y122.716 E10.58998
G1 X122.651 Y122.939 E10.59675
G1 X122.596 Y122.962 E10.59803
G1 X121.897 Y122.952 E10.61302
G1 X121.803 Y122.977 E10.61511
G1 X120.925 Y122.977 E10.63395
G1 X120.748 Y122.919 E10.63795
G1 X120.571 Y122.977 E10.64194
G1 X119.696 Y122.977 E10.66070
G1 X119.519 Y122.919 E10.66469
G1 X119.343 Y122.977 E10.66869
G1 X118.468 Y122.977 E10.68745
G1 X118.291 Y122.919 E10.69144
G1 X118.114 Y122.977 E10.69544
G1 X117.240 Y122.977 E10.71420
G1 X117.063 Y122.919 E10.71819
G1 X116.886 Y122.977 E10.72218
G1 X116.011 Y122.977 E10.74095
G1 X115.835 Y122.919 E10.74494
G1 X115.658 Y122.977 E10.74893
G1 X114.783 Y122.977 E10.76769
G1 X114.606 Y122.919 E10.77169
G1 X114.429 Y122.977 E10.77568
G1 X113.555 Y122.977 E10.79444
G1 X113.378 Y122.919 E10.79844
G1 X113.201 Y122.977 E10.80243
G1 X112.326 Y122.977 E10.82119
G1 X112.150 Y122.919 E10.82518
G1 X111.973 Y122.977 E10.82918
