; generated by PrusaSlicer 2.3.0+win64 on 2021-02-28 at 06:40:44 UTC

; 

; external perimeters extrusion width = 0.45mm
; perimeters extrusion width = 0.45mm
; infill extrusion width = 0.45mm
; solid infill extrusion width = 0.45mm
; top infill extrusion width = 0.40mm
; support material extrusion width = 0.38mm
; first layer extrusion width = 0.30mm

M73 P0 R97
M73 Q0 S97
M201 X500 Y500 Z100 E5000 ; sets maximum accelerations, mm/sec^2
M203 X500 Y500 Z10 E60 ; sets maximum feedrates, mm/sec
M204 P500 R1000 T500 ; sets acceleration (P, T) and retract acceleration (R), mm/sec^2
M205 X8.00 Y8.00 Z0.40 E5.00 ; sets the jerk limits, mm/sec
M205 S0 T0 ; sets the minimum extruding and travel feed rate, mm/sec
M107
;TYPE:Custom
G90 ; use absolute coordinates
M83 ; extruder relative mode
M104 S215 ; set extruder temp
M140 S60 ; set bed temp
M190 S60 ; wait for bed temp
M109 S215 ; wait for extruder temp
M204 S600 ;acceleration
M220 S100 ;Reset Feedrate
M221 S100 ;Reset Flowrate
G28 ; home all
G29
G1 Z2 F240
G1 X2 Y10 F3000
G1 Z0.28 F240
G92 E0.0
G1 Y190 E15.0 F1500.0 ; intro line
G1 X2.3 F5000
G1 Y10 E30 F1200.0 ; intro line
G92 E0.0
G21 ; set units to millimeters
G90 ; use absolute coordinates
M82 ; use absolute distances for extrusion
G92 E0
; Filament gcode
;LAYER_CHANGE
;Z:0.2
;HEIGHT:0.2
;BEFORE_LAYER_CHANGE
M117 INDICATOR-Layer1
;0.2


G1 E-0.50000 F3600.000
G92 E0
G1 Z0.200 F18000.000
;AFTER_LAYER_CHANGE
;0.2
G1 X164.412 Y38.094
G1 E0.58000 F2400.000
;TYPE:Support material
;WIDTH:0.3
G1 F900.000
G1 X164.412 Y22.550 E0.85246
G1 X164.927 Y22.550 E0.86147
G1 X164.927 Y37.978 E1.13191
G1 X165.441 Y37.978 E1.14092
G1 X165.441 Y22.550 E1.41135
G1 X165.955 Y22.550 E1.42036
G1 X165.955 Y37.978 E1.69080
G1 X166.469 Y37.978 E1.69981
G1 X166.469 Y22.550 E1.97024
G1 X166.983 Y22.550 E1.97926
G1 X166.983 Y37.978 E2.24969
G1 X167.497 Y37.978 E2.25870
G1 X167.497 Y22.550 E2.52913
G1 X168.012 Y22.550 E2.53815
G1 X168.012 Y37.978 E2.80858
G1 X168.526 Y37.978 E2.81759
G1 X168.526 Y22.550 E3.08803
G1 X169.040 Y22.550 E3.09704
G1 X169.040 Y37.978 E3.36747
G1 X169.554 Y37.978 E3.37648
G1 X169.554 Y22.550 E3.64692
G1 X170.068 Y22.550 E3.65593
G1 X170.068 Y37.978 E3.92636
G1 X170.582 Y37.978 E3.93537
G1 X170.582 Y22.550 E4.20581
G1 X171.097 Y22.550 E4.21482
G1 X171.097 Y37.978 E4.48525
G1 X171.611 Y37.978 E4.49427
G1 X171.611 Y22.550 E4.76470
G1 X172.125 Y22.550 E4.77371
G1 X172.125 Y37.978 E5.04414
G1 X172.639 Y37.978 E5.05316
G1 X172.639 Y22.550 E5.32359
G1 X173.153 Y22.550 E5.33260
G1 X173.153 Y37.978 E5.60304
G1 X173.667 Y37.978 E5.61205
G1 X173.667 Y22.550 E5.88248
G1 X174.181 Y22.550 E5.89149
G1 X174.181 Y37.978 E6.16193
G1 X174.696 Y37.978 E6.17094
G1 X174.696 Y22.550 E6.44137
G1 X175.210 Y22.550 E6.45038
G1 X175.210 Y37.978 E6.72082
G1 X175.724 Y37.978 E6.72983
G1 X175.724 Y22.550 E7.00026
G1 X176.238 Y22.550 E7.00928
G1 X176.238 Y37.978 E7.27971
G1 X176.752 Y37.978 E7.28872
G1 X176.752 Y22.550 E7.55915
G1 X177.266 Y22.550 E7.56817
G1 X177.266 Y37.978 E7.83860
G1 X177.781 Y37.978 E7.84761
G1 X177.781 Y22.550 E8.11805
G1 X178.295 Y22.550 E8.12706
G1 X178.295 Y38.094 E8.39952
G1 E8.04952 F3600.000
;WIPE_START
G1 F14400.000
G1 X178.295 Y37.494 E7.90702
;WIPE_END
G1 E7.89952 F3600.000
G92 E0
G1 X164.412 Y62.165 F18000.000
M73 P0 R96
M73 Q0 S96
G1 E0.58000 F2400.000
G1 F900.000
G1 X164.412 Y75.371 E0.81150
G1 X164.927 Y75.371 E0.82051
G1 X164.927 Y62.280 E1.04998
G1 X165.441 Y62.280 E1.05899
G1 X165.441 Y75.371 E1.28846
G1 X165.955 Y75.371 E1.29747
G1 X165.955 Y62.280 E1.52694
G1 X166.469 Y62.280 E1.53595
G1 X166.469 Y75.371 E1.76542
G1 X166.983 Y75.371 E1.77443
G1 X166.983 Y62.280 E2.00390
G1 X167.497 Y62.280 E2.01291
G1 X167.497 Y75.371 E2.24238
G1 X168.012 Y75.371 E2.25139
G1 X168.012 Y62.280 E2.48086
G1 X168.526 Y62.280 E2.48987
G1 X168.526 Y75.371 E2.71934
G1 X169.040 Y75.371 E2.72835
G1 X169.040 Y62.280 E2.95782
M73 P1 R96
M73 Q1 S96
G1 X169.554 Y62.280 E2.96683
G1 X169.554 Y75.371 E3.19630
G1 X170.068 Y75.371 E3.20531
G1 X170.068 Y62.280 E3.43478
G1 X170.582 Y62.280 E3.44379
G1 X170.582 Y75.371 E3.67326
G1 X171.097 Y75.371 E3.68227
G1 X171.097 Y62.280 E3.91174
G1 X171.611 Y62.280 E3.92075
G1 X171.611 Y75.371 E4.15022
G1 X172.125 Y75.371 E4.15923
G1 X172.125 Y62.280 E4.38870
G1 X172.639 Y62.280 E4.39771
G1 X172.639 Y75.371 E4.62718
G1 X173.153 Y75.371 E4.63619
G1 X173.153 Y62.280 E4.86566
G1 X173.667 Y62.280 E4.87467
G1 X173.667 Y75.371 E5.10414
G1 X174.181 Y75.371 E5.11315
G1 X174.181 Y62.280 E5.34262
G1 X174.696 Y62.280 E5.35163
G1 X174.696 Y75.371 E5.58110
G1 X175.210 Y75.371 E5.59011
G1 X175.210 Y62.280 E5.81958
G1 X175.724 Y62.280 E5.82859
G1 X175.724 Y75.371 E6.05806
G1 X176.238 Y75.371 E6.06707
G1 X176.238 Y62.280 E6.29654
G1 X176.752 Y62.280 E6.30555
G1 X176.752 Y75.371 E6.53502
G1 X177.266 Y75.371 E6.54403
G1 X177.266 Y62.280 E6.77350
G1 X177.781 Y62.280 E6.78251
G1 X177.781 Y75.371 E7.01198
G1 X178.295 Y75.371 E7.02099
G1 X178.295 Y62.280 E7.25046
G1 X178.604 Y62.280 E7.25587
G1 X178.604 Y71.789 E7.42254
G1 X178.809 Y71.994 E7.42762
G1 X178.809 Y75.371 E7.48683
G1 X179.323 Y75.371 E7.49584
G1 X179.323 Y72.022 E7.55455
G1 X179.837 Y72.022 E7.56356
G1 X179.837 Y75.371 E7.62227
G1 X180.351 Y75.371 E7.63128
G1 X180.351 Y72.022 E7.68999
G1 X180.866 Y72.022 E7.69900
G1 X180.866 Y75.371 E7.75771
G1 X181.380 Y75.371 E7.76672
G1 X181.380 Y72.022 E7.82543
G1 X181.894 Y72.022 E7.83444
G1 X181.894 Y75.371 E7.89315
G1 X182.408 Y75.371 E7.90216
G1 X182.408 Y72.022 E7.96087
G1 X182.922 Y72.022 E7.96988
G1 X182.922 Y75.371 E8.02859
G1 X183.436 Y75.371 E8.03760
G1 X183.436 Y72.022 E8.09631
G1 X183.951 Y72.022 E8.10532
G1 X183.951 Y75.487 E8.16606
G1 E7.81606 F3600.000
;WIPE_START
G1 F14400.000
G1 X183.951 Y74.887 E7.67356
;WIPE_END
G1 E7.66606 F3600.000
G92 E0
G1 X185.002 Y49.151 F18000.000
G1 E0.58000 F2400.000
;TYPE:Perimeter
G1 F540.000
G1 X184.440 Y49.087 E0.58992
G1 X183.906 Y48.900 E0.59984
G1 X183.427 Y48.599 E0.60976
G1 X183.027 Y48.199 E0.61968
G1 X182.726 Y47.720 E0.62960
G1 X182.539 Y47.186 E0.63951
G1 X182.475 Y46.624 E0.64943
G1 X182.539 Y46.061 E0.65935
G1 X182.726 Y45.527 E0.66927
G1 X183.027 Y45.048 E0.67919
G1 X183.427 Y44.648 E0.68911
G1 X183.906 Y44.347 E0.69903
G1 X184.440 Y44.160 E0.70895
G1 X185.002 Y44.096 E0.71887
G1 X185.565 Y44.160 E0.72879
G1 X186.099 Y44.347 E0.73871
G1 X186.578 Y44.648 E0.74862
G1 X186.978 Y45.048 E0.75854
G1 X187.279 Y45.527 E0.76846
G1 X187.466 Y46.061 E0.77838
G1 X187.530 Y46.624 E0.78830
G1 X187.466 Y47.186 E0.79822
G1 X187.279 Y47.720 E0.80814
G1 X186.978 Y48.199 E0.81806
G1 X186.578 Y48.599 E0.82798
G1 X186.099 Y48.900 E0.83790
G1 X185.565 Y49.087 E0.84782
G1 X185.062 Y49.144 E0.85668
G1 X185.033 Y48.888 F18000.000
G1 F540.000
G1 X184.498 Y48.835 E0.86612
G1 X184.018 Y48.667 E0.87502
G1 X183.588 Y48.397 E0.88393
G1 X183.229 Y48.038 E0.89283
G1 X182.959 Y47.608 E0.90173
G1 X182.791 Y47.128 E0.91064
G1 X182.734 Y46.624 E0.91954
G1 X182.791 Y46.119 E0.92844
G1 X182.959 Y45.639 E0.93735
G1 X183.229 Y45.209 E0.94625
G1 X183.588 Y44.850 E0.95515
G1 X184.018 Y44.580 E0.96406
G1 X184.498 Y44.412 E0.97296
G1 X185.002 Y44.355 E0.98187
G1 X185.507 Y44.412 E0.99077
G1 X185.987 Y44.580 E0.99967
G1 X186.417 Y44.850 E1.00858
G1 X186.776 Y45.209 E1.01748
G1 X187.046 Y45.639 E1.02638
G1 X187.214 Y46.119 E1.03529
G1 X187.271 Y46.624 E1.04419
G1 X187.214 Y47.128 E1.05309
G1 X187.046 Y47.608 E1.06200
G1 X186.776 Y48.038 E1.07090
G1 X186.417 Y48.397 E1.07981
G1 X185.987 Y48.667 E1.08871
G1 X185.507 Y48.835 E1.09761
G1 X185.093 Y48.882 E1.10492
G1 X185.002 Y48.633 F18000.000
G1 F540.000
G1 X184.555 Y48.583 E1.11281
G1 X184.131 Y48.434 E1.12070
G1 X183.749 Y48.195 E1.12859
G1 X183.431 Y47.877 E1.13647
G1 X183.192 Y47.495 E1.14436
G1 X183.043 Y47.071 E1.15225
G1 X182.993 Y46.624 E1.16014
G1 X183.043 Y46.176 E1.16803
G1 X183.192 Y45.752 E1.17591
G1 X183.431 Y45.371 E1.18380
G1 X183.749 Y45.052 E1.19169
G1 X184.131 Y44.813 E1.19958
G1 X184.555 Y44.664 E1.20747
G1 X185.002 Y44.614 E1.21536
G1 X185.450 Y44.664 E1.22324
G1 X185.874 Y44.813 E1.23113
G1 X186.255 Y45.052 E1.23902
G1 X186.574 Y45.371 E1.24691
G1 X186.813 Y45.752 E1.25480
G1 X186.962 Y46.176 E1.26268
G1 X187.012 Y46.624 E1.27057
G1 X186.962 Y47.071 E1.27846
G1 X186.813 Y47.495 E1.28635
G1 X186.574 Y47.877 E1.29424
G1 X186.255 Y48.195 E1.30213
G1 X185.874 Y48.434 E1.31001
G1 X185.450 Y48.583 E1.31790
G1 X185.062 Y48.626 E1.32474
G1 X185.002 Y48.374 F18000.000
;TYPE:External perimeter
G1 F540.000
G1 X184.613 Y48.331 E1.33161
G1 X184.243 Y48.201 E1.33848
G1 X183.911 Y47.992 E1.34536
G1 X183.634 Y47.715 E1.35223
G1 X183.425 Y47.383 E1.35910
G1 X183.295 Y47.013 E1.36597
G1 X183.252 Y46.624 E1.37285
G1 X183.295 Y46.234 E1.37972
G1 X183.425 Y45.864 E1.38659
G1 X183.634 Y45.532 E1.39347
G1 X183.911 Y45.255 E1.40034
G1 X184.243 Y45.046 E1.40721
G1 X184.613 Y44.916 E1.41408
G1 X185.002 Y44.873 E1.42096
G1 X185.392 Y44.916 E1.42783
G1 X185.762 Y45.046 E1.43470
G1 X186.094 Y45.255 E1.44157
G1 X186.371 Y45.532 E1.44845
G1 X186.580 Y45.864 E1.45532
G1 X186.710 Y46.234 E1.46219
G1 X186.753 Y46.624 E1.46907
G1 X186.710 Y47.013 E1.47594
G1 X186.580 Y47.383 E1.48281
G1 X186.371 Y47.715 E1.48968
G1 X186.094 Y47.992 E1.49656
G1 X185.762 Y48.201 E1.50343
G1 X185.392 Y48.331 E1.51030
G1 X185.062 Y48.368 E1.51612
G1 X184.806 Y48.714 F18000.000
G1 E1.16612 F3600.000
;WIPE_START
G1 F14400.000
G1 X184.613 Y48.331 E1.05906
G1 X184.472 Y48.281 E1.02362
;WIPE_END
G1 E1.01612 F3600.000
G92 E0
G1 X196.906 Y29.900 F18000.000
G1 E0.58000 F2400.000
;TYPE:Perimeter
G1 F540.000
G1 X196.427 Y29.599 E0.58992
G1 X196.027 Y29.199 E0.59984
G1 X195.726 Y28.720 E0.60976
G1 X195.539 Y28.186 E0.61968
G1 X195.475 Y27.624 E0.62960
G1 X195.539 Y27.061 E0.63951
G1 X195.726 Y26.527 E0.64943
G1 X196.027 Y26.048 E0.65935
G1 X196.427 Y25.648 E0.66927
G1 X196.906 Y25.347 E0.67919
G1 X197.440 Y25.160 E0.68911
G1 X198.002 Y25.096 E0.69903
G1 X198.565 Y25.160 E0.70895
G1 X199.099 Y25.347 E0.71887
G1 X199.578 Y25.648 E0.72879
G1 X199.978 Y26.048 E0.73871
G1 X200.279 Y26.527 E0.74862
G1 X200.466 Y27.061 E0.75854
G1 X200.530 Y27.624 E0.76846
G1 X200.466 Y28.186 E0.77838
G1 X200.279 Y28.720 E0.78830
G1 X199.978 Y29.199 E0.79822
G1 X199.578 Y29.599 E0.80814
G1 X199.099 Y29.900 E0.81806
G1 X198.565 Y30.087 E0.82798
G1 X198.002 Y30.151 E0.83790
G1 X197.440 Y30.087 E0.84782
G1 X196.963 Y29.920 E0.85668
G1 X197.048 Y29.677 F18000.000
G1 F540.000
G1 X196.588 Y29.397 E0.86612
G1 X196.229 Y29.038 E0.87502
G1 X195.959 Y28.608 E0.88393
G1 X195.791 Y28.128 E0.89283
G1 X195.734 Y27.624 E0.90173
G1 X195.791 Y27.119 E0.91064
G1 X195.959 Y26.639 E0.91954
G1 X196.229 Y26.209 E0.92844
G1 X196.588 Y25.850 E0.93735
G1 X197.018 Y25.580 E0.94625
G1 X197.498 Y25.412 E0.95515
G1 X198.002 Y25.355 E0.96406
G1 X198.507 Y25.412 E0.97296
G1 X198.987 Y25.580 E0.98187
G1 X199.417 Y25.850 E0.99077
G1 X199.776 Y26.209 E0.99967
G1 X200.046 Y26.639 E1.00858
G1 X200.214 Y27.119 E1.01748
G1 X200.271 Y27.624 E1.02638
G1 X200.214 Y28.128 E1.03529
G1 X200.046 Y28.608 E1.04419
G1 X199.776 Y29.038 E1.05309
G1 X199.417 Y29.397 E1.06200
G1 X198.987 Y29.667 E1.07090
G1 X198.507 Y29.835 E1.07981
G1 X198.002 Y29.892 E1.08871
G1 X197.498 Y29.835 E1.09761
G1 X197.104 Y29.697 E1.10492
G1 X197.131 Y29.434 F18000.000
G1 F540.000
G1 X196.749 Y29.195 E1.11281
G1 X196.431 Y28.877 E1.12070
G1 X196.192 Y28.495 E1.12859
G1 X196.043 Y28.071 E1.13647
G1 X195.993 Y27.624 E1.14436
G1 X196.043 Y27.176 E1.15225
G1 X196.192 Y26.752 E1.16014
G1 X196.431 Y26.371 E1.16803
G1 X196.749 Y26.052 E1.17591
G1 X197.131 Y25.813 E1.18380
G1 X197.555 Y25.664 E1.19169
G1 X198.002 Y25.614 E1.19958
G1 X198.450 Y25.664 E1.20747
G1 X198.874 Y25.813 E1.21536
G1 X199.255 Y26.052 E1.22324
G1 X199.574 Y26.371 E1.23113
G1 X199.813 Y26.752 E1.23902
G1 X199.962 Y27.176 E1.24691
G1 X200.012 Y27.624 E1.25480
G1 X199.962 Y28.071 E1.26268
G1 X199.813 Y28.495 E1.27057
G1 X199.574 Y28.877 E1.27846
G1 X199.255 Y29.195 E1.28635
G1 X198.874 Y29.434 E1.29424
G1 X198.450 Y29.583 E1.30213
G1 X198.002 Y29.633 E1.31001
G1 X197.555 Y29.583 E1.31790
G1 X197.187 Y29.454 E1.32474
G1 X197.243 Y29.201 F18000.000
;TYPE:External perimeter
G1 F540.000
G1 X196.911 Y28.992 E1.33161
G1 X196.634 Y28.715 E1.33848
G1 X196.425 Y28.383 E1.34536
G1 X196.295 Y28.013 E1.35223
G1 X196.252 Y27.624 E1.35910
G1 X196.295 Y27.234 E1.36597
G1 X196.425 Y26.864 E1.37285
G1 X196.634 Y26.532 E1.37972
G1 X196.911 Y26.255 E1.38659
G1 X197.243 Y26.046 E1.39347
G1 X197.613 Y25.916 E1.40034
G1 X198.002 Y25.873 E1.40721
G1 X198.392 Y25.916 E1.41408
G1 X198.762 Y26.046 E1.42096
G1 X199.094 Y26.255 E1.42783
G1 X199.371 Y26.532 E1.43470
G1 X199.580 Y26.864 E1.44157
G1 X199.710 Y27.234 E1.44845
G1 X199.753 Y27.624 E1.45532
G1 X199.710 Y28.013 E1.46219
G1 X199.580 Y28.383 E1.46907
G1 X199.371 Y28.715 E1.47594
G1 X199.094 Y28.992 E1.48281
G1 X198.762 Y29.201 E1.48968
G1 X198.392 Y29.331 E1.49656
G1 X198.002 Y29.374 E1.50343
G1 X197.613 Y29.331 E1.51030
G1 X197.299 Y29.221 E1.51612
G1 X196.919 Y29.422 F18000.000
G1 E1.16612 F3600.000
;WIPE_START
G1 F14400.000
G1 X196.911 Y28.992 E1.05906
G1 X196.805 Y28.887 E1.02362
;WIPE_END
G1 E1.01612 F3600.000
G92 E0
G1 X198.002 Y63.096 F18000.000
G1 E0.58000 F2400.000
;TYPE:Perimeter
G1 F540.000
G1 X198.565 Y63.160 E0.58992
G1 X199.099 Y63.347 E0.59984
G1 X199.578 Y63.648 E0.60976
G1 X199.978 Y64.048 E0.61968
G1 X200.279 Y64.527 E0.62960
G1 X200.466 Y65.061 E0.63951
G1 X200.530 Y65.624 E0.64943
G1 X200.466 Y66.186 E0.65935
G1 X200.279 Y66.720 E0.66927
G1 X199.978 Y67.199 E0.67919
G1 X199.578 Y67.599 E0.68911
G1 X199.099 Y67.900 E0.69903
G1 X198.565 Y68.087 E0.70895
G1 X198.002 Y68.151 E0.71887
G1 X197.440 Y68.087 E0.72879
G1 X196.906 Y67.900 E0.73871
G1 X196.427 Y67.599 E0.74862
G1 X196.027 Y67.199 E0.75854
G1 X195.726 Y66.720 E0.76846
G1 X195.539 Y66.186 E0.77838
G1 X195.475 Y65.624 E0.78830
G1 X195.539 Y65.061 E0.79822
G1 X195.726 Y64.527 E0.80814
G1 X196.027 Y64.048 E0.81806
G1 X196.427 Y63.648 E0.82798
G1 X196.906 Y63.347 E0.83790
G1 X197.440 Y63.160 E0.84782
G1 X197.943 Y63.103 E0.85668
G1 X197.972 Y63.359 F18000.000
G1 F540.000
G1 X198.507 Y63.412 E0.86612
G1 X198.987 Y63.580 E0.87502
G1 X199.417 Y63.850 E0.88393
G1 X199.776 Y64.209 E0.89283
G1 X200.046 Y64.639 E0.90173
G1 X200.214 Y65.119 E0.91064
G1 X200.271 Y65.624 E0.91954
G1 X200.214 Y66.128 E0.92844
G1 X200.046 Y66.608 E0.93735
G1 X199.776 Y67.038 E0.94625
G1 X199.417 Y67.397 E0.95515
G1 X198.987 Y67.667 E0.96406
G1 X198.507 Y67.835 E0.97296
G1 X198.002 Y67.892 E0.98187
G1 X197.498 Y67.835 E0.99077
G1 X197.018 Y67.667 E0.99967
G1 X196.588 Y67.397 E1.00858
G1 X196.229 Y67.038 E1.01748
G1 X195.959 Y66.608 E1.02638
G1 X195.791 Y66.128 E1.03529
G1 X195.734 Y65.624 E1.04419
G1 X195.791 Y65.119 E1.05309
G1 X195.959 Y64.639 E1.06200
G1 X196.229 Y64.209 E1.07090
G1 X196.588 Y63.850 E1.07981
G1 X197.018 Y63.580 E1.08871
G1 X197.498 Y63.412 E1.09761
G1 X197.912 Y63.365 E1.10492
G1 X198.002 Y63.614 F18000.000
G1 F540.000
G1 X198.450 Y63.664 E1.11281
G1 X198.874 Y63.813 E1.12070
G1 X199.255 Y64.052 E1.12859
G1 X199.574 Y64.371 E1.13647
G1 X199.813 Y64.752 E1.14436
G1 X199.962 Y65.176 E1.15225
G1 X200.012 Y65.624 E1.16014
G1 X199.962 Y66.071 E1.16803
G1 X199.813 Y66.495 E1.17591
G1 X199.574 Y66.877 E1.18380
G1 X199.255 Y67.195 E1.19169
G1 X198.874 Y67.434 E1.19958
G1 X198.450 Y67.583 E1.20747
G1 X198.002 Y67.633 E1.21536
G1 X197.555 Y67.583 E1.22324
G1 X197.131 Y67.434 E1.23113
G1 X196.749 Y67.195 E1.23902
G1 X196.431 Y66.877 E1.24691
G1 X196.192 Y66.495 E1.25480
G1 X196.043 Y66.071 E1.26268
G1 X195.993 Y65.624 E1.27057
G1 X196.043 Y65.176 E1.27846
G1 X196.192 Y64.752 E1.28635
G1 X196.431 Y64.371 E1.29424
G1 X196.749 Y64.052 E1.30213
G1 X197.131 Y63.813 E1.31001
G1 X197.555 Y63.664 E1.31790
G1 X197.943 Y63.621 E1.32474
G1 X198.002 Y63.873 F18000.000
;TYPE:External perimeter
G1 F540.000
G1 X198.392 Y63.916 E1.33161
G1 X198.762 Y64.046 E1.33848
G1 X199.094 Y64.255 E1.34536
G1 X199.371 Y64.532 E1.35223
G1 X199.580 Y64.864 E1.35910
G1 X199.710 Y65.234 E1.36597
G1 X199.753 Y65.624 E1.37285
G1 X199.710 Y66.013 E1.37972
G1 X199.580 Y66.383 E1.38659
