; generated by PrusaSlicer 2.3.0+win64 on 2021-02-27 at 11:20:50 UTC

; 

; external perimeters extrusion width = 0.45mm
; perimeters extrusion width = 0.45mm
; infill extrusion width = 0.45mm
; solid infill extrusion width = 0.45mm
; top infill extrusion width = 0.40mm
; support material extrusion width = 0.38mm
; first layer extrusion width = 0.30mm

M73 P0 R106
M73 Q0 S106
M201 X500 Y500 Z100 E5000 ; sets maximum accelerations, mm/sec^2
M203 X500 Y500 Z10 E60 ; sets maximum feedrates, mm/sec
M204 P500 R1000 T500 ; sets acceleration (P, T) and retract acceleration (R), mm/sec^2
M205 X8.00 Y8.00 Z0.40 E5.00 ; sets the jerk limits, mm/sec
M205 S0 T0 ; sets the minimum extruding and travel feed rate, mm/sec
M107
;TYPE:Custom
G90 ; use absolute coordinates
M83 ; extruder relative mode
M104 S215 ; set extruder temp
M140 S60 ; set bed temp
M190 S60 ; wait for bed temp
M109 S215 ; wait for extruder temp
M204 S500 ;acceleration
M220 S100 ;Reset Feedrate
M221 S100 ;Reset Flowrate
G28 ; home all
G29
G1 Z2 F240
G1 X2 Y10 F3000
G1 Z0.28 F240
G92 E0.0
G1 Y190 E15.0 F1500.0 ; intro line
M73 P0 R105
M73 Q0 S105
G1 X2.3 F5000
G1 Y10 E30 F1200.0 ; intro line
G92 E0.0
G21 ; set units to millimeters
G90 ; use absolute coordinates
M82 ; use absolute distances for extrusion
G92 E0
; Filament gcode
;LAYER_CHANGE
;Z:0.2
;HEIGHT:0.2
;BEFORE_LAYER_CHANGE
M117 INDICATOR-Layer1
;0.2


G1 E-0.50000 F3600.000
G92 E0
G1 Z0.200 F18000.000
;AFTER_LAYER_CHANGE
;0.2
G1 X135.712 Y101.470
G1 E0.60000 F2400.000
;TYPE:Support material
;WIDTH:0.3
G1 F900.000
G1 X135.712 Y85.926 E0.87246
G1 X136.227 Y85.926 E0.88147
G1 X136.227 Y101.355 E1.15191
G1 X136.741 Y101.355 E1.16092
G1 X136.741 Y85.926 E1.43135
G1 X137.255 Y85.926 E1.44036
G1 X137.255 Y101.355 E1.71080
G1 X137.769 Y101.355 E1.71981
G1 X137.769 Y85.926 E1.99024
G1 X138.283 Y85.926 E1.99926
G1 X138.283 Y101.355 E2.26969
G1 X138.797 Y101.355 E2.27870
G1 X138.797 Y85.926 E2.54913
G1 X139.311 Y85.926 E2.55815
G1 X139.311 Y101.355 E2.82858
G1 X139.826 Y101.355 E2.83759
G1 X139.826 Y85.926 E3.10803
G1 X140.340 Y85.926 E3.11704
G1 X140.340 Y101.355 E3.38747
G1 X140.854 Y101.355 E3.39648
G1 X140.854 Y85.926 E3.66692
G1 X141.368 Y85.926 E3.67593
G1 X141.368 Y101.355 E3.94636
G1 X141.882 Y101.355 E3.95537
G1 X141.882 Y85.926 E4.22581
G1 X142.396 Y85.926 E4.23482
G1 X142.396 Y101.355 E4.50525
G1 X142.911 Y101.355 E4.51427
G1 X142.911 Y85.926 E4.78470
G1 X143.425 Y85.926 E4.79371
G1 X143.425 Y101.355 E5.06414
G1 X143.939 Y101.355 E5.07316
G1 X143.939 Y85.926 E5.34359
G1 X144.453 Y85.926 E5.35260
G1 X144.453 Y101.355 E5.62304
G1 X144.967 Y101.355 E5.63205
G1 X144.967 Y85.926 E5.90248
G1 X145.481 Y85.926 E5.91149
G1 X145.481 Y101.355 E6.18193
G1 X145.996 Y101.355 E6.19094
G1 X145.996 Y85.926 E6.46137
G1 X146.510 Y85.926 E6.47038
G1 X146.510 Y101.355 E6.74082
G1 X147.024 Y101.355 E6.74983
G1 X147.024 Y85.926 E7.02026
G1 X147.538 Y85.926 E7.02928
G1 X147.538 Y101.355 E7.29971
G1 X148.052 Y101.355 E7.30872
G1 X148.052 Y85.926 E7.57915
G1 X148.566 Y85.926 E7.58817
G1 X148.566 Y101.355 E7.85860
G1 X149.081 Y101.355 E7.86761
G1 X149.081 Y85.926 E8.13805
G1 X149.595 Y85.926 E8.14706
G1 X149.595 Y101.470 E8.41952
G1 E8.06952 F3600.000
;WIPE_START
G1 F14400.000
G1 X149.595 Y100.870 E7.92702
;WIPE_END
G1 E7.91952 F3600.000
G92 E0
G1 X149.595 Y138.863 F18000.000
G1 E0.60000 F2400.000
G1 F900.000
G1 X149.595 Y125.657 E0.83150
G1 X149.081 Y125.657 E0.84051
G1 X149.081 Y138.748 E1.06998
G1 X148.566 Y138.748 E1.07899
G1 X148.566 Y125.657 E1.30846
G1 X148.052 Y125.657 E1.31747
G1 X148.052 Y138.748 E1.54694
G1 X147.538 Y138.748 E1.55595
G1 X147.538 Y125.657 E1.78542
G1 X147.024 Y125.657 E1.79443
G1 X147.024 Y138.748 E2.02390
G1 X146.510 Y138.748 E2.03291
G1 X146.510 Y125.657 E2.26238
G1 X145.996 Y125.657 E2.27139
G1 X145.996 Y138.748 E2.50086
G1 X145.481 Y138.748 E2.50987
G1 X145.481 Y125.657 E2.73934
G1 X144.967 Y125.657 E2.74835
G1 X144.967 Y138.748 E2.97782
G1 X144.453 Y138.748 E2.98683
G1 X144.453 Y125.657 E3.21630
G1 X143.939 Y125.657 E3.22531
G1 X143.939 Y138.748 E3.45478
G1 X143.425 Y138.748 E3.46379
G1 X143.425 Y125.657 E3.69326
G1 X142.911 Y125.657 E3.70227
G1 X142.911 Y138.748 E3.93174
G1 X142.396 Y138.748 E3.94075
G1 X142.396 Y125.657 E4.17022
G1 X141.882 Y125.657 E4.17923
G1 X141.882 Y138.748 E4.40870
M73 P1 R104
M73 Q1 S104
G1 X141.368 Y138.748 E4.41771
G1 X141.368 Y125.657 E4.64718
G1 X140.854 Y125.657 E4.65619
G1 X140.854 Y138.748 E4.88566
G1 X140.340 Y138.748 E4.89467
G1 X140.340 Y125.657 E5.12414
G1 X139.826 Y125.657 E5.13315
G1 X139.826 Y138.748 E5.36262
G1 X139.311 Y138.748 E5.37163
G1 X139.311 Y125.657 E5.60110
G1 X138.797 Y125.657 E5.61011
G1 X138.797 Y138.748 E5.83958
G1 X138.283 Y138.748 E5.84859
G1 X138.283 Y125.657 E6.07806
G1 X137.769 Y125.657 E6.08707
G1 X137.769 Y138.748 E6.31654
G1 X137.255 Y138.748 E6.32555
G1 X137.255 Y125.657 E6.55502
G1 X136.741 Y125.657 E6.56403
G1 X136.741 Y138.748 E6.79350
G1 X136.227 Y138.748 E6.80251
G1 X136.227 Y125.657 E7.03198
G1 X135.712 Y125.657 E7.04099
G1 X135.712 Y138.748 E7.27046
G1 X135.198 Y138.748 E7.27947
G1 X135.198 Y135.115 E7.34314
G1 X135.095 Y135.219 E7.34569
G1 X134.684 Y135.219 E7.35290
G1 X134.684 Y138.748 E7.41476
G1 X134.170 Y138.748 E7.42377
G1 X134.170 Y135.219 E7.48563
G1 X133.656 Y135.219 E7.49465
G1 X133.656 Y138.748 E7.55651
G1 X133.142 Y138.748 E7.56552
G1 X133.142 Y135.219 E7.62738
G1 X132.627 Y135.219 E7.63640
G1 X132.627 Y138.748 E7.69826
G1 X132.113 Y138.748 E7.70727
G1 X132.113 Y135.219 E7.76913
G1 X131.599 Y135.219 E7.77815
G1 X131.599 Y138.748 E7.84001
G1 X131.085 Y138.748 E7.84902
G1 X131.085 Y135.219 E7.91088
G1 X130.571 Y135.219 E7.91990
G1 X130.571 Y138.748 E7.98176
G1 X130.057 Y138.748 E7.99077
G1 X130.057 Y135.103 E8.05466
G1 E7.70466 F3600.000
;WIPE_START
G1 F14400.000
G1 X130.057 Y135.703 E7.56216
;WIPE_END
G1 E7.55466 F3600.000
G92 E0
G1 X129.005 Y112.527 F18000.000
G1 E0.60000 F2400.000
;TYPE:Perimeter
G1 F540.000
G1 X128.442 Y112.464 E0.60992
G1 X127.908 Y112.277 E0.61984
G1 X127.429 Y111.976 E0.62976
G1 X127.029 Y111.576 E0.63968
G1 X126.728 Y111.096 E0.64960
G1 X126.541 Y110.562 E0.65951
G1 X126.478 Y110.000 E0.66943
G1 X126.541 Y109.438 E0.67935
G1 X126.728 Y108.904 E0.68927
G1 X127.029 Y108.424 E0.69919
G1 X127.429 Y108.024 E0.70911
G1 X127.908 Y107.723 E0.71903
G1 X128.442 Y107.536 E0.72895
G1 X129.005 Y107.473 E0.73887
G1 X129.567 Y107.536 E0.74879
G1 X130.101 Y107.723 E0.75871
G1 X130.580 Y108.024 E0.76862
G1 X130.980 Y108.424 E0.77854
G1 X131.281 Y108.904 E0.78846
G1 X131.468 Y109.438 E0.79838
G1 X131.532 Y110.000 E0.80830
G1 X131.468 Y110.562 E0.81822
G1 X131.281 Y111.096 E0.82814
G1 X130.980 Y111.576 E0.83806
G1 X130.580 Y111.976 E0.84798
G1 X130.101 Y112.277 E0.85790
G1 X129.567 Y112.464 E0.86782
G1 X129.064 Y112.520 E0.87668
G1 X129.036 Y112.265 F18000.000
G1 F540.000
G1 X128.500 Y112.211 E0.88612
G1 X128.020 Y112.044 E0.89502
G1 X127.590 Y111.773 E0.90393
G1 X127.231 Y111.414 E0.91283
G1 X126.961 Y110.984 E0.92173
G1 X126.793 Y110.505 E0.93064
G1 X126.736 Y110.000 E0.93954
G1 X126.793 Y109.495 E0.94844
G1 X126.961 Y109.016 E0.95735
G1 X127.231 Y108.586 E0.96625
G1 X127.590 Y108.227 E0.97515
G1 X128.020 Y107.956 E0.98406
G1 X128.500 Y107.789 E0.99296
G1 X129.005 Y107.732 E1.00187
G1 X129.509 Y107.789 E1.01077
G1 X129.989 Y107.956 E1.01967
G1 X130.419 Y108.227 E1.02858
G1 X130.778 Y108.586 E1.03748
G1 X131.048 Y109.016 E1.04638
G1 X131.216 Y109.495 E1.05529
G1 X131.273 Y110.000 E1.06419
G1 X131.216 Y110.505 E1.07309
G1 X131.048 Y110.984 E1.08200
G1 X130.778 Y111.414 E1.09090
G1 X130.419 Y111.773 E1.09981
G1 X129.989 Y112.044 E1.10871
G1 X129.509 Y112.211 E1.11761
G1 X129.095 Y112.258 E1.12492
G1 X129.005 Y112.010 F18000.000
G1 F540.000
G1 X128.557 Y111.959 E1.13281
G1 X128.133 Y111.811 E1.14070
G1 X127.752 Y111.571 E1.14859
G1 X127.433 Y111.253 E1.15647
G1 X127.194 Y110.872 E1.16436
G1 X127.045 Y110.447 E1.17225
G1 X126.995 Y110.000 E1.18014
G1 X127.045 Y109.553 E1.18803
G1 X127.194 Y109.128 E1.19591
G1 X127.433 Y108.747 E1.20380
G1 X127.752 Y108.429 E1.21169
G1 X128.133 Y108.189 E1.21958
G1 X128.557 Y108.041 E1.22747
G1 X129.005 Y107.990 E1.23536
G1 X129.452 Y108.041 E1.24324
G1 X129.877 Y108.189 E1.25113
G1 X130.258 Y108.429 E1.25902
G1 X130.576 Y108.747 E1.26691
G1 X130.815 Y109.128 E1.27480
G1 X130.964 Y109.553 E1.28268
G1 X131.014 Y110.000 E1.29057
G1 X130.964 Y110.447 E1.29846
G1 X130.815 Y110.872 E1.30635
G1 X130.576 Y111.253 E1.31424
G1 X130.258 Y111.571 E1.32213
G1 X129.877 Y111.811 E1.33001
G1 X129.452 Y111.959 E1.33790
G1 X129.064 Y112.003 E1.34474
G1 X129.005 Y111.751 F18000.000
;TYPE:External perimeter
G1 F540.000
G1 X128.615 Y111.707 E1.35161
G1 X128.245 Y111.578 E1.35848
G1 X127.913 Y111.369 E1.36536
G1 X127.636 Y111.092 E1.37223
G1 X127.427 Y110.760 E1.37910
G1 X127.298 Y110.390 E1.38597
G1 X127.254 Y110.000 E1.39285
G1 X127.298 Y109.610 E1.39972
G1 X127.427 Y109.240 E1.40659
G1 X127.636 Y108.908 E1.41347
G1 X127.913 Y108.631 E1.42034
G1 X128.245 Y108.422 E1.42721
G1 X128.615 Y108.293 E1.43408
G1 X129.005 Y108.249 E1.44096
G1 X129.394 Y108.293 E1.44783
G1 X129.764 Y108.422 E1.45470
G1 X130.096 Y108.631 E1.46157
G1 X130.374 Y108.908 E1.46845
G1 X130.582 Y109.240 E1.47532
G1 X130.712 Y109.610 E1.48219
G1 X130.756 Y110.000 E1.48907
G1 X130.712 Y110.390 E1.49594
G1 X130.582 Y110.760 E1.50281
G1 X130.374 Y111.092 E1.50968
G1 X130.096 Y111.369 E1.51656
G1 X129.764 Y111.578 E1.52343
G1 X129.394 Y111.707 E1.53030
G1 X129.064 Y111.744 E1.53612
G1 X128.809 Y112.091 F18000.000
G1 E1.18612 F3600.000
;WIPE_START
G1 F14400.000
G1 X128.615 Y111.707 E1.07906
G1 X128.474 Y111.658 E1.04362
;WIPE_END
G1 E1.03612 F3600.000
G92 E0
G1 X117.580 Y127.024 F18000.000
G1 E0.60000 F2400.000
;TYPE:Perimeter
G1 F540.000
G1 X117.980 Y127.424 E0.60992
G1 X118.281 Y127.904 E0.61984
G1 X118.468 Y128.438 E0.62976
G1 X118.532 Y129.000 E0.63968
G1 X118.468 Y129.562 E0.64960
G1 X118.281 Y130.096 E0.65951
G1 X117.980 Y130.576 E0.66943
G1 X117.580 Y130.976 E0.67935
G1 X117.101 Y131.277 E0.68927
G1 X116.567 Y131.464 E0.69919
G1 X116.005 Y131.527 E0.70911
G1 X115.442 Y131.464 E0.71903
G1 X114.908 Y131.277 E0.72895
G1 X114.429 Y130.976 E0.73887
G1 X114.029 Y130.576 E0.74879
G1 X113.728 Y130.096 E0.75871
G1 X113.541 Y129.562 E0.76862
G1 X113.478 Y129.000 E0.77854
G1 X113.541 Y128.438 E0.78846
G1 X113.728 Y127.904 E0.79838
G1 X114.029 Y127.424 E0.80830
G1 X114.429 Y127.024 E0.81822
G1 X114.908 Y126.723 E0.82814
G1 X115.442 Y126.536 E0.83806
G1 X116.005 Y126.473 E0.84798
G1 X116.567 Y126.536 E0.85790
G1 X117.101 Y126.723 E0.86782
G1 X117.529 Y126.992 E0.87668
G1 X117.393 Y127.210 F18000.000
G1 F540.000
G1 X117.778 Y127.586 E0.88612
G1 X118.048 Y128.016 E0.89502
G1 X118.216 Y128.495 E0.90393
G1 X118.273 Y129.000 E0.91283
G1 X118.216 Y129.505 E0.92173
G1 X118.048 Y129.984 E0.93064
G1 X117.778 Y130.414 E0.93954
G1 X117.419 Y130.773 E0.94844
G1 X116.989 Y131.044 E0.95735
G1 X116.509 Y131.211 E0.96625
G1 X116.005 Y131.268 E0.97515
G1 X115.500 Y131.211 E0.98406
G1 X115.020 Y131.044 E0.99296
G1 X114.590 Y130.773 E1.00187
G1 X114.231 Y130.414 E1.01077
G1 X113.961 Y129.984 E1.01967
G1 X113.793 Y129.505 E1.02858
G1 X113.736 Y129.000 E1.03748
G1 X113.793 Y128.495 E1.04638
G1 X113.961 Y128.016 E1.05529
G1 X114.231 Y127.586 E1.06419
G1 X114.590 Y127.227 E1.07309
G1 X115.020 Y126.956 E1.08200
G1 X115.500 Y126.789 E1.09090
G1 X116.005 Y126.732 E1.09981
G1 X116.509 Y126.789 E1.10871
G1 X116.989 Y126.956 E1.11761
G1 X117.342 Y127.178 E1.12492
G1 X117.258 Y127.429 F18000.000
G1 F540.000
G1 X117.576 Y127.747 E1.13281
G1 X117.815 Y128.128 E1.14070
G1 X117.964 Y128.553 E1.14859
G1 X118.014 Y129.000 E1.15647
G1 X117.964 Y129.447 E1.16436
G1 X117.815 Y129.872 E1.17225
G1 X117.576 Y130.253 E1.18014
G1 X117.258 Y130.571 E1.18803
G1 X116.877 Y130.811 E1.19591
G1 X116.452 Y130.959 E1.20380
G1 X116.005 Y131.010 E1.21169
G1 X115.557 Y130.959 E1.21958
G1 X115.133 Y130.811 E1.22747
G1 X114.752 Y130.571 E1.23536
G1 X114.433 Y130.253 E1.24324
G1 X114.194 Y129.872 E1.25113
G1 X114.045 Y129.447 E1.25902
G1 X113.995 Y129.000 E1.26691
G1 X114.045 Y128.553 E1.27480
G1 X114.194 Y128.128 E1.28268
G1 X114.433 Y127.747 E1.29057
G1 X114.752 Y127.429 E1.29846
G1 X115.133 Y127.189 E1.30635
G1 X115.557 Y127.041 E1.31424
G1 X116.005 Y126.990 E1.32213
G1 X116.452 Y127.041 E1.33001
G1 X116.877 Y127.189 E1.33790
G1 X117.207 Y127.397 E1.34474
G1 X117.096 Y127.631 F18000.000
;TYPE:External perimeter
G1 F540.000
G1 X117.374 Y127.908 E1.35161
G1 X117.582 Y128.240 E1.35848
G1 X117.712 Y128.610 E1.36536
G1 X117.756 Y129.000 E1.37223
G1 X117.712 Y129.390 E1.37910
G1 X117.582 Y129.760 E1.38597
G1 X117.374 Y130.092 E1.39285
G1 X117.096 Y130.369 E1.39972
G1 X116.764 Y130.578 E1.40659
G1 X116.394 Y130.707 E1.41347
G1 X116.005 Y130.751 E1.42034
G1 X115.615 Y130.707 E1.42721
G1 X115.245 Y130.578 E1.43408
G1 X114.913 Y130.369 E1.44096
G1 X114.636 Y130.092 E1.44783
G1 X114.427 Y129.760 E1.45470
G1 X114.298 Y129.390 E1.46157
G1 X114.254 Y129.000 E1.46845
G1 X114.298 Y128.610 E1.47532
G1 X114.427 Y128.240 E1.48219
G1 X114.636 Y127.908 E1.48907
G1 X114.913 Y127.631 E1.49594
G1 X115.245 Y127.422 E1.50281
G1 X115.615 Y127.293 E1.50968
G1 X116.005 Y127.249 E1.51656
G1 X116.394 Y127.293 E1.52343
G1 X116.764 Y127.422 E1.53030
G1 X117.046 Y127.599 E1.53612
G1 X117.461 Y127.488 F18000.000
G1 E1.18612 F3600.000
;WIPE_START
G1 F14400.000
G1 X117.374 Y127.908 E1.07906
G1 X117.453 Y128.035 E1.04362
;WIPE_END
G1 E1.03612 F3600.000
G92 E0
G1 X116.005 Y93.527 F18000.000
G1 E0.60000 F2400.000
;TYPE:Perimeter
G1 F540.000
G1 X115.442 Y93.464 E0.60992
G1 X114.908 Y93.277 E0.61984
G1 X114.429 Y92.976 E0.62976
G1 X114.029 Y92.576 E0.63968
G1 X113.728 Y92.096 E0.64960
G1 X113.541 Y91.562 E0.65951
G1 X113.478 Y91.000 E0.66943
G1 X113.541 Y90.438 E0.67935
G1 X113.728 Y89.904 E0.68927
G1 X114.029 Y89.424 E0.69919
G1 X114.429 Y89.024 E0.70911
G1 X114.908 Y88.723 E0.71903
G1 X115.442 Y88.536 E0.72895
G1 X116.005 Y88.473 E0.73887
G1 X116.567 Y88.536 E0.74879
G1 X117.101 Y88.723 E0.75871
G1 X117.580 Y89.024 E0.76862
G1 X117.980 Y89.424 E0.77854
G1 X118.281 Y89.904 E0.78846
G1 X118.468 Y90.438 E0.79838
G1 X118.532 Y91.000 E0.80830
G1 X118.468 Y91.562 E0.81822
G1 X118.281 Y92.096 E0.82814
G1 X117.980 Y92.576 E0.83806
G1 X117.580 Y92.976 E0.84798
G1 X117.101 Y93.277 E0.85790
G1 X116.567 Y93.464 E0.86782
G1 X116.064 Y93.520 E0.87668
G1 X116.036 Y93.265 F18000.000
G1 F540.000
G1 X115.500 Y93.211 E0.88612
G1 X115.020 Y93.044 E0.89502
G1 X114.590 Y92.773 E0.90393
G1 X114.231 Y92.414 E0.91283
G1 X113.961 Y91.984 E0.92173
G1 X113.793 Y91.505 E0.93064
G1 X113.736 Y91.000 E0.93954
G1 X113.793 Y90.495 E0.94844
G1 X113.961 Y90.016 E0.95735
G1 X114.231 Y89.586 E0.96625
G1 X114.590 Y89.227 E0.97515
G1 X115.020 Y88.956 E0.98406
G1 X115.500 Y88.789 E0.99296
G1 X116.005 Y88.732 E1.00187
G1 X116.509 Y88.789 E1.01077
G1 X116.989 Y88.956 E1.01967
G1 X117.419 Y89.227 E1.02858
G1 X117.778 Y89.586 E1.03748
G1 X118.048 Y90.016 E1.04638
G1 X118.216 Y90.495 E1.05529
G1 X118.273 Y91.000 E1.06419
G1 X118.216 Y91.505 E1.07309
G1 X118.048 Y91.984 E1.08200
G1 X117.778 Y92.414 E1.09090
G1 X117.419 Y92.773 E1.09981
G1 X116.989 Y93.044 E1.10871
G1 X116.509 Y93.211 E1.11761
G1 X116.095 Y93.258 E1.12492
G1 X116.005 Y93.010 F18000.000
G1 F540.000
G1 X115.557 Y92.959 E1.13281
G1 X115.133 Y92.811 E1.14070
G1 X114.752 Y92.571 E1.14859
G1 X114.433 Y92.253 E1.15647
G1 X114.194 Y91.872 E1.16436
G1 X114.045 Y91.447 E1.17225
G1 X113.995 Y91.000 E1.18014
G1 X114.045 Y90.553 E1.18803
G1 X114.194 Y90.128 E1.19591
G1 X114.433 Y89.747 E1.20380
G1 X114.752 Y89.429 E1.21169
G1 X115.133 Y89.189 E1.21958
G1 X115.557 Y89.041 E1.22747
G1 X116.005 Y88.990 E1.23536
G1 X116.452 Y89.041 E1.24324
G1 X116.877 Y89.189 E1.25113
G1 X117.258 Y89.429 E1.25902
G1 X117.576 Y89.747 E1.26691
G1 X117.815 Y90.128 E1.27480
G1 X117.964 Y90.553 E1.28268
G1 X118.014 Y91.000 E1.29057
G1 X117.964 Y91.447 E1.29846
G1 X117.815 Y91.872 E1.30635
G1 X117.576 Y92.253 E1.31424
G1 X117.258 Y92.571 E1.32213
G1 X116.877 Y92.811 E1.33001
G1 X116.452 Y92.959 E1.33790
G1 X116.064 Y93.003 E1.34474
