; generated by PrusaSlicer 2.3.0+win64 on 2021-02-28 at 21:11:49 UTC

; 

; external perimeters extrusion width = 0.45mm
; perimeters extrusion width = 0.45mm
; infill extrusion width = 0.45mm
; solid infill extrusion width = 0.45mm
; top infill extrusion width = 0.40mm
; support material extrusion width = 0.38mm
; first layer extrusion width = 0.30mm

M73 P0 R51
M73 Q0 S51
M201 X500 Y500 Z100 E5000 ; sets maximum accelerations, mm/sec^2
M203 X500 Y500 Z10 E60 ; sets maximum feedrates, mm/sec
M204 P500 R1000 T500 ; sets acceleration (P, T) and retract acceleration (R), mm/sec^2
M205 X8.00 Y8.00 Z0.40 E5.00 ; sets the jerk limits, mm/sec
M205 S0 T0 ; sets the minimum extruding and travel feed rate, mm/sec
M107
;TYPE:Custom
G90 ; use absolute coordinates
M83 ; extruder relative mode
M104 S215 ; set extruder temp
M140 S60 ; set bed temp
M190 S60 ; wait for bed temp
M109 S215 ; wait for extruder temp
M204 S600 ;acceleration
M220 S100 ;Reset Feedrate
M221 S100 ;Reset Flowrate
G28 ; home all
G29
G1 Z2 F240
G1 X2 Y10 F3000
G1 Z0.28 F240
G92 E0.0
G1 Y190 E15.0 F1500.0 ; intro line
M73 P0 R50
M73 Q0 S50
G1 X2.3 F5000
G1 Y10 E30 F1200.0 ; intro line
G92 E0.0
G21 ; set units to millimeters
G90 ; use absolute coordinates
M82 ; use absolute distances for extrusion
G92 E0
; Filament gcode
;LAYER_CHANGE
;Z:0.2
;HEIGHT:0.2
;BEFORE_LAYER_CHANGE
M117 INDICATOR-Layer1
;0.2


G1 E-0.50000 F3600.000
G92 E0
G1 Z0.200 F18000.000
;AFTER_LAYER_CHANGE
;0.2
G1 X54.774 Y49.133
G1 E0.58000 F2400.000
;TYPE:Support material
;WIDTH:0.3
G1 F900.000
G1 X54.774 Y33.589 E0.85246
G1 X55.288 Y33.589 E0.86147
G1 X55.288 Y49.018 E1.13191
G1 X55.802 Y49.018 E1.14092
G1 X55.802 Y33.589 E1.41135
G1 X56.316 Y33.589 E1.42036
G1 X56.316 Y49.018 E1.69080
G1 X56.830 Y49.018 E1.69981
G1 X56.830 Y33.589 E1.97024
G1 X57.344 Y33.589 E1.97926
G1 X57.344 Y49.018 E2.24969
G1 X57.859 Y49.018 E2.25870
G1 X57.859 Y33.589 E2.52913
G1 X58.373 Y33.589 E2.53815
G1 X58.373 Y49.018 E2.80858
G1 X58.887 Y49.018 E2.81759
G1 X58.887 Y33.589 E3.08803
G1 X59.401 Y33.589 E3.09704
G1 X59.401 Y49.018 E3.36747
G1 X59.915 Y49.018 E3.37648
G1 X59.915 Y33.589 E3.64692
G1 X60.429 Y33.589 E3.65593
G1 X60.429 Y49.018 E3.92636
M73 P1 R50
M73 Q1 S50
G1 X60.944 Y49.018 E3.93537
G1 X60.944 Y33.589 E4.20581
G1 X61.458 Y33.589 E4.21482
G1 X61.458 Y49.018 E4.48525
G1 X61.972 Y49.018 E4.49427
G1 X61.972 Y33.589 E4.76470
G1 X62.486 Y33.589 E4.77371
G1 X62.486 Y49.018 E5.04414
G1 X63.000 Y49.018 E5.05316
G1 X63.000 Y33.589 E5.32359
G1 X63.514 Y33.589 E5.33260
G1 X63.514 Y49.018 E5.60304
G1 X64.028 Y49.018 E5.61205
G1 X64.028 Y33.589 E5.88248
G1 X64.543 Y33.589 E5.89149
G1 X64.543 Y49.018 E6.16193
G1 X65.057 Y49.018 E6.17094
G1 X65.057 Y33.589 E6.44137
G1 X65.571 Y33.589 E6.45038
G1 X65.571 Y49.018 E6.72082
G1 X66.085 Y49.018 E6.72983
G1 X66.085 Y33.589 E7.00026
G1 X66.599 Y33.589 E7.00928
G1 X66.599 Y49.018 E7.27971
G1 X67.113 Y49.018 E7.28872
G1 X67.113 Y33.589 E7.55915
G1 X67.628 Y33.589 E7.56817
G1 X67.628 Y49.018 E7.83860
G1 X68.142 Y49.018 E7.84761
G1 X68.142 Y33.589 E8.11805
G1 X68.656 Y33.589 E8.12706
G1 X68.656 Y49.133 E8.39952
G1 E8.04952 F3600.000
;WIPE_START
G1 F14400.000
G1 X68.656 Y48.533 E7.90702
;WIPE_END
G1 E7.89952 F3600.000
G92 E0
G1 X68.656 Y86.527 F18000.000
G1 E0.58000 F2400.000
G1 F900.000
G1 X68.656 Y73.320 E0.81150
G1 X68.142 Y73.320 E0.82051
G1 X68.142 Y86.411 E1.04998
G1 X67.628 Y86.411 E1.05899
G1 X67.628 Y73.320 E1.28846
G1 X67.113 Y73.320 E1.29747
G1 X67.113 Y86.411 E1.52694
G1 X66.599 Y86.411 E1.53595
G1 X66.599 Y73.320 E1.76542
G1 X66.085 Y73.320 E1.77443
G1 X66.085 Y86.411 E2.00390
G1 X65.571 Y86.411 E2.01291
G1 X65.571 Y73.320 E2.24238
G1 X65.057 Y73.320 E2.25139
G1 X65.057 Y86.411 E2.48086
G1 X64.543 Y86.411 E2.48987
G1 X64.543 Y73.320 E2.71934
G1 X64.028 Y73.320 E2.72835
G1 X64.028 Y86.411 E2.95782
G1 X63.514 Y86.411 E2.96683
G1 X63.514 Y73.320 E3.19630
G1 X63.000 Y73.320 E3.20531
G1 X63.000 Y86.411 E3.43478
G1 X62.486 Y86.411 E3.44379
G1 X62.486 Y73.320 E3.67326
M73 P2 R50
M73 Q2 S50
G1 X61.972 Y73.320 E3.68227
G1 X61.972 Y86.411 E3.91174
G1 X61.458 Y86.411 E3.92075
G1 X61.458 Y73.320 E4.15022
G1 X60.944 Y73.320 E4.15923
G1 X60.944 Y86.411 E4.38870
G1 X60.429 Y86.411 E4.39771
G1 X60.429 Y73.320 E4.62718
G1 X59.915 Y73.320 E4.63619
G1 X59.915 Y86.411 E4.86566
M73 P2 R49
M73 Q2 S49
G1 X59.401 Y86.411 E4.87467
G1 X59.401 Y73.320 E5.10414
G1 X58.887 Y73.320 E5.11315
G1 X58.887 Y86.411 E5.34262
G1 X58.373 Y86.411 E5.35163
G1 X58.373 Y73.320 E5.58110
G1 X57.859 Y73.320 E5.59011
G1 X57.859 Y86.411 E5.81958
G1 X57.344 Y86.411 E5.82859
G1 X57.344 Y73.320 E6.05806
G1 X56.830 Y73.320 E6.06707
G1 X56.830 Y86.411 E6.29654
G1 X56.316 Y86.411 E6.30555
G1 X56.316 Y73.320 E6.53502
G1 X55.802 Y73.320 E6.54403
G1 X55.802 Y86.411 E6.77350
G1 X55.288 Y86.411 E6.78251
G1 X55.288 Y73.320 E7.01198
G1 X54.774 Y73.320 E7.02099
G1 X54.774 Y86.411 E7.25046
G1 X54.259 Y86.411 E7.25947
G1 X54.259 Y83.033 E7.31867
G1 X54.231 Y83.062 E7.31938
G1 X53.745 Y83.062 E7.32789
G1 X53.745 Y86.411 E7.38660
G1 X53.231 Y86.411 E7.39561
G1 X53.231 Y83.062 E7.45432
G1 X52.717 Y83.062 E7.46333
G1 X52.717 Y86.411 E7.52204
G1 X52.203 Y86.411 E7.53105
G1 X52.203 Y83.062 E7.58976
G1 X51.689 Y83.062 E7.59877
G1 X51.689 Y86.411 E7.65748
G1 X51.174 Y86.411 E7.66649
G1 X51.174 Y83.062 E7.72520
G1 X50.660 Y83.062 E7.73421
G1 X50.660 Y86.411 E7.79292
G1 X50.146 Y86.411 E7.80193
G1 X50.146 Y83.062 E7.86064
G1 X49.632 Y83.062 E7.86965
G1 X49.632 Y86.411 E7.92836
G1 X49.118 Y86.411 E7.93737
G1 X49.118 Y82.946 E7.99811
G1 E7.64811 F3600.000
;WIPE_START
G1 F14400.000
G1 X49.118 Y83.546 E7.50561
;WIPE_END
G1 E7.49811 F3600.000
G92 E0
G1 X48.066 Y60.190 F18000.000
G1 E0.58000 F2400.000
;TYPE:Perimeter
G1 F540.000
G1 X47.504 Y60.127 E0.58992
G1 X46.969 Y59.940 E0.59984
G1 X46.490 Y59.639 E0.60976
G1 X46.090 Y59.239 E0.61968
G1 X45.789 Y58.760 E0.62960
G1 X45.602 Y58.225 E0.63951
G1 X45.539 Y57.663 E0.64943
G1 X45.602 Y57.101 E0.65935
G1 X45.789 Y56.567 E0.66927
G1 X46.090 Y56.087 E0.67919
G1 X46.490 Y55.687 E0.68911
G1 X46.969 Y55.386 E0.69903
G1 X47.504 Y55.199 E0.70895
G1 X48.066 Y55.136 E0.71887
G1 X48.628 Y55.199 E0.72879
G1 X49.162 Y55.386 E0.73871
G1 X49.641 Y55.687 E0.74862
G1 X50.042 Y56.087 E0.75854
G1 X50.343 Y56.567 E0.76846
G1 X50.530 Y57.101 E0.77838
G1 X50.593 Y57.663 E0.78830
G1 X50.530 Y58.225 E0.79822
G1 X50.343 Y58.760 E0.80814
G1 X50.042 Y59.239 E0.81806
G1 X49.641 Y59.639 E0.82798
G1 X49.162 Y59.940 E0.83790
G1 X48.628 Y60.127 E0.84782
G1 X48.126 Y60.183 E0.85668
G1 X48.097 Y59.928 F18000.000
G1 F540.000
G1 X47.561 Y59.875 E0.86612
G1 X47.082 Y59.707 E0.87502
G1 X46.652 Y59.437 E0.88393
G1 X46.292 Y59.077 E0.89283
G1 X46.022 Y58.647 E0.90173
G1 X45.854 Y58.168 E0.91064
G1 X45.798 Y57.663 E0.91954
G1 X45.854 Y57.158 E0.92844
G1 X46.022 Y56.679 E0.93735
G1 X46.292 Y56.249 E0.94625
G1 X46.652 Y55.890 E0.95515
G1 X47.082 Y55.619 E0.96406
G1 X47.561 Y55.452 E0.97296
G1 X48.066 Y55.395 E0.98187
G1 X48.571 Y55.452 E0.99077
G1 X49.050 Y55.619 E0.99967
G1 X49.480 Y55.890 E1.00858
G1 X49.839 Y56.249 E1.01748
G1 X50.110 Y56.679 E1.02638
G1 X50.277 Y57.158 E1.03529
G1 X50.334 Y57.663 E1.04419
G1 X50.277 Y58.168 E1.05309
G1 X50.110 Y58.647 E1.06200
G1 X49.839 Y59.077 E1.07090
G1 X49.480 Y59.437 E1.07981
G1 X49.050 Y59.707 E1.08871
G1 X48.571 Y59.875 E1.09761
G1 X48.156 Y59.921 E1.10492
G1 X48.066 Y59.673 F18000.000
G1 F540.000
G1 X47.619 Y59.622 E1.11281
G1 X47.194 Y59.474 E1.12070
G1 X46.813 Y59.234 E1.12859
G1 X46.495 Y58.916 E1.13647
G1 X46.255 Y58.535 E1.14436
G1 X46.107 Y58.110 E1.15225
G1 X46.056 Y57.663 E1.16014
G1 X46.107 Y57.216 E1.16803
G1 X46.255 Y56.791 E1.17591
G1 X46.495 Y56.410 E1.18380
G1 X46.813 Y56.092 E1.19169
G1 X47.194 Y55.852 E1.19958
G1 X47.619 Y55.704 E1.20747
G1 X48.066 Y55.653 E1.21536
G1 X48.513 Y55.704 E1.22324
G1 X48.938 Y55.852 E1.23113
G1 X49.319 Y56.092 E1.23902
G1 X49.637 Y56.410 E1.24691
G1 X49.877 Y56.791 E1.25480
G1 X50.025 Y57.216 E1.26268
G1 X50.076 Y57.663 E1.27057
G1 X50.025 Y58.110 E1.27846
G1 X49.877 Y58.535 E1.28635
G1 X49.637 Y58.916 E1.29424
G1 X49.319 Y59.234 E1.30213
G1 X48.938 Y59.474 E1.31001
G1 X48.513 Y59.622 E1.31790
G1 X48.126 Y59.666 E1.32474
G1 X48.066 Y59.414 F18000.000
;TYPE:External perimeter
G1 F540.000
G1 X47.676 Y59.370 E1.33161
G1 X47.306 Y59.241 E1.33848
G1 X46.974 Y59.032 E1.34536
G1 X46.697 Y58.755 E1.35223
G1 X46.488 Y58.423 E1.35910
G1 X46.359 Y58.053 E1.36597
G1 X46.315 Y57.663 E1.37285
G1 X46.359 Y57.273 E1.37972
G1 X46.488 Y56.903 E1.38659
G1 X46.697 Y56.571 E1.39347
G1 X46.974 Y56.294 E1.40034
G1 X47.306 Y56.086 E1.40721
G1 X47.676 Y55.956 E1.41408
G1 X48.066 Y55.912 E1.42096
G1 X48.456 Y55.956 E1.42783
G1 X48.826 Y56.086 E1.43470
G1 X49.158 Y56.294 E1.44157
G1 X49.435 Y56.571 E1.44845
G1 X49.643 Y56.903 E1.45532
G1 X49.773 Y57.273 E1.46219
G1 X49.817 Y57.663 E1.46907
G1 X49.773 Y58.053 E1.47594
G1 X49.643 Y58.423 E1.48281
G1 X49.435 Y58.755 E1.48968
G1 X49.158 Y59.032 E1.49656
G1 X48.826 Y59.241 E1.50343
G1 X48.456 Y59.370 E1.51030
G1 X48.126 Y59.407 E1.51612
G1 X47.870 Y59.754 F18000.000
G1 E1.16612 F3600.000
;WIPE_START
G1 F14400.000
G1 X47.676 Y59.370 E1.05906
G1 X47.535 Y59.321 E1.02362
;WIPE_END
G1 E1.01612 F3600.000
G92 E0
G1 X36.641 Y74.687 F18000.000
G1 E0.58000 F2400.000
;TYPE:Perimeter
G1 F540.000
G1 X37.042 Y75.087 E0.58992
G1 X37.343 Y75.567 E0.59984
G1 X37.530 Y76.101 E0.60976
G1 X37.593 Y76.663 E0.61968
G1 X37.530 Y77.225 E0.62960
G1 X37.343 Y77.760 E0.63951
G1 X37.042 Y78.239 E0.64943
G1 X36.641 Y78.639 E0.65935
G1 X36.162 Y78.940 E0.66927
G1 X35.628 Y79.127 E0.67919
G1 X35.066 Y79.190 E0.68911
G1 X34.504 Y79.127 E0.69903
G1 X33.969 Y78.940 E0.70895
G1 X33.490 Y78.639 E0.71887
G1 X33.090 Y78.239 E0.72879
G1 X32.789 Y77.760 E0.73871
G1 X32.602 Y77.225 E0.74862
G1 X32.539 Y76.663 E0.75854
G1 X32.602 Y76.101 E0.76846
G1 X32.789 Y75.567 E0.77838
G1 X33.090 Y75.087 E0.78830
G1 X33.490 Y74.687 E0.79822
G1 X33.969 Y74.386 E0.80814
G1 X34.504 Y74.199 E0.81806
G1 X35.066 Y74.136 E0.82798
G1 X35.628 Y74.199 E0.83790
G1 X36.162 Y74.386 E0.84782
G1 X36.591 Y74.655 E0.85668
G1 X36.454 Y74.873 F18000.000
G1 F540.000
G1 X36.839 Y75.249 E0.86612
G1 X37.110 Y75.679 E0.87502
G1 X37.277 Y76.158 E0.88393
G1 X37.334 Y76.663 E0.89283
G1 X37.277 Y77.168 E0.90173
G1 X37.110 Y77.647 E0.91064
G1 X36.839 Y78.077 E0.91954
G1 X36.480 Y78.437 E0.92844
G1 X36.050 Y78.707 E0.93735
G1 X35.571 Y78.875 E0.94625
G1 X35.066 Y78.931 E0.95515
G1 X34.561 Y78.875 E0.96406
G1 X34.082 Y78.707 E0.97296
G1 X33.652 Y78.437 E0.98187
G1 X33.292 Y78.077 E0.99077
G1 X33.022 Y77.647 E0.99967
G1 X32.854 Y77.168 E1.00858
G1 X32.798 Y76.663 E1.01748
G1 X32.854 Y76.158 E1.02638
G1 X33.022 Y75.679 E1.03529
G1 X33.292 Y75.249 E1.04419
G1 X33.652 Y74.890 E1.05309
G1 X34.082 Y74.619 E1.06200
G1 X34.561 Y74.452 E1.07090
G1 X35.066 Y74.395 E1.07981
G1 X35.571 Y74.452 E1.08871
G1 X36.050 Y74.619 E1.09761
G1 X36.403 Y74.841 E1.10492
G1 X36.319 Y75.092 F18000.000
G1 F540.000
G1 X36.637 Y75.410 E1.11281
G1 X36.877 Y75.791 E1.12070
G1 X37.025 Y76.216 E1.12859
G1 X37.076 Y76.663 E1.13647
G1 X37.025 Y77.110 E1.14436
G1 X36.877 Y77.535 E1.15225
G1 X36.637 Y77.916 E1.16014
G1 X36.319 Y78.234 E1.16803
G1 X35.938 Y78.474 E1.17591
G1 X35.513 Y78.622 E1.18380
G1 X35.066 Y78.673 E1.19169
G1 X34.619 Y78.622 E1.19958
G1 X34.194 Y78.474 E1.20747
G1 X33.813 Y78.234 E1.21536
G1 X33.495 Y77.916 E1.22324
G1 X33.255 Y77.535 E1.23113
G1 X33.107 Y77.110 E1.23902
G1 X33.056 Y76.663 E1.24691
G1 X33.107 Y76.216 E1.25480
G1 X33.255 Y75.791 E1.26268
G1 X33.495 Y75.410 E1.27057
G1 X33.813 Y75.092 E1.27846
G1 X34.194 Y74.852 E1.28635
G1 X34.619 Y74.704 E1.29424
G1 X35.066 Y74.653 E1.30213
G1 X35.513 Y74.704 E1.31001
G1 X35.938 Y74.852 E1.31790
G1 X36.268 Y75.060 E1.32474
G1 X36.158 Y75.294 F18000.000
;TYPE:External perimeter
G1 F540.000
G1 X36.435 Y75.571 E1.33161
G1 X36.643 Y75.903 E1.33848
G1 X36.773 Y76.273 E1.34536
G1 X36.817 Y76.663 E1.35223
G1 X36.773 Y77.053 E1.35910
G1 X36.643 Y77.423 E1.36597
G1 X36.435 Y77.755 E1.37285
G1 X36.158 Y78.032 E1.37972
G1 X35.826 Y78.241 E1.38659
G1 X35.456 Y78.370 E1.39347
G1 X35.066 Y78.414 E1.40034
G1 X34.676 Y78.370 E1.40721
G1 X34.306 Y78.241 E1.41408
G1 X33.974 Y78.032 E1.42096
G1 X33.697 Y77.755 E1.42783
G1 X33.488 Y77.423 E1.43470
G1 X33.359 Y77.053 E1.44157
G1 X33.315 Y76.663 E1.44845
G1 X33.359 Y76.273 E1.45532
G1 X33.488 Y75.903 E1.46219
G1 X33.697 Y75.571 E1.46907
G1 X33.974 Y75.294 E1.47594
G1 X34.306 Y75.086 E1.48281
G1 X34.676 Y74.956 E1.48968
G1 X35.066 Y74.912 E1.49656
G1 X35.456 Y74.956 E1.50343
G1 X35.826 Y75.086 E1.51030
G1 X36.107 Y75.262 E1.51612
G1 X36.523 Y75.151 F18000.000
G1 E1.16612 F3600.000
;WIPE_START
G1 F14400.000
G1 X36.435 Y75.571 E1.05906
G1 X36.514 Y75.698 E1.02362
;WIPE_END
G1 E1.01612 F3600.000
G92 E0
G1 X35.066 Y41.190 F18000.000
M73 P3 R49
M73 Q3 S49
G1 E0.58000 F2400.000
;TYPE:Perimeter
G1 F540.000
G1 X34.504 Y41.127 E0.58992
G1 X33.969 Y40.940 E0.59984
G1 X33.490 Y40.639 E0.60976
G1 X33.090 Y40.239 E0.61968
G1 X32.789 Y39.760 E0.62960
G1 X32.602 Y39.225 E0.63951
G1 X32.539 Y38.663 E0.64943
G1 X32.602 Y38.101 E0.65935
G1 X32.789 Y37.567 E0.66927
G1 X33.090 Y37.087 E0.67919
G1 X33.490 Y36.687 E0.68911
G1 X33.969 Y36.386 E0.69903
G1 X34.504 Y36.199 E0.70895
G1 X35.066 Y36.136 E0.71887
G1 X35.628 Y36.199 E0.72879
G1 X36.162 Y36.386 E0.73871
G1 X36.641 Y36.687 E0.74862
G1 X37.042 Y37.087 E0.75854
G1 X37.343 Y37.567 E0.76846
G1 X37.530 Y38.101 E0.77838
G1 X37.593 Y38.663 E0.78830
G1 X37.530 Y39.225 E0.79822
G1 X37.343 Y39.760 E0.80814
G1 X37.042 Y40.239 E0.81806
G1 X36.641 Y40.639 E0.82798
G1 X36.162 Y40.940 E0.83790
G1 X35.628 Y41.127 E0.84782
G1 X35.126 Y41.183 E0.85668
G1 X35.097 Y40.928 F18000.000
G1 F540.000
G1 X34.561 Y40.875 E0.86612
G1 X34.082 Y40.707 E0.87502
G1 X33.652 Y40.437 E0.88393
G1 X33.292 Y40.077 E0.89283
G1 X33.022 Y39.647 E0.90173
G1 X32.854 Y39.168 E0.91064
G1 X32.798 Y38.663 E0.91954
G1 X32.854 Y38.158 E0.92844
G1 X33.022 Y37.679 E0.93735
G1 X33.292 Y37.249 E0.94625
G1 X33.652 Y36.890 E0.95515
G1 X34.082 Y36.619 E0.96406
G1 X34.561 Y36.452 E0.97296
G1 X35.066 Y36.395 E0.98187
G1 X35.571 Y36.452 E0.99077
G1 X36.050 Y36.619 E0.99967
G1 X36.480 Y36.890 E1.00858
G1 X36.839 Y37.249 E1.01748
G1 X37.110 Y37.679 E1.02638
G1 X37.277 Y38.158 E1.03529
G1 X37.334 Y38.663 E1.04419
G1 X37.277 Y39.168 E1.05309
G1 X37.110 Y39.647 E1.06200
G1 X36.839 Y40.077 E1.07090
G1 X36.480 Y40.437 E1.07981
G1 X36.050 Y40.707 E1.08871
G1 X35.571 Y40.875 E1.09761
G1 X35.156 Y40.921 E1.10492
G1 X35.066 Y40.673 F18000.000
G1 F540.000
G1 X34.619 Y40.622 E1.11281
G1 X34.194 Y40.474 E1.12070
G1 X33.813 Y40.234 E1.12859
G1 X33.495 Y39.916 E1.13647
G1 X33.255 Y39.535 E1.14436
G1 X33.107 Y39.110 E1.15225
G1 X33.056 Y38.663 E1.16014
G1 X33.107 Y38.216 E1.16803
G1 X33.255 Y37.791 E1.17591
G1 X33.495 Y37.410 E1.18380
G1 X33.813 Y37.092 E1.19169
G1 X34.194 Y36.852 E1.19958
G1 X34.619 Y36.704 E1.20747
G1 X35.066 Y36.653 E1.21536
G1 X35.513 Y36.704 E1.22324
G1 X35.938 Y36.852 E1.23113
G1 X36.319 Y37.092 E1.23902
G1 X36.637 Y37.410 E1.24691
G1 X36.877 Y37.791 E1.25480
G1 X37.025 Y38.216 E1.26268
G1 X37.076 Y38.663 E1.27057
G1 X37.025 Y39.110 E1.27846
G1 X36.877 Y39.535 E1.28635
G1 X36.637 Y39.916 E1.29424
G1 X36.319 Y40.234 E1.30213
G1 X35.938 Y40.474 E1.31001
G1 X35.513 Y40.622 E1.31790
G1 X35.126 Y40.666 E1.32474
G1 X35.066 Y40.414 F18000.000
;TYPE:External perimeter
G1 F540.000
G1 X34.676 Y40.370 E1.33161
G1 X34.306 Y40.241 E1.33848
G1 X33.974 Y40.032 E1.34536
G1 X33.697 Y39.755 E1.35223
G1 X33.488 Y39.423 E1.35910
G1 X33.359 Y39.053 E1.36597
G1 X33.315 Y38.663 E1.37285
G1 X33.359 Y38.273 E1.37972
G1 X33.488 Y37.903 E1.38659
G1 X33.697 Y37.571 E1.39347
G1 X33.974 Y37.294 E1.40034
G1 X34.306 Y37.086 E1.40721
G1 X34.676 Y36.956 E1.41408
G1 X35.066 Y36.912 E1.42096
G1 X35.456 Y36.956 E1.42783
G1 X35.826 Y37.086 E1.43470
G1 X36.158 Y37.294 E1.44157
G1 X36.435 Y37.571 E1.44845
G1 X36.643 Y37.903 E1.45532
G1 X36.773 Y38.273 E1.46219
G1 X36.817 Y38.663 E1.46907
G1 X36.773 Y39.053 E1.47594
G1 X36.643 Y39.423 E1.48281
G1 X36.435 Y39.755 E1.48968
