; generated by PrusaSlicer 2.3.0+win64 on 2021-02-28 at 18:47:14 UTC

; 

; external perimeters extrusion width = 0.45mm
; perimeters extrusion width = 0.45mm
; infill extrusion width = 0.45mm
; solid infill extrusion width = 0.45mm
; top infill extrusion width = 0.40mm
; support material extrusion width = 0.38mm
; first layer extrusion width = 0.30mm

M73 P0 R51
M73 Q0 S51
M201 X500 Y500 Z100 E5000 ; sets maximum accelerations, mm/sec^2
M203 X500 Y500 Z10 E60 ; sets maximum feedrates, mm/sec
M204 P500 R1000 T500 ; sets acceleration (P, T) and retract acceleration (R), mm/sec^2
M205 X8.00 Y8.00 Z0.40 E5.00 ; sets the jerk limits, mm/sec
M205 S0 T0 ; sets the minimum extruding and travel feed rate, mm/sec
M107
;TYPE:Custom
G90 ; use absolute coordinates
M83 ; extruder relative mode
M104 S215 ; set extruder temp
M140 S60 ; set bed temp
M190 S60 ; wait for bed temp
M109 S215 ; wait for extruder temp
M204 S600 ;acceleration
M220 S100 ;Reset Feedrate
M221 S100 ;Reset Flowrate
G28 ; home all
G29
G1 Z2 F240
G1 X2 Y10 F3000
G1 Z0.28 F240
G92 E0.0
G1 Y190 E15.0 F1500.0 ; intro line
G1 X2.3 F5000
G1 Y10 E30 F1200.0 ; intro line
G92 E0.0
G21 ; set units to millimeters
G90 ; use absolute coordinates
M82 ; use absolute distances for extrusion
G92 E0
; Filament gcode
;LAYER_CHANGE
;Z:0.2
;HEIGHT:0.2
;BEFORE_LAYER_CHANGE
M117 INDICATOR-Layer1
;0.2


G1 E-0.50000 F3600.000
G92 E0
G1 Z0.200 F18000.000
;AFTER_LAYER_CHANGE
;0.2
G1 X49.526 Y111.234
G1 E0.58000 F2400.000
;TYPE:Perimeter
;WIDTH:0.3
G1 F540.000
G1 X50.034 Y111.032 E0.58958
G1 X50.573 Y110.943 E0.59915
G1 X51.119 Y110.973 E0.60873
G1 X51.645 Y111.119 E0.61831
G1 X52.128 Y111.375 E0.62788
G1 X52.544 Y111.729 E0.63746
G1 X52.875 Y112.164 E0.64704
G1 X53.104 Y112.659 E0.65662
G1 X53.222 Y113.193 E0.66619
G1 X53.222 Y113.739 E0.67577
G1 X53.104 Y114.273 E0.68535
G1 X52.875 Y114.769 E0.69492
G1 X52.544 Y115.204 E0.70450
G1 X52.128 Y115.557 E0.71408
G1 X51.645 Y115.813 E0.72365
G1 X51.119 Y115.960 E0.73323
G1 X50.573 Y115.989 E0.74281
G1 X50.034 Y115.901 E0.75238
G1 X49.526 Y115.699 E0.76196
G1 X49.074 Y115.392 E0.77154
G1 X48.698 Y114.995 E0.78112
G1 X48.417 Y114.527 E0.79069
G1 X48.242 Y114.009 E0.80027
G1 X48.183 Y113.466 E0.80985
G1 X48.242 Y112.923 E0.81942
G1 X48.417 Y112.405 E0.82900
G1 X48.698 Y111.937 E0.83858
G1 X49.074 Y111.540 E0.84815
G1 X49.477 Y111.267 E0.85668
G1 X49.621 Y111.480 F18000.000
G1 F540.000
G1 X50.103 Y111.281 E0.86582
G1 X50.587 Y111.201 E0.87442
G1 X51.077 Y111.228 E0.88302
G1 X51.549 Y111.359 E0.89162
G1 X51.983 Y111.589 E0.90021
G1 X52.356 Y111.906 E0.90881
G1 X52.653 Y112.297 E0.91741
G1 X52.859 Y112.742 E0.92600
G1 X52.965 Y113.221 E0.93460
G1 X52.965 Y113.711 E0.94320
G1 X52.859 Y114.190 E0.95179
G1 X52.653 Y114.635 E0.96039
G1 X52.356 Y115.026 E0.96899
G1 X51.983 Y115.343 E0.97758
G1 X51.549 Y115.573 E0.98618
G1 X51.077 Y115.704 E0.99478
G1 X50.587 Y115.731 E1.00337
G1 X50.103 Y115.652 E1.01197
G1 X49.647 Y115.470 E1.02057
G1 X49.241 Y115.195 E1.02916
G1 X48.904 Y114.839 E1.03776
G1 X48.651 Y114.419 E1.04636
G1 X48.495 Y113.954 E1.05495
G1 X48.442 Y113.466 E1.06355
G1 X48.495 Y112.979 E1.07215
G1 X48.651 Y112.514 E1.08074
G1 X48.904 Y112.094 E1.08934
G1 X49.241 Y111.738 E1.09794
G1 X49.571 Y111.514 E1.10492
G1 X49.768 Y111.691 F18000.000
G1 F540.000
G1 X50.172 Y111.530 E1.11254
G1 X50.601 Y111.460 E1.12015
G1 X51.035 Y111.483 E1.12777
G1 X51.454 Y111.599 E1.13539
G1 X51.837 Y111.803 E1.14300
G1 X52.169 Y112.084 E1.15062
G1 X52.432 Y112.430 E1.15824
G1 X52.614 Y112.825 E1.16585
G1 X52.707 Y113.249 E1.17347
G1 X52.707 Y113.683 E1.18109
G1 X52.614 Y114.108 E1.18870
G1 X52.432 Y114.502 E1.19632
G1 X52.169 Y114.848 E1.20394
M73 P0 R50
M73 Q0 S50
G1 X51.837 Y115.129 E1.21155
G1 X51.454 Y115.333 E1.21917
G1 X51.035 Y115.449 E1.22679
G1 X50.601 Y115.473 E1.23440
G1 X50.172 Y115.402 E1.24202
G1 X49.768 Y115.242 E1.24964
G1 X49.409 Y114.998 E1.25725
G1 X49.110 Y114.682 E1.26487
G1 X48.886 Y114.310 E1.27249
G1 X48.747 Y113.898 E1.28010
G1 X48.700 Y113.466 E1.28772
G1 X48.747 Y113.034 E1.29534
G1 X48.886 Y112.622 E1.30295
G1 X49.110 Y112.250 E1.31057
G1 X49.409 Y111.935 E1.31819
G1 X49.719 Y111.724 E1.32475
G1 X49.890 Y111.919 F18000.000
;TYPE:External perimeter
G1 F540.000
G1 X50.241 Y111.779 E1.33139
G1 X50.615 Y111.718 E1.33802
G1 X50.993 Y111.738 E1.34466
G1 X51.358 Y111.840 E1.35130
G1 X51.692 Y112.017 E1.35793
G1 X51.981 Y112.262 E1.36457
G1 X52.210 Y112.563 E1.37121
G1 X52.369 Y112.907 E1.37784
G1 X52.450 Y113.277 E1.38448
G1 X52.450 Y113.655 E1.39112
G1 X52.369 Y114.025 E1.39775
G1 X52.210 Y114.369 E1.40439
G1 X51.981 Y114.670 E1.41102
G1 X51.692 Y114.915 E1.41766
G1 X51.358 Y115.093 E1.42430
G1 X50.993 Y115.194 E1.43093
G1 X50.615 Y115.214 E1.43757
G1 X50.241 Y115.153 E1.44421
G1 X49.890 Y115.013 E1.45084
G1 X49.576 Y114.801 E1.45748
G1 X49.316 Y114.526 E1.46412
G1 X49.121 Y114.201 E1.47075
G1 X49.000 Y113.843 E1.47739
G1 X48.959 Y113.466 E1.48403
G1 X49.000 Y113.090 E1.49066
G1 X49.121 Y112.731 E1.49730
G1 X49.316 Y112.407 E1.50393
G1 X49.576 Y112.132 E1.51057
G1 X49.840 Y111.953 E1.51616
G1 X49.903 Y111.541 F18000.000
G1 E1.16616 F3600.000
;WIPE_START
G1 F14400.000
G1 X50.241 Y111.779 E1.06228
G1 X50.402 Y111.753 E1.02366
;WIPE_END
G1 E1.01616 F3600.000
G92 E0
G1 X50.573 Y100.989 F18000.000
G1 E0.58000 F2400.000
;TYPE:Perimeter
G1 F540.000
G1 X50.034 Y100.901 E0.58958
G1 X49.526 Y100.699 E0.59915
G1 X49.074 Y100.392 E0.60873
G1 X48.698 Y99.995 E0.61831
G1 X48.417 Y99.527 E0.62788
G1 X48.242 Y99.009 E0.63746
G1 X48.183 Y98.466 E0.64704
G1 X48.242 Y97.923 E0.65662
G1 X48.417 Y97.405 E0.66619
G1 X48.698 Y96.937 E0.67577
G1 X49.074 Y96.540 E0.68535
G1 X49.526 Y96.234 E0.69492
G1 X50.034 Y96.032 E0.70450
G1 X50.573 Y95.943 E0.71408
G1 X51.119 Y95.973 E0.72365
G1 X51.645 Y96.119 E0.73323
G1 X52.128 Y96.375 E0.74281
G1 X52.544 Y96.729 E0.75238
G1 X52.875 Y97.164 E0.76196
G1 X53.104 Y97.659 E0.77154
G1 X53.222 Y98.193 E0.78112
G1 X53.222 Y98.739 E0.79069
G1 X53.104 Y99.273 E0.80027
G1 X52.875 Y99.769 E0.80985
G1 X52.544 Y100.204 E0.81942
G1 X52.128 Y100.557 E0.82900
G1 X51.645 Y100.813 E0.83858
G1 X51.118 Y100.960 E0.84815
G1 X50.633 Y100.986 E0.85668
G1 X50.619 Y100.729 F18000.000
G1 F540.000
G1 X50.103 Y100.652 E0.86583
G1 X49.647 Y100.470 E0.87442
G1 X49.241 Y100.195 E0.88302
G1 X48.904 Y99.839 E0.89162
G1 X48.651 Y99.419 E0.90021
G1 X48.495 Y98.954 E0.90881
G1 X48.442 Y98.466 E0.91741
G1 X48.495 Y97.979 E0.92600
G1 X48.651 Y97.514 E0.93460
G1 X48.904 Y97.094 E0.94320
G1 X49.241 Y96.738 E0.95179
G1 X49.647 Y96.462 E0.96039
G1 X50.103 Y96.281 E0.96899
G1 X50.587 Y96.201 E0.97758
G1 X51.077 Y96.228 E0.98618
G1 X51.549 Y96.359 E0.99478
G1 X51.983 Y96.589 E1.00337
G1 X52.356 Y96.906 E1.01197
G1 X52.653 Y97.297 E1.02057
G1 X52.859 Y97.742 E1.02916
G1 X52.965 Y98.221 E1.03776
G1 X52.965 Y98.711 E1.04636
G1 X52.859 Y99.190 E1.05495
G1 X52.653 Y99.635 E1.06355
G1 X52.356 Y100.026 E1.07215
G1 X51.983 Y100.343 E1.08074
G1 X51.549 Y100.573 E1.08934
G1 X51.077 Y100.704 E1.09794
G1 X50.679 Y100.726 E1.10492
G1 X50.601 Y100.473 F18000.000
G1 F540.000
G1 X50.172 Y100.402 E1.11254
G1 X49.768 Y100.242 E1.12015
G1 X49.409 Y99.998 E1.12777
G1 X49.110 Y99.682 E1.13539
G1 X48.886 Y99.310 E1.14300
G1 X48.747 Y98.898 E1.15062
G1 X48.700 Y98.466 E1.15824
G1 X48.747 Y98.034 E1.16585
G1 X48.886 Y97.622 E1.17347
G1 X49.110 Y97.250 E1.18109
G1 X49.409 Y96.935 E1.18870
G1 X49.768 Y96.691 E1.19632
G1 X50.172 Y96.530 E1.20394
G1 X50.601 Y96.460 E1.21155
G1 X51.035 Y96.483 E1.21917
G1 X51.454 Y96.599 E1.22679
G1 X51.837 Y96.803 E1.23440
G1 X52.169 Y97.084 E1.24202
G1 X52.432 Y97.430 E1.24964
G1 X52.614 Y97.825 E1.25725
G1 X52.707 Y98.249 E1.26487
G1 X52.707 Y98.683 E1.27249
G1 X52.614 Y99.108 E1.28010
G1 X52.432 Y99.502 E1.28772
G1 X52.169 Y99.848 E1.29534
G1 X51.837 Y100.129 E1.30295
G1 X51.454 Y100.333 E1.31057
G1 X51.035 Y100.449 E1.31819
G1 X50.661 Y100.469 E1.32475
G1 X50.615 Y100.214 F18000.000
;TYPE:External perimeter
G1 F540.000
G1 X50.241 Y100.153 E1.33139
G1 X49.890 Y100.013 E1.33802
G1 X49.576 Y99.801 E1.34466
G1 X49.316 Y99.526 E1.35130
G1 X49.121 Y99.201 E1.35793
G1 X49.000 Y98.843 E1.36457
G1 X48.959 Y98.466 E1.37121
G1 X49.000 Y98.090 E1.37784
G1 X49.121 Y97.731 E1.38448
G1 X49.316 Y97.407 E1.39112
G1 X49.576 Y97.132 E1.39775
G1 X49.890 Y96.919 E1.40439
G1 X50.241 Y96.779 E1.41102
G1 X50.615 Y96.718 E1.41766
G1 X50.993 Y96.738 E1.42430
G1 X51.358 Y96.840 E1.43093
G1 X51.692 Y97.017 E1.43757
G1 X51.981 Y97.262 E1.44421
M73 P1 R50
M73 Q1 S50
G1 X52.210 Y97.563 E1.45084
G1 X52.369 Y97.907 E1.45748
G1 X52.450 Y98.277 E1.46412
G1 X52.450 Y98.655 E1.47075
G1 X52.369 Y99.025 E1.47739
G1 X52.210 Y99.369 E1.48403
G1 X51.981 Y99.670 E1.49066
G1 X51.692 Y99.915 E1.49730
G1 X51.358 Y100.093 E1.50393
G1 X50.993 Y100.194 E1.51057
G1 X50.675 Y100.211 E1.51616
G1 X50.408 Y100.532 F18000.000
G1 E1.16616 F3600.000
;WIPE_START
G1 F14400.000
G1 X50.241 Y100.153 E1.06227
G1 X50.090 Y100.093 E1.02366
;WIPE_END
G1 E1.01616 F3600.000
G92 E0
G1 X35.222 Y98.739 F18000.000
G1 E0.58000 F2400.000
;TYPE:Perimeter
G1 F540.000
G1 X35.104 Y99.273 E0.58958
G1 X34.875 Y99.769 E0.59915
G1 X34.544 Y100.204 E0.60873
G1 X34.128 Y100.557 E0.61831
G1 X33.645 Y100.813 E0.62788
G1 X33.118 Y100.960 E0.63746
G1 X32.573 Y100.989 E0.64704
G1 X32.034 Y100.901 E0.65662
G1 X31.526 Y100.699 E0.66619
G1 X31.074 Y100.392 E0.67577
G1 X30.698 Y99.995 E0.68535
G1 X30.417 Y99.527 E0.69492
G1 X30.242 Y99.009 E0.70450
G1 X30.183 Y98.466 E0.71408
G1 X30.242 Y97.923 E0.72365
G1 X30.417 Y97.405 E0.73323
G1 X30.698 Y96.937 E0.74281
G1 X31.074 Y96.540 E0.75238
G1 X31.526 Y96.234 E0.76196
G1 X32.034 Y96.032 E0.77154
G1 X32.573 Y95.943 E0.78112
G1 X33.118 Y95.973 E0.79069
G1 X33.645 Y96.119 E0.80027
G1 X34.128 Y96.375 E0.80985
G1 X34.544 Y96.729 E0.81942
G1 X34.875 Y97.164 E0.82900
G1 X35.104 Y97.659 E0.83858
G1 X35.222 Y98.193 E0.84815
G1 X35.222 Y98.679 E0.85668
G1 X34.965 Y98.679 F18000.000
G1 F540.000
G1 X34.859 Y99.190 E0.86583
G1 X34.653 Y99.635 E0.87442
G1 X34.356 Y100.026 E0.88302
G1 X33.983 Y100.343 E0.89162
G1 X33.549 Y100.573 E0.90021
G1 X33.077 Y100.704 E0.90881
G1 X32.587 Y100.731 E0.91741
G1 X32.103 Y100.652 E0.92600
G1 X31.647 Y100.470 E0.93460
G1 X31.241 Y100.195 E0.94320
G1 X30.904 Y99.839 E0.95179
G1 X30.651 Y99.419 E0.96039
G1 X30.495 Y98.954 E0.96899
G1 X30.442 Y98.466 E0.97758
G1 X30.495 Y97.979 E0.98618
G1 X30.651 Y97.514 E0.99478
G1 X30.904 Y97.094 E1.00337
G1 X31.241 Y96.738 E1.01197
G1 X31.647 Y96.462 E1.02057
G1 X32.103 Y96.281 E1.02916
G1 X32.587 Y96.201 E1.03776
G1 X33.077 Y96.228 E1.04636
G1 X33.549 Y96.359 E1.05495
G1 X33.983 Y96.589 E1.06355
G1 X34.356 Y96.906 E1.07215
G1 X34.653 Y97.297 E1.08074
G1 X34.859 Y97.742 E1.08934
G1 X34.965 Y98.221 E1.09794
G1 X34.965 Y98.619 E1.10492
G1 X34.707 Y98.683 F18000.000
G1 F540.000
G1 X34.614 Y99.108 E1.11254
G1 X34.432 Y99.502 E1.12015
G1 X34.169 Y99.848 E1.12777
G1 X33.837 Y100.129 E1.13539
G1 X33.454 Y100.333 E1.14300
G1 X33.035 Y100.449 E1.15062
G1 X32.601 Y100.473 E1.15824
G1 X32.172 Y100.402 E1.16585
G1 X31.768 Y100.242 E1.17347
G1 X31.409 Y99.998 E1.18109
G1 X31.110 Y99.682 E1.18870
G1 X30.886 Y99.310 E1.19632
G1 X30.747 Y98.898 E1.20394
G1 X30.700 Y98.466 E1.21155
G1 X30.747 Y98.034 E1.21917
G1 X30.886 Y97.622 E1.22679
G1 X31.110 Y97.250 E1.23440
G1 X31.409 Y96.935 E1.24202
G1 X31.768 Y96.691 E1.24964
G1 X32.172 Y96.530 E1.25725
G1 X32.601 Y96.460 E1.26487
G1 X33.035 Y96.483 E1.27249
G1 X33.454 Y96.599 E1.28010
G1 X33.837 Y96.803 E1.28772
G1 X34.169 Y97.084 E1.29534
G1 X34.432 Y97.430 E1.30295
G1 X34.614 Y97.825 E1.31057
G1 X34.707 Y98.249 E1.31819
G1 X34.707 Y98.623 E1.32475
G1 X34.450 Y98.655 F18000.000
;TYPE:External perimeter
G1 F540.000
G1 X34.369 Y99.025 E1.33139
G1 X34.210 Y99.369 E1.33802
G1 X33.981 Y99.670 E1.34466
G1 X33.692 Y99.915 E1.35130
G1 X33.358 Y100.093 E1.35793
G1 X32.993 Y100.194 E1.36457
G1 X32.615 Y100.214 E1.37121
G1 X32.241 Y100.153 E1.37784
G1 X31.890 Y100.013 E1.38448
G1 X31.576 Y99.801 E1.39112
G1 X31.316 Y99.526 E1.39775
G1 X31.121 Y99.201 E1.40439
G1 X31.000 Y98.843 E1.41102
G1 X30.959 Y98.466 E1.41766
G1 X31.000 Y98.090 E1.42430
G1 X31.121 Y97.731 E1.43093
G1 X31.316 Y97.407 E1.43757
G1 X31.576 Y97.132 E1.44421
G1 X31.890 Y96.919 E1.45084
G1 X32.241 Y96.779 E1.45748
G1 X32.615 Y96.718 E1.46412
G1 X32.993 Y96.738 E1.47075
G1 X33.358 Y96.840 E1.47739
G1 X33.692 Y97.017 E1.48403
G1 X33.981 Y97.262 E1.49066
G1 X34.210 Y97.563 E1.49730
G1 X34.369 Y97.907 E1.50393
G1 X34.450 Y98.277 E1.51057
G1 X34.450 Y98.595 E1.51616
G1 X34.756 Y98.879 F18000.000
G1 E1.16616 F3600.000
;WIPE_START
G1 F14400.000
G1 X34.369 Y99.025 E1.06227
G1 X34.301 Y99.173 E1.02366
;WIPE_END
G1 E1.01616 F3600.000
G92 E0
G1 X33.118 Y110.973 F18000.000
G1 E0.58000 F2400.000
;TYPE:Perimeter
G1 F540.000
G1 X33.645 Y111.119 E0.58958
G1 X34.128 Y111.375 E0.59915
G1 X34.544 Y111.729 E0.60873
G1 X34.875 Y112.164 E0.61831
G1 X35.104 Y112.659 E0.62788
G1 X35.222 Y113.193 E0.63746
G1 X35.222 Y113.739 E0.64704
G1 X35.104 Y114.273 E0.65662
G1 X34.875 Y114.769 E0.66619
G1 X34.544 Y115.204 E0.67577
G1 X34.128 Y115.557 E0.68535
G1 X33.645 Y115.813 E0.69492
G1 X33.119 Y115.960 E0.70450
G1 X32.573 Y115.989 E0.71408
G1 X32.034 Y115.901 E0.72365
G1 X31.526 Y115.699 E0.73323
G1 X31.074 Y115.392 E0.74281
G1 X30.698 Y114.995 E0.75238
G1 X30.417 Y114.527 E0.76196
G1 X30.242 Y114.009 E0.77154
G1 X30.183 Y113.466 E0.78112
G1 X30.242 Y112.923 E0.79069
G1 X30.417 Y112.405 E0.80027
G1 X30.698 Y111.937 E0.80985
G1 X31.074 Y111.540 E0.81942
G1 X31.526 Y111.234 E0.82900
G1 X32.034 Y111.032 E0.83858
G1 X32.573 Y110.943 E0.84815
G1 X33.059 Y110.970 E0.85668
G1 X33.045 Y111.226 F18000.000
G1 F540.000
G1 X33.549 Y111.359 E0.86583
G1 X33.983 Y111.589 E0.87442
G1 X34.356 Y111.906 E0.88302
G1 X34.653 Y112.297 E0.89162
G1 X34.859 Y112.742 E0.90021
G1 X34.965 Y113.221 E0.90881
G1 X34.965 Y113.711 E0.91741
G1 X34.859 Y114.190 E0.92600
G1 X34.653 Y114.635 E0.93460
G1 X34.356 Y115.026 E0.94320
G1 X33.983 Y115.343 E0.95179
G1 X33.549 Y115.573 E0.96039
G1 X33.077 Y115.704 E0.96899
G1 X32.587 Y115.731 E0.97758
G1 X32.103 Y115.652 E0.98618
G1 X31.647 Y115.470 E0.99478
G1 X31.241 Y115.195 E1.00337
G1 X30.904 Y114.839 E1.01197
G1 X30.651 Y114.419 E1.02057
G1 X30.495 Y113.954 E1.02916
G1 X30.442 Y113.466 E1.03776
G1 X30.495 Y112.979 E1.04636
G1 X30.651 Y112.514 E1.05495
G1 X30.904 Y112.094 E1.06355
G1 X31.241 Y111.738 E1.07215
G1 X31.647 Y111.462 E1.08074
G1 X32.103 Y111.281 E1.08934
G1 X32.587 Y111.201 E1.09794
G1 X32.985 Y111.223 E1.10492
G1 X33.035 Y111.483 F18000.000
G1 F540.000
G1 X33.454 Y111.599 E1.11254
G1 X33.837 Y111.803 E1.12015
G1 X34.169 Y112.084 E1.12777
G1 X34.432 Y112.430 E1.13539
G1 X34.614 Y112.825 E1.14300
G1 X34.707 Y113.249 E1.15062
G1 X34.707 Y113.683 E1.15824
G1 X34.614 Y114.108 E1.16585
G1 X34.432 Y114.502 E1.17347
G1 X34.169 Y114.848 E1.18109
G1 X33.837 Y115.129 E1.18870
G1 X33.454 Y115.333 E1.19632
G1 X33.035 Y115.449 E1.20394
G1 X32.601 Y115.473 E1.21155
G1 X32.172 Y115.402 E1.21917
G1 X31.768 Y115.242 E1.22679
G1 X31.409 Y114.998 E1.23440
G1 X31.110 Y114.682 E1.24202
G1 X30.886 Y114.310 E1.24964
G1 X30.747 Y113.898 E1.25725
G1 X30.700 Y113.466 E1.26487
G1 X30.747 Y113.034 E1.27249
G1 X30.886 Y112.622 E1.28010
G1 X31.110 Y112.250 E1.28772
G1 X31.409 Y111.935 E1.29534
G1 X31.768 Y111.691 E1.30295
G1 X32.172 Y111.530 E1.31057
G1 X32.601 Y111.460 E1.31819
G1 X32.975 Y111.480 E1.32475
G1 X32.993 Y111.738 F18000.000
;TYPE:External perimeter
G1 F540.000
G1 X33.358 Y111.840 E1.33139
G1 X33.692 Y112.017 E1.33802
G1 X33.981 Y112.262 E1.34466
G1 X34.210 Y112.563 E1.35130
G1 X34.369 Y112.907 E1.35793
G1 X34.450 Y113.277 E1.36457
G1 X34.450 Y113.655 E1.37121
G1 X34.369 Y114.025 E1.37784
G1 X34.210 Y114.369 E1.38448
G1 X33.981 Y114.670 E1.39112
G1 X33.692 Y114.915 E1.39775
G1 X33.358 Y115.093 E1.40439
G1 X32.993 Y115.194 E1.41102
G1 X32.615 Y115.214 E1.41766
G1 X32.241 Y115.153 E1.42430
G1 X31.890 Y115.013 E1.43093
G1 X31.576 Y114.801 E1.43757
G1 X31.316 Y114.526 E1.44421
G1 X31.121 Y114.201 E1.45084
G1 X31.000 Y113.843 E1.45748
G1 X30.959 Y113.466 E1.46412
