; generated by PrusaSlicer 2.3.0+win64 on 2021-02-27 at 10:50:19 UTC

; 

; external perimeters extrusion width = 0.45mm
; perimeters extrusion width = 0.45mm
; infill extrusion width = 0.45mm
; solid infill extrusion width = 0.45mm
; top infill extrusion width = 0.40mm
; support material extrusion width = 0.38mm
; first layer extrusion width = 0.35mm

M73 P0 R104
M73 Q0 S104
M201 X500 Y500 Z100 E5000 ; sets maximum accelerations, mm/sec^2
M203 X500 Y500 Z10 E60 ; sets maximum feedrates, mm/sec
M204 P500 R1000 T500 ; sets acceleration (P, T) and retract acceleration (R), mm/sec^2
M205 X8.00 Y8.00 Z0.40 E5.00 ; sets the jerk limits, mm/sec
M205 S0 T0 ; sets the minimum extruding and travel feed rate, mm/sec
M107
;TYPE:Custom
G90 ; use absolute coordinates
M83 ; extruder relative mode
M104 S215 ; set extruder temp
M140 S60 ; set bed temp
M190 S60 ; wait for bed temp
M109 S215 ; wait for extruder temp
M204 S500 ;acceleration
M220 S100 ;Reset Feedrate
M221 S100 ;Reset Flowrate
G28 ; home all
G29
G1 Z2 F240
G1 X2 Y10 F3000
G1 Z0.28 F240
G92 E0.0
G1 Y190 E15.0 F1500.0 ; intro line
G1 X2.3 F5000
G1 Y10 E30 F1200.0 ; intro line
G92 E0.0
G21 ; set units to millimeters
G90 ; use absolute coordinates
M82 ; use absolute distances for extrusion
G92 E0
; Filament gcode
;LAYER_CHANGE
;Z:0.2
;HEIGHT:0.2
;BEFORE_LAYER_CHANGE
M117 INDICATOR-Layer1
;0.2


G1 E-0.50000 F3600.000
G92 E0
G1 Z0.200 F18000.000
;AFTER_LAYER_CHANGE
;0.2
G1 X135.370 Y101.468
G1 E0.53200 F2400.000
;TYPE:Support material
;WIDTH:0.35
G1 F900.000
G1 X135.370 Y85.951 E0.85688
G1 X135.984 Y85.951 E0.86974
G1 X135.984 Y101.330 E1.19172
G1 X136.598 Y101.330 E1.20458
G1 X136.598 Y85.951 E1.52656
G1 X137.212 Y85.951 E1.53942
G1 X137.212 Y101.330 E1.86140
G1 X137.827 Y101.330 E1.87426
G1 X137.827 Y85.951 E2.19625
G1 X138.441 Y85.951 E2.20911
G1 X138.441 Y101.330 E2.53109
G1 X139.055 Y101.330 E2.54395
G1 X139.055 Y85.951 E2.86593
G1 X139.669 Y85.951 E2.87879
G1 X139.669 Y101.330 E3.20077
G1 X140.283 Y101.330 E3.21363
G1 X140.283 Y85.951 E3.53562
G1 X140.897 Y85.951 E3.54848
G1 X140.897 Y101.330 E3.87046
G1 X141.511 Y101.330 E3.88332
G1 X141.512 Y85.951 E4.20530
G1 X142.126 Y85.951 E4.21816
G1 X142.126 Y101.330 E4.54014
G1 X142.740 Y101.330 E4.55300
G1 X142.740 Y85.951 E4.87499
G1 X143.354 Y85.951 E4.88784
G1 X143.354 Y101.330 E5.20983
G1 X143.968 Y101.330 E5.22269
G1 X143.968 Y85.951 E5.54467
G1 X144.582 Y85.951 E5.55753
G1 X144.582 Y101.330 E5.87951
G1 X145.196 Y101.330 E5.89237
G1 X145.196 Y85.951 E6.21436
G1 X145.811 Y85.951 E6.22721
G1 X145.811 Y101.330 E6.54920
G1 X146.425 Y101.330 E6.56206
G1 X146.425 Y85.951 E6.88404
G1 X147.039 Y85.951 E6.89690
G1 X147.039 Y101.330 E7.21888
G1 X147.653 Y101.330 E7.23174
G1 X147.653 Y85.951 E7.55373
G1 X148.267 Y85.951 E7.56658
G1 X148.267 Y101.330 E7.88857
G1 X148.881 Y101.330 E7.90143
G1 X148.881 Y85.951 E8.22341
G1 X149.496 Y85.951 E8.23627
G1 X149.496 Y101.468 E8.56115
G1 E8.21115 F3600.000
;WIPE_START
G1 F14400.000
G1 X149.496 Y100.868 E8.06865
;WIPE_END
G1 E8.06115 F3600.000
G92 E0
G1 X149.496 Y138.861 F18000.000
G1 E0.53200 F2400.000
G1 F900.000
G1 X149.496 Y125.682 E0.80794
G1 X148.881 Y125.682 E0.82080
G1 X148.881 Y138.723 E1.09385
G1 X148.267 Y138.723 E1.10671
G1 X148.267 Y125.682 E1.37976
G1 X147.653 Y125.682 E1.39262
G1 X147.653 Y138.723 E1.66567
G1 X147.039 Y138.723 E1.67853
G1 X147.039 Y125.682 E1.95158
G1 X146.425 Y125.682 E1.96444
G1 X146.425 Y138.723 E2.23749
M73 P0 R103
M73 Q0 S103
G1 X145.811 Y138.723 E2.25035
G1 X145.811 Y125.682 E2.52340
G1 X145.196 Y125.682 E2.53626
G1 X145.196 Y138.723 E2.80931
G1 X144.582 Y138.723 E2.82217
G1 X144.582 Y125.682 E3.09522
G1 X143.968 Y125.682 E3.10808
G1 X143.968 Y138.723 E3.38113
G1 X143.354 Y138.723 E3.39399
G1 X143.354 Y125.682 E3.66704
G1 X142.740 Y125.682 E3.67990
G1 X142.740 Y138.723 E3.95295
G1 X142.126 Y138.723 E3.96581
G1 X142.126 Y125.682 E4.23886
G1 X141.511 Y125.682 E4.25172
G1 X141.511 Y138.723 E4.52477
G1 X140.897 Y138.723 E4.53762
G1 X140.897 Y125.682 E4.81068
G1 X140.283 Y125.682 E4.82353
G1 X140.283 Y138.723 E5.09658
G1 X139.669 Y138.723 E5.10944
G1 X139.669 Y125.682 E5.38249
G1 X139.055 Y125.682 E5.39535
G1 X139.055 Y138.723 E5.66840
G1 X138.441 Y138.723 E5.68126
G1 X138.441 Y125.682 E5.95431
M73 P1 R103
M73 Q1 S103
G1 X137.827 Y125.682 E5.96717
G1 X137.827 Y138.723 E6.24022
G1 X137.212 Y138.723 E6.25308
G1 X137.212 Y125.682 E6.52613
G1 X136.598 Y125.682 E6.53899
G1 X136.598 Y138.723 E6.81204
G1 X135.984 Y138.723 E6.82490
G1 X135.984 Y125.682 E7.09795
G1 X135.370 Y125.682 E7.11081
G1 X135.370 Y138.723 E7.38386
G1 X134.756 Y138.723 E7.39672
G1 X134.756 Y135.244 E7.46957
G1 X134.142 Y135.244 E7.48242
G1 X134.142 Y138.723 E7.55527
G1 X133.527 Y138.723 E7.56813
G1 X133.527 Y135.244 E7.64098
G1 X132.913 Y135.244 E7.65384
G1 X132.913 Y138.723 E7.72668
G1 X132.299 Y138.723 E7.73954
G1 X132.299 Y135.244 E7.81239
G1 X131.685 Y135.244 E7.82525
G1 X131.685 Y138.723 E7.89810
G1 X131.071 Y138.723 E7.91096
G1 X131.071 Y135.244 E7.98380
G1 X130.457 Y135.244 E7.99666
G1 X130.457 Y138.723 E8.06951
G1 X129.842 Y138.723 E8.08237
G1 X129.842 Y135.105 E8.15811
G1 E7.80811 F3600.000
;WIPE_START
G1 F14400.000
G1 X129.842 Y135.705 E7.66561
;WIPE_END
G1 E7.65811 F3600.000
G92 E0
G1 X129.005 Y112.703 F18000.000
G1 E0.53200 F2400.000
;TYPE:Perimeter
G1 F540.000
G1 X128.403 Y112.635 E0.54467
G1 X127.832 Y112.435 E0.55735
G1 X127.319 Y112.113 E0.57002
G1 X126.891 Y111.685 E0.58270
G1 X126.569 Y111.173 E0.59537
G1 X126.369 Y110.602 E0.60804
G1 X126.301 Y110.000 E0.62072
G1 X126.369 Y109.398 E0.63339
G1 X126.569 Y108.827 E0.64607
G1 X126.891 Y108.315 E0.65874
G1 X127.319 Y107.887 E0.67141
G1 X127.832 Y107.565 E0.68409
G1 X128.403 Y107.365 E0.69676
G1 X129.005 Y107.297 E0.70944
G1 X129.606 Y107.365 E0.72211
G1 X130.178 Y107.565 E0.73478
G1 X130.690 Y107.887 E0.74746
G1 X131.118 Y108.315 E0.76013
G1 X131.440 Y108.827 E0.77281
G1 X131.640 Y109.398 E0.78548
G1 X131.708 Y110.000 E0.79815
G1 X131.640 Y110.602 E0.81083
G1 X131.440 Y111.173 E0.82350
G1 X131.118 Y111.685 E0.83618
G1 X130.690 Y112.113 E0.84885
G1 X130.178 Y112.435 E0.86152
G1 X129.606 Y112.635 E0.87420
G1 X129.064 Y112.696 E0.88562
G1 X129.030 Y112.391 F18000.000
G1 F540.000
G1 X128.472 Y112.334 E0.89736
G1 X127.966 Y112.157 E0.90858
G1 X127.512 Y111.872 E0.91981
G1 X127.133 Y111.493 E0.93103
G1 X126.848 Y111.039 E0.94226
G1 X126.671 Y110.533 E0.95348
G1 X126.611 Y110.000 E0.96471
G1 X126.671 Y109.467 E0.97593
G1 X126.848 Y108.961 E0.98716
G1 X127.133 Y108.507 E0.99839
G1 X127.512 Y108.128 E1.00961
G1 X127.966 Y107.843 E1.02084
G1 X128.472 Y107.666 E1.03206
G1 X129.005 Y107.606 E1.04329
G1 X129.537 Y107.666 E1.05451
G1 X130.043 Y107.843 E1.06574
G1 X130.497 Y108.128 E1.07696
G1 X130.876 Y108.507 E1.08819
G1 X131.162 Y108.961 E1.09941
G1 X131.339 Y109.467 E1.11064
G1 X131.399 Y110.000 E1.12186
G1 X131.339 Y110.533 E1.13309
G1 X131.162 Y111.039 E1.14431
G1 X130.876 Y111.493 E1.15554
G1 X130.497 Y111.872 E1.16676
G1 X130.043 Y112.157 E1.17799
G1 X129.537 Y112.334 E1.18921
G1 X129.090 Y112.385 E1.19865
G1 X129.005 Y112.085 F18000.000
G1 F540.000
G1 X128.541 Y112.033 E1.20843
G1 X128.100 Y111.879 E1.21820
G1 X127.705 Y111.630 E1.22798
G1 X127.374 Y111.300 E1.23775
G1 X127.126 Y110.905 E1.24753
G1 X126.972 Y110.464 E1.25731
G1 X126.920 Y110.000 E1.26708
G1 X126.972 Y109.536 E1.27686
G1 X127.126 Y109.095 E1.28664
G1 X127.374 Y108.700 E1.29641
G1 X127.705 Y108.370 E1.30619
G1 X128.100 Y108.121 E1.31596
G1 X128.541 Y107.967 E1.32574
G1 X129.005 Y107.915 E1.33552
G1 X129.469 Y107.967 E1.34529
G1 X129.909 Y108.121 E1.35507
G1 X130.305 Y108.370 E1.36485
G1 X130.635 Y108.700 E1.37462
G1 X130.883 Y109.095 E1.38440
G1 X131.038 Y109.536 E1.39417
G1 X131.090 Y110.000 E1.40395
G1 X131.038 Y110.464 E1.41373
G1 X130.883 Y110.905 E1.42350
G1 X130.635 Y111.300 E1.43328
G1 X130.305 Y111.630 E1.44306
G1 X129.909 Y111.879 E1.45283
G1 X129.469 Y112.033 E1.46261
G1 X129.064 Y112.078 E1.47113
G1 X129.030 Y111.773 F18000.000
;TYPE:External perimeter
G1 F540.000
G1 X128.609 Y111.732 E1.47997
G1 X128.234 Y111.600 E1.48830
G1 X127.897 Y111.389 E1.49663
G1 X127.616 Y111.107 E1.50496
G1 X127.404 Y110.771 E1.51328
G1 X127.273 Y110.395 E1.52161
G1 X127.229 Y110.000 E1.52994
G1 X127.273 Y109.605 E1.53827
G1 X127.404 Y109.229 E1.54659
G1 X127.616 Y108.893 E1.55492
G1 X127.897 Y108.611 E1.56325
G1 X128.234 Y108.400 E1.57158
G1 X128.609 Y108.268 E1.57990
G1 X129.005 Y108.224 E1.58823
G1 X129.400 Y108.268 E1.59656
G1 X129.775 Y108.400 E1.60489
G1 X130.112 Y108.611 E1.61321
G1 X130.393 Y108.893 E1.62154
G1 X130.605 Y109.229 E1.62987
G1 X130.736 Y109.605 E1.63819
G1 X130.781 Y110.000 E1.64652
G1 X130.736 Y110.395 E1.65485
G1 X130.605 Y110.771 E1.66318
G1 X130.393 Y111.107 E1.67150
G1 X130.112 Y111.389 E1.67983
G1 X129.775 Y111.600 E1.68816
G1 X129.400 Y111.732 E1.69649
G1 X129.090 Y111.767 E1.70303
G1 X128.833 Y112.122 F18000.000
G1 E1.35303 F3600.000
;WIPE_START
G1 F14400.000
G1 X128.609 Y111.732 E1.23870
G1 X128.497 Y111.692 E1.21053
;WIPE_END
G1 E1.20303 F3600.000
G92 E0
G1 X117.690 Y126.887 F18000.000
G1 E0.53200 F2400.000
;TYPE:Perimeter
G1 F540.000
G1 X118.118 Y127.315 E0.54467
G1 X118.440 Y127.827 E0.55735
G1 X118.640 Y128.398 E0.57002
G1 X118.708 Y129.000 E0.58270
G1 X118.640 Y129.602 E0.59537
G1 X118.440 Y130.173 E0.60804
G1 X118.118 Y130.685 E0.62072
G1 X117.690 Y131.113 E0.63339
G1 X117.178 Y131.435 E0.64607
G1 X116.606 Y131.635 E0.65874
G1 X116.005 Y131.703 E0.67141
G1 X115.403 Y131.635 E0.68409
G1 X114.832 Y131.435 E0.69676
G1 X114.319 Y131.113 E0.70944
G1 X113.891 Y130.685 E0.72211
G1 X113.569 Y130.173 E0.73478
G1 X113.369 Y129.602 E0.74746
G1 X113.301 Y129.000 E0.76013
G1 X113.369 Y128.398 E0.77281
G1 X113.569 Y127.827 E0.78548
G1 X113.891 Y127.315 E0.79815
G1 X114.319 Y126.887 E0.81083
G1 X114.832 Y126.565 E0.82350
G1 X115.403 Y126.365 E0.83618
G1 X116.005 Y126.297 E0.84885
G1 X116.606 Y126.365 E0.86152
G1 X117.178 Y126.565 E0.87420
G1 X117.639 Y126.855 E0.88562
G1 X117.476 Y127.115 F18000.000
G1 F540.000
G1 X117.876 Y127.507 E0.89736
G1 X118.162 Y127.961 E0.90858
G1 X118.339 Y128.467 E0.91981
G1 X118.399 Y129.000 E0.93103
G1 X118.339 Y129.533 E0.94226
G1 X118.162 Y130.039 E0.95349
G1 X117.876 Y130.493 E0.96471
G1 X117.497 Y130.872 E0.97594
G1 X117.043 Y131.157 E0.98716
G1 X116.537 Y131.334 E0.99839
G1 X116.005 Y131.394 E1.00961
G1 X115.472 Y131.334 E1.02084
G1 X114.966 Y131.157 E1.03206
G1 X114.512 Y130.872 E1.04329
G1 X114.133 Y130.493 E1.05451
G1 X113.848 Y130.039 E1.06574
G1 X113.671 Y129.533 E1.07696
G1 X113.611 Y129.000 E1.08819
G1 X113.671 Y128.467 E1.09941
G1 X113.848 Y127.961 E1.11064
G1 X114.133 Y127.507 E1.12186
G1 X114.512 Y127.128 E1.13309
G1 X114.966 Y126.843 E1.14431
G1 X115.472 Y126.666 E1.15554
G1 X116.005 Y126.606 E1.16676
G1 X116.537 Y126.666 E1.17799
G1 X117.043 Y126.843 E1.18921
G1 X117.425 Y127.083 E1.19865
G1 X117.305 Y127.370 F18000.000
G1 F540.000
G1 X117.635 Y127.700 E1.20843
G1 X117.883 Y128.095 E1.21820
G1 X118.038 Y128.536 E1.22798
G1 X118.090 Y129.000 E1.23775
G1 X118.038 Y129.464 E1.24753
G1 X117.883 Y129.905 E1.25731
G1 X117.635 Y130.300 E1.26708
G1 X117.305 Y130.630 E1.27686
G1 X116.909 Y130.879 E1.28664
G1 X116.469 Y131.033 E1.29641
G1 X116.005 Y131.085 E1.30619
G1 X115.541 Y131.033 E1.31596
G1 X115.100 Y130.879 E1.32574
G1 X114.705 Y130.630 E1.33552
G1 X114.374 Y130.300 E1.34529
G1 X114.126 Y129.905 E1.35507
G1 X113.972 Y129.464 E1.36485
G1 X113.920 Y129.000 E1.37462
G1 X113.972 Y128.536 E1.38440
G1 X114.126 Y128.095 E1.39417
G1 X114.374 Y127.700 E1.40395
G1 X114.705 Y127.370 E1.41373
G1 X115.100 Y127.121 E1.42350
G1 X115.541 Y126.967 E1.43328
G1 X116.005 Y126.915 E1.44306
G1 X116.469 Y126.967 E1.45283
G1 X116.909 Y127.121 E1.46261
G1 X117.254 Y127.338 E1.47113
G1 X117.091 Y127.598 F18000.000
;TYPE:External perimeter
G1 F540.000
G1 X117.393 Y127.893 E1.47997
G1 X117.605 Y128.229 E1.48830
G1 X117.736 Y128.605 E1.49663
G1 X117.781 Y129.000 E1.50496
G1 X117.736 Y129.395 E1.51328
G1 X117.605 Y129.771 E1.52161
G1 X117.393 Y130.107 E1.52994
G1 X117.112 Y130.389 E1.53827
G1 X116.775 Y130.600 E1.54659
G1 X116.400 Y130.732 E1.55492
G1 X116.005 Y130.776 E1.56325
G1 X115.609 Y130.732 E1.57158
G1 X115.234 Y130.600 E1.57990
G1 X114.897 Y130.389 E1.58823
G1 X114.616 Y130.107 E1.59656
G1 X114.404 Y129.771 E1.60489
G1 X114.273 Y129.395 E1.61321
G1 X114.229 Y129.000 E1.62154
G1 X114.273 Y128.605 E1.62987
G1 X114.404 Y128.229 E1.63819
G1 X114.616 Y127.893 E1.64652
G1 X114.897 Y127.611 E1.65485
G1 X115.234 Y127.400 E1.66318
G1 X115.609 Y127.268 E1.67150
G1 X116.005 Y127.224 E1.67983
G1 X116.400 Y127.268 E1.68816
G1 X116.775 Y127.400 E1.69649
G1 X117.040 Y127.566 E1.70303
G1 X117.461 Y127.448 F18000.000
G1 E1.35303 F3600.000
;WIPE_START
G1 F14400.000
G1 X117.393 Y127.893 E1.23870
G1 X117.456 Y127.993 E1.21053
;WIPE_END
G1 E1.20303 F3600.000
G92 E0
G1 X116.005 Y93.703 F18000.000
G1 E0.53200 F2400.000
;TYPE:Perimeter
G1 F540.000
G1 X115.403 Y93.635 E0.54467
G1 X114.832 Y93.435 E0.55735
G1 X114.319 Y93.113 E0.57002
G1 X113.891 Y92.685 E0.58270
G1 X113.569 Y92.173 E0.59537
G1 X113.369 Y91.602 E0.60804
G1 X113.301 Y91.000 E0.62072
G1 X113.369 Y90.398 E0.63339
G1 X113.569 Y89.827 E0.64607
G1 X113.891 Y89.315 E0.65874
G1 X114.319 Y88.887 E0.67141
G1 X114.832 Y88.565 E0.68409
G1 X115.403 Y88.365 E0.69676
G1 X116.005 Y88.297 E0.70944
G1 X116.606 Y88.365 E0.72211
G1 X117.178 Y88.565 E0.73478
G1 X117.690 Y88.887 E0.74746
G1 X118.118 Y89.315 E0.76013
G1 X118.440 Y89.827 E0.77281
G1 X118.640 Y90.398 E0.78548
G1 X118.708 Y91.000 E0.79815
G1 X118.640 Y91.602 E0.81083
G1 X118.440 Y92.173 E0.82350
G1 X118.118 Y92.685 E0.83618
G1 X117.690 Y93.113 E0.84885
G1 X117.178 Y93.435 E0.86152
G1 X116.606 Y93.635 E0.87420
G1 X116.064 Y93.696 E0.88562
G1 X116.030 Y93.391 F18000.000
G1 F540.000
G1 X115.472 Y93.334 E0.89736
G1 X114.966 Y93.157 E0.90858
G1 X114.512 Y92.872 E0.91981
G1 X114.133 Y92.493 E0.93103
G1 X113.848 Y92.039 E0.94226
G1 X113.671 Y91.533 E0.95348
G1 X113.611 Y91.000 E0.96471
G1 X113.671 Y90.467 E0.97594
G1 X113.848 Y89.961 E0.98716
G1 X114.133 Y89.507 E0.99839
G1 X114.512 Y89.128 E1.00961
G1 X114.966 Y88.843 E1.02084
G1 X115.472 Y88.666 E1.03206
G1 X116.005 Y88.606 E1.04329
G1 X116.537 Y88.666 E1.05451
G1 X117.043 Y88.843 E1.06574
G1 X117.497 Y89.128 E1.07696
G1 X117.876 Y89.507 E1.08819
G1 X118.162 Y89.961 E1.09941
G1 X118.339 Y90.467 E1.11064
G1 X118.399 Y91.000 E1.12186
G1 X118.339 Y91.533 E1.13309
G1 X118.162 Y92.039 E1.14431
G1 X117.876 Y92.493 E1.15554
G1 X117.497 Y92.872 E1.16676
G1 X117.043 Y93.157 E1.17799
G1 X116.537 Y93.334 E1.18921
G1 X116.090 Y93.385 E1.19865
G1 X116.005 Y93.085 F18000.000
G1 F540.000
G1 X115.541 Y93.033 E1.20843
G1 X115.100 Y92.879 E1.21820
G1 X114.705 Y92.630 E1.22798
G1 X114.374 Y92.300 E1.23775
G1 X114.126 Y91.905 E1.24753
G1 X113.972 Y91.464 E1.25731
G1 X113.920 Y91.000 E1.26708
G1 X113.972 Y90.536 E1.27686
G1 X114.126 Y90.095 E1.28664
G1 X114.374 Y89.700 E1.29641
G1 X114.705 Y89.370 E1.30619
G1 X115.100 Y89.121 E1.31596
G1 X115.541 Y88.967 E1.32574
G1 X116.005 Y88.915 E1.33552
G1 X116.469 Y88.967 E1.34529
G1 X116.909 Y89.121 E1.35507
G1 X117.305 Y89.370 E1.36485
G1 X117.635 Y89.700 E1.37462
G1 X117.883 Y90.095 E1.38440
G1 X118.038 Y90.536 E1.39417
G1 X118.090 Y91.000 E1.40395
G1 X118.038 Y91.464 E1.41373
G1 X117.883 Y91.905 E1.42350
G1 X117.635 Y92.300 E1.43328
G1 X117.305 Y92.630 E1.44306
G1 X116.909 Y92.879 E1.45283
G1 X116.469 Y93.033 E1.46261
G1 X116.064 Y93.078 E1.47113
G1 X116.030 Y92.773 F18000.000
;TYPE:External perimeter
G1 F540.000
G1 X115.609 Y92.732 E1.47997
G1 X115.234 Y92.600 E1.48830
G1 X114.897 Y92.389 E1.49663
G1 X114.616 Y92.107 E1.50496
G1 X114.404 Y91.771 E1.51328
G1 X114.273 Y91.395 E1.52161
G1 X114.229 Y91.000 E1.52994
G1 X114.273 Y90.605 E1.53827
G1 X114.404 Y90.229 E1.54659
G1 X114.616 Y89.893 E1.55492
G1 X114.897 Y89.611 E1.56325
G1 X115.234 Y89.400 E1.57158
G1 X115.609 Y89.268 E1.57990
G1 X116.005 Y89.224 E1.58823
G1 X116.400 Y89.268 E1.59656
G1 X116.775 Y89.400 E1.60489
G1 X117.112 Y89.611 E1.61321
G1 X117.393 Y89.893 E1.62154
G1 X117.605 Y90.229 E1.62987
