; generated by PrusaSlicer 2.3.0+win64 on 2021-02-28 at 08:19:35 UTC

; 

; external perimeters extrusion width = 0.45mm
; perimeters extrusion width = 0.45mm
; infill extrusion width = 0.45mm
; solid infill extrusion width = 0.45mm
; top infill extrusion width = 0.40mm
; support material extrusion width = 0.38mm
; first layer extrusion width = 0.30mm

M73 P0 R124
M73 Q0 S124
M201 X500 Y500 Z100 E5000 ; sets maximum accelerations, mm/sec^2
M203 X500 Y500 Z10 E60 ; sets maximum feedrates, mm/sec
M204 P500 R1000 T500 ; sets acceleration (P, T) and retract acceleration (R), mm/sec^2
M205 X8.00 Y8.00 Z0.40 E5.00 ; sets the jerk limits, mm/sec
M205 S0 T0 ; sets the minimum extruding and travel feed rate, mm/sec
M107
;TYPE:Custom
G90 ; use absolute coordinates
M83 ; extruder relative mode
M104 S215 ; set extruder temp
M140 S60 ; set bed temp
M190 S60 ; wait for bed temp
M109 S215 ; wait for extruder temp
M204 S600 ;acceleration
M220 S100 ;Reset Feedrate
M221 S100 ;Reset Flowrate
G28 ; home all
G29
G1 Z2 F240
G1 X2 Y10 F3000
G1 Z0.28 F240
G92 E0.0
G1 Y190 E15.0 F1500.0 ; intro line
G1 X2.3 F5000
G1 Y10 E30 F1200.0 ; intro line
G92 E0.0
G21 ; set units to millimeters
G90 ; use absolute coordinates
M82 ; use absolute distances for extrusion
G92 E0
; Filament gcode
;LAYER_CHANGE
;Z:0.2
;HEIGHT:0.2
;BEFORE_LAYER_CHANGE
M117 INDICATOR-Layer1
;0.2


G1 E-0.50000 F3600.000
G92 E0
G1 Z0.200 F18000.000
;AFTER_LAYER_CHANGE
;0.2
G1 X169.418 Y116.352
G1 E0.58000 F2400.000
;TYPE:Perimeter
;WIDTH:0.3
G1 F540.000
G1 X169.675 Y116.051 E0.58694
G1 X169.976 Y115.793 E0.59389
G1 X170.314 Y115.586 E0.60083
G1 X170.680 Y115.435 E0.60777
G1 X171.065 Y115.342 E0.61471
G1 X171.444 Y115.312 E0.62138
G1 X171.851 Y115.342 E0.62854
G1 X172.240 Y115.435 E0.63554
G1 X172.606 Y115.586 E0.64248
G1 X172.930 Y115.785 E0.64914
G1 X173.243 Y116.048 E0.65630
G1 X173.502 Y116.352 E0.66331
G1 X173.709 Y116.689 E0.67025
G1 X173.861 Y117.055 E0.67719
G1 X173.949 Y117.425 E0.68385
G1 X173.984 Y117.832 E0.69101
G1 X173.953 Y118.230 E0.69802
G1 X173.861 Y118.615 E0.70496
G1 X173.709 Y118.981 E0.71190
G1 X173.502 Y119.319 E0.71884
G1 X173.245 Y119.620 E0.72579
G1 X172.944 Y119.877 E0.73273
G1 X172.606 Y120.084 E0.73967
G1 X172.240 Y120.236 E0.74662
G1 X171.855 Y120.328 E0.75356
G1 X171.460 Y120.359 E0.76050
G1 X171.065 Y120.328 E0.76744
G1 X170.696 Y120.240 E0.77411
G1 X170.317 Y120.086 E0.78127
G1 X169.976 Y119.877 E0.78827
G1 X169.675 Y119.620 E0.79521
G1 X169.418 Y119.319 E0.80215
G1 X169.211 Y118.981 E0.80910
G1 X169.059 Y118.615 E0.81604
G1 X168.971 Y118.246 E0.82270
G1 X168.936 Y117.839 E0.82986
G1 X168.967 Y117.440 E0.83686
G1 X169.056 Y117.071 E0.84353
G1 X169.209 Y116.692 E0.85069
G1 X169.387 Y116.403 E0.85664
G1 X169.606 Y116.537 F18000.000
G1 F540.000
G1 X169.858 Y116.233 E0.86356
G1 X170.128 Y116.002 E0.86979
G1 X170.431 Y115.816 E0.87603
G1 X170.760 Y115.680 E0.88226
G1 X171.105 Y115.597 E0.88849
G1 X171.445 Y115.570 E0.89446
G1 X171.812 Y115.596 E0.90091
G1 X172.160 Y115.680 E0.90719
G1 X172.489 Y115.816 E0.91342
G1 X172.779 Y115.994 E0.91939
G1 X173.061 Y116.231 E0.92584
G1 X173.293 Y116.503 E0.93212
G1 X173.479 Y116.806 E0.93836
G1 X173.615 Y117.135 E0.94459
G1 X173.695 Y117.466 E0.95056
G1 X173.726 Y117.833 E0.95701
G1 X173.698 Y118.190 E0.96329
G1 X173.615 Y118.536 E0.96952
G1 X173.479 Y118.864 E0.97575
G1 X173.293 Y119.167 E0.98199
G1 X173.062 Y119.438 E0.98822
G1 X172.792 Y119.669 E0.99445
G1 X172.489 Y119.855 E1.00069
G1 X172.160 Y119.991 E1.00692
G1 X171.815 Y120.074 E1.01315
G1 X171.460 Y120.102 E1.01939
G1 X171.105 Y120.074 E1.02562
G1 X170.774 Y119.994 E1.03159
G1 X170.433 Y119.856 E1.03804
G1 X170.128 Y119.669 E1.04432
G1 X169.858 Y119.438 E1.05055
G1 X169.627 Y119.167 E1.05678
G1 X169.441 Y118.864 E1.06302
G1 X169.305 Y118.536 E1.06925
G1 X169.225 Y118.204 E1.07522
G1 X169.194 Y117.838 E1.08167
G1 X169.222 Y117.481 E1.08795
G1 X169.301 Y117.150 E1.09392
G1 X169.439 Y116.809 E1.10037
G1 X169.574 Y116.588 E1.10490
G1 X169.670 Y116.925 F18000.000
G1 F540.000
G1 X169.835 Y116.655 E1.11045
G1 X170.040 Y116.415 E1.11597
G1 X170.280 Y116.211 E1.12149
G1 X170.548 Y116.046 E1.12702
G1 X170.839 Y115.925 E1.13254
G1 X171.146 Y115.852 E1.13807
G1 X171.446 Y115.828 E1.14334
G1 X171.773 Y115.851 E1.14909
G1 X172.081 Y115.925 E1.15464
G1 X172.372 Y116.046 E1.16016
G1 X172.628 Y116.203 E1.16544
G1 X172.879 Y116.414 E1.17118
G1 X173.085 Y116.655 E1.17673
G1 X173.249 Y116.924 E1.18225
G1 X173.370 Y117.215 E1.18778
G1 X173.440 Y117.507 E1.19306
G1 X173.468 Y117.834 E1.19880
G1 X173.444 Y118.150 E1.20435
G1 X173.370 Y118.456 E1.20987
G1 X173.249 Y118.747 E1.21540
G1 X173.085 Y119.016 E1.22092
G1 X172.880 Y119.255 E1.22644
G1 X172.640 Y119.460 E1.23197
G1 X172.372 Y119.625 E1.23749
G1 X172.081 Y119.745 E1.24302
G1 X171.774 Y119.819 E1.24854
G1 X171.460 Y119.844 E1.25406
G1 X171.146 Y119.819 E1.25959
G1 X170.853 Y119.749 E1.26486
G1 X170.550 Y119.626 E1.27061
G1 X170.280 Y119.460 E1.27616
G1 X170.040 Y119.255 E1.28168
G1 X169.835 Y119.016 E1.28721
G1 X169.671 Y118.747 E1.29273
G1 X169.550 Y118.456 E1.29825
G1 X169.480 Y118.163 E1.30353
G1 X169.452 Y117.837 E1.30927
G1 X169.476 Y117.521 E1.31482
G1 X169.547 Y117.228 E1.32010
G1 X169.647 Y116.980 E1.32479
G1 X169.885 Y117.077 F18000.000
;TYPE:External perimeter
G1 F540.000
G1 X170.044 Y116.806 E1.33029
G1 X170.222 Y116.598 E1.33510
G1 X170.431 Y116.419 E1.33992
G1 X170.665 Y116.276 E1.34473
G1 X170.919 Y116.171 E1.34955
G1 X171.186 Y116.106 E1.35436
G1 X171.447 Y116.086 E1.35894
G1 X171.733 Y116.106 E1.36398
G1 X172.001 Y116.171 E1.36880
G1 X172.255 Y116.276 E1.37362
G1 X172.478 Y116.412 E1.37820
G1 X172.697 Y116.597 E1.38323
G1 X172.876 Y116.806 E1.38806
G1 X173.020 Y117.041 E1.39287
G1 X173.125 Y117.294 E1.39769
G1 X173.186 Y117.549 E1.40227
G1 X173.211 Y117.835 E1.40730
G1 X173.189 Y118.109 E1.41213
G1 X173.125 Y118.376 E1.41694
G1 X173.020 Y118.630 E1.42176
G1 X172.876 Y118.864 E1.42657
G1 X172.698 Y119.073 E1.43139
G1 X172.489 Y119.251 E1.43620
G1 X172.255 Y119.395 E1.44102
G1 X172.001 Y119.500 E1.44583
G1 X171.734 Y119.564 E1.45065
G1 X171.460 Y119.586 E1.45546
G1 X171.186 Y119.564 E1.46028
G1 X170.932 Y119.503 E1.46486
G1 X170.666 Y119.395 E1.46989
G1 X170.431 Y119.251 E1.47472
G1 X170.222 Y119.073 E1.47953
G1 X170.044 Y118.864 E1.48435
G1 X169.900 Y118.630 E1.48916
G1 X169.795 Y118.376 E1.49398
G1 X169.734 Y118.122 E1.49856
G1 X169.709 Y117.836 E1.50359
G1 X169.731 Y117.561 E1.50842
G1 X169.792 Y117.307 E1.51300
G1 X169.863 Y117.133 E1.51630
G1 X169.711 Y116.817 F18000.000
G1 E1.16630 F3600.000
;WIPE_START
G1 F14400.000
G1 X170.044 Y116.806 E1.07770
G1 X170.191 Y116.634 E1.02380
;WIPE_END
G1 E1.01630 F3600.000
G92 E0
G1 X171.065 Y105.328 F18000.000
G1 E0.58000 F2400.000
;TYPE:Perimeter
G1 F540.000
G1 X170.680 Y105.236 E0.58694
G1 X170.314 Y105.084 E0.59389
G1 X169.990 Y104.886 E0.60055
G1 X169.677 Y104.623 E0.60771
G1 X169.418 Y104.319 E0.61471
G1 X169.211 Y103.981 E0.62165
G1 X169.059 Y103.615 E0.62860
G1 X168.967 Y103.230 E0.63554
G1 X168.936 Y102.835 E0.64248
G1 X168.967 Y102.440 E0.64942
G1 X169.059 Y102.055 E0.65637
G1 X169.211 Y101.689 E0.66331
G1 X169.410 Y101.365 E0.66997
G1 X169.673 Y101.053 E0.67713
G1 X169.976 Y100.793 E0.68413
G1 X170.314 Y100.586 E0.69108
G1 X170.680 Y100.435 E0.69802
G1 X171.065 Y100.342 E0.70496
G1 X171.444 Y100.313 E0.71162
G1 X171.851 Y100.342 E0.71878
G1 X172.240 Y100.435 E0.72579
G1 X172.606 Y100.586 E0.73273
G1 X172.944 Y100.793 E0.73967
G1 X173.245 Y101.051 E0.74662
G1 X173.502 Y101.352 E0.75356
G1 X173.709 Y101.689 E0.76050
G1 X173.861 Y102.055 E0.76744
G1 X173.949 Y102.425 E0.77410
G1 X173.984 Y102.832 E0.78127
G1 X173.953 Y103.230 E0.78827
G1 X173.864 Y103.600 E0.79493
G1 X173.711 Y103.978 E0.80209
G1 X173.502 Y104.319 E0.80909
G1 X173.245 Y104.620 E0.81604
G1 X172.944 Y104.877 E0.82298
G1 X172.606 Y105.084 E0.82992
G1 X172.240 Y105.236 E0.83686
G1 X171.855 Y105.328 E0.84381
G1 X171.460 Y105.359 E0.85075
G1 X171.125 Y105.333 E0.85664
G1 X171.145 Y105.077 F18000.000
G1 F540.000
G1 X170.760 Y104.991 E0.86356
G1 X170.431 Y104.855 E0.86980
G1 X170.141 Y104.677 E0.87577
G1 X169.859 Y104.440 E0.88222
G1 X169.627 Y104.167 E0.88849
G1 X169.441 Y103.864 E0.89473
G1 X169.305 Y103.536 E0.90096
G1 X169.222 Y103.190 E0.90719
G1 X169.194 Y102.835 E0.91343
G1 X169.222 Y102.481 E0.91966
G1 X169.305 Y102.135 E0.92589
G1 X169.441 Y101.806 E0.93213
G1 X169.619 Y101.516 E0.93810
G1 X169.856 Y101.234 E0.94455
G1 X170.128 Y101.002 E0.95082
G1 X170.431 Y100.816 E0.95706
G1 X170.760 Y100.680 E0.96329
G1 X171.105 Y100.597 E0.96952
G1 X171.445 Y100.570 E0.97549
G1 X171.812 Y100.596 E0.98194
G1 X172.160 Y100.680 E0.98822
G1 X172.489 Y100.816 E0.99445
G1 X172.792 Y101.002 E1.00069
G1 X173.062 Y101.233 E1.00692
G1 X173.293 Y101.503 E1.01315
G1 X173.479 Y101.806 E1.01939
G1 X173.615 Y102.135 E1.02562
G1 X173.695 Y102.466 E1.03159
G1 X173.726 Y102.833 E1.03804
G1 X173.698 Y103.190 E1.04432
G1 X173.619 Y103.521 E1.05029
G1 X173.481 Y103.862 E1.05674
G1 X173.293 Y104.167 E1.06302
G1 X173.062 Y104.438 E1.06925
G1 X172.792 Y104.669 E1.07548
G1 X172.489 Y104.855 E1.08172
G1 X172.160 Y104.991 E1.08795
G1 X171.815 Y105.074 E1.09418
G1 X171.460 Y105.102 E1.10042
G1 X171.205 Y105.081 E1.10490
G1 X171.146 Y104.819 F18000.000
G1 F540.000
G1 X170.839 Y104.745 E1.11042
G1 X170.548 Y104.625 E1.11595
G1 X170.292 Y104.467 E1.12123
G1 X170.041 Y104.257 E1.12697
G1 X169.835 Y104.016 E1.13252
G1 X169.671 Y103.747 E1.13804
G1 X169.550 Y103.456 E1.14357
G1 X169.476 Y103.150 E1.14909
G1 X169.452 Y102.835 E1.15461
G1 X169.476 Y102.521 E1.16014
G1 X169.550 Y102.215 E1.16566
G1 X169.671 Y101.924 E1.17119
G1 X169.828 Y101.667 E1.17646
G1 X170.039 Y101.416 E1.18221
G1 X170.280 Y101.211 E1.18776
G1 X170.548 Y101.046 E1.19328
G1 X170.839 Y100.925 E1.19880
G1 X171.146 Y100.852 E1.20433
G1 X171.446 Y100.828 E1.20961
G1 X171.773 Y100.851 E1.21535
G1 X172.081 Y100.925 E1.22090
G1 X172.372 Y101.046 E1.22642
G1 X172.640 Y101.211 E1.23195
G1 X172.880 Y101.415 E1.23747
G1 X173.085 Y101.655 E1.24299
G1 X173.249 Y101.924 E1.24852
G1 X173.370 Y102.215 E1.25404
G1 X173.440 Y102.507 E1.25932
G1 X173.468 Y102.834 E1.26506
G1 X173.444 Y103.150 E1.27061
G1 X173.373 Y103.442 E1.27589
G1 X173.250 Y103.746 E1.28163
G1 X173.085 Y104.016 E1.28718
G1 X172.880 Y104.255 E1.29270
G1 X172.640 Y104.460 E1.29823
G1 X172.372 Y104.625 E1.30375
G1 X172.081 Y104.745 E1.30928
G1 X171.774 Y104.819 E1.31480
G1 X171.460 Y104.844 E1.32033
G1 X171.206 Y104.824 E1.32480
G1 X171.226 Y104.567 F18000.000
;TYPE:External perimeter
G1 F540.000
G1 X170.919 Y104.500 E1.33030
G1 X170.665 Y104.395 E1.33512
G1 X170.442 Y104.258 E1.33970
G1 X170.223 Y104.074 E1.34473
G1 X170.044 Y103.864 E1.34956
G1 X169.900 Y103.630 E1.35437
G1 X169.795 Y103.376 E1.35919
G1 X169.731 Y103.109 E1.36400
G1 X169.710 Y102.835 E1.36882
G1 X169.731 Y102.561 E1.37363
G1 X169.795 Y102.294 E1.37845
G1 X169.900 Y102.041 E1.38326
G1 X170.037 Y101.818 E1.38785
G1 X170.222 Y101.598 E1.39288
G1 X170.431 Y101.419 E1.39770
G1 X170.665 Y101.276 E1.40252
G1 X170.919 Y101.171 E1.40733
G1 X171.186 Y101.106 E1.41215
G1 X171.447 Y101.086 E1.41673
G1 X171.733 Y101.106 E1.42176
G1 X172.001 Y101.171 E1.42659
G1 X172.255 Y101.276 E1.43140
G1 X172.489 Y101.419 E1.43622
G1 X172.698 Y101.598 E1.44103
G1 X172.876 Y101.806 E1.44585
G1 X173.020 Y102.041 E1.45066
G1 X173.125 Y102.294 E1.45548
G1 X173.186 Y102.549 E1.46006
G1 X173.211 Y102.835 E1.46509
G1 X173.189 Y103.109 E1.46992
G1 X173.128 Y103.363 E1.47450
G1 X173.020 Y103.630 E1.47954
G1 X172.876 Y103.864 E1.48436
G1 X172.698 Y104.073 E1.48917
G1 X172.489 Y104.251 E1.49399
G1 X172.255 Y104.395 E1.49880
G1 X172.001 Y104.500 E1.50362
G1 X171.734 Y104.564 E1.50843
G1 X171.460 Y104.586 E1.51325
G1 X171.286 Y104.572 E1.51631
G1 X171.032 Y104.814 F18000.000
G1 E1.16631 F3600.000
;WIPE_START
G1 F14400.000
G1 X170.919 Y104.500 E1.07760
G1 X170.710 Y104.413 E1.02381
;WIPE_END
G1 E1.01631 F3600.000
G92 E0
G1 X166.381 Y104.572 F18000.000
G1 E0.58000 F2400.000
;TYPE:Perimeter
G1 F2700.000
G1 X166.381 Y101.354 E0.63640
G1 X166.399 Y100.918 E0.64406
G1 X166.456 Y100.477 E0.65185
G1 X166.537 Y100.089 E0.65880
G1 X166.657 Y99.687 E0.66616
G1 X166.810 Y99.296 E0.67352
G1 X166.994 Y98.918 E0.68087
G1 X167.208 Y98.559 E0.68820
G1 X167.468 Y98.199 E0.69599
G1 X167.724 Y97.896 E0.70294
G1 X168.019 Y97.601 E0.71027
G1 X168.360 Y97.315 E0.71806
G1 X168.683 Y97.084 E0.72501
G1 X169.043 Y96.869 E0.73237
G1 X169.420 Y96.685 E0.73972
G1 X169.811 Y96.532 E0.74708
G1 X170.213 Y96.413 E0.75444
G1 X170.624 Y96.327 E0.76179
G1 X171.039 Y96.275 E0.76912
G1 X171.483 Y96.258 E0.77691
G1 X171.879 Y96.275 E0.78386
G1 X172.296 Y96.327 E0.79122
G1 X172.707 Y96.413 E0.79858
G1 X173.109 Y96.532 E0.80593
G1 X173.500 Y96.685 E0.81329
G1 X173.877 Y96.869 E0.82065
G1 X174.237 Y97.084 E0.82800
G1 X174.579 Y97.328 E0.83536
G1 X174.899 Y97.599 E0.84272
G1 X175.196 Y97.896 E0.85007
G1 X175.467 Y98.216 E0.85743
G1 X175.711 Y98.558 E0.86479
G1 X175.926 Y98.918 E0.87214
G1 X176.110 Y99.296 E0.87950
G1 X176.263 Y99.687 E0.88686
G1 X176.383 Y100.089 E0.89421
G1 X176.469 Y100.500 E0.90157
G1 X176.521 Y100.916 E0.90893
G1 X176.539 Y101.354 E0.91662
G1 X176.539 Y119.316 E1.23146
G1 X176.521 Y119.753 E1.23912
G1 X176.464 Y120.194 E1.24691
G1 X176.383 Y120.582 E1.25386
G1 X176.263 Y120.984 E1.26122
G1 X176.110 Y121.375 E1.26858
G1 X175.926 Y121.752 E1.27593
G1 X175.711 Y122.113 E1.28329
G1 X175.467 Y122.454 E1.29065
G1 X175.196 Y122.775 E1.29800
G1 X174.901 Y123.070 E1.30533
G1 X174.560 Y123.356 E1.31312
G1 X174.237 Y123.586 E1.32007
G1 X173.877 Y123.801 E1.32743
G1 X173.500 Y123.986 E1.33479
G1 X173.109 Y124.138 E1.34214
G1 X172.708 Y124.257 E1.34947
G1 X172.273 Y124.347 E1.35726
G1 X171.879 Y124.396 E1.36421
G1 X171.460 Y124.413 E1.37157
G1 X171.041 Y124.396 E1.37892
G1 X170.624 Y124.344 E1.38628
G1 X170.213 Y124.258 E1.39364
G1 X169.811 Y124.138 E1.40099
G1 X169.420 Y123.986 E1.40835
G1 X169.043 Y123.801 E1.41571
G1 X168.683 Y123.586 E1.42306
G1 X168.341 Y123.343 E1.43042
G1 X168.021 Y123.071 E1.43778
G1 X167.724 Y122.775 E1.44513
G1 X167.453 Y122.454 E1.45249
G1 X167.209 Y122.113 E1.45985
G1 X166.994 Y121.752 E1.46720
G1 X166.810 Y121.375 E1.47456
G1 X166.657 Y120.984 E1.48192
G1 X166.537 Y120.582 E1.48927
G1 X166.451 Y120.171 E1.49663
G1 X166.399 Y119.755 E1.50399
G1 X166.381 Y119.316 E1.51168
G1 X166.381 Y104.632 E1.76907
G1 X166.124 Y104.632 F18000.000
G1 F2700.000
G1 X166.124 Y101.349 E1.82662
G1 X166.143 Y100.896 E1.83456
G1 X166.202 Y100.434 E1.84273
G1 X166.288 Y100.026 E1.85004
G1 X166.414 Y99.603 E1.85777
G1 X166.574 Y99.192 E1.86550
G1 X166.768 Y98.796 E1.87323
G1 X166.993 Y98.418 E1.88094
G1 X167.265 Y98.040 E1.88910
G1 X167.535 Y97.722 E1.89642
G1 X167.846 Y97.411 E1.90413
G1 X168.202 Y97.111 E1.91229
G1 X168.542 Y96.869 E1.91961
G1 X168.921 Y96.643 E1.92734
G1 X169.317 Y96.449 E1.93506
G1 X169.728 Y96.289 E1.94279
G1 X170.150 Y96.163 E1.95052
G1 X170.582 Y96.073 E1.95825
G1 X171.018 Y96.018 E1.96596
G1 X171.483 Y96.001 E1.97412
G1 X171.901 Y96.018 E1.98144
G1 X172.338 Y96.073 E1.98917
G1 X172.770 Y96.163 E1.99690
G1 X173.192 Y96.289 E2.00463
G1 X173.603 Y96.449 E2.01236
G1 X173.999 Y96.643 E2.02009
G1 X174.378 Y96.869 E2.02782
G1 X174.737 Y97.125 E2.03555
G1 X175.073 Y97.410 E2.04327
G1 X175.385 Y97.722 E2.05100
G1 X175.670 Y98.058 E2.05873
G1 X175.927 Y98.417 E2.06646
G1 X176.152 Y98.796 E2.07419
G1 X176.346 Y99.192 E2.08192
G1 X176.506 Y99.603 E2.08965
G1 X176.632 Y100.026 E2.09738
G1 X176.723 Y100.457 E2.10511
G1 X176.777 Y100.895 E2.11284
G1 X176.796 Y101.349 E2.12081
G1 X176.796 Y119.322 E2.43584
G1 X176.777 Y119.775 E2.44379
G1 X176.718 Y120.236 E2.45195
G1 X176.632 Y120.645 E2.45927
G1 X176.506 Y121.068 E2.46700
G1 X176.346 Y121.478 E2.47473
G1 X176.152 Y121.875 E2.48246
G1 X175.927 Y122.253 E2.49019
G1 X175.670 Y122.612 E2.49792
G1 X175.385 Y122.949 E2.50565
G1 X175.074 Y123.260 E2.51335
G1 X174.718 Y123.559 E2.52151
G1 X174.378 Y123.802 E2.52883
G1 X173.999 Y124.028 E2.53656
G1 X173.603 Y124.221 E2.54429
G1 X173.192 Y124.382 E2.55202
G1 X172.771 Y124.507 E2.55973
