; generated by PrusaSlicer 2.3.0+win64 on 2021-03-14 at 08:55:14 UTC

; 

; external perimeters extrusion width = 0.45mm
; perimeters extrusion width = 0.45mm
; infill extrusion width = 0.45mm
; solid infill extrusion width = 0.45mm
; top infill extrusion width = 0.40mm

M73 P0 R11
M73 Q0 S11
M201 X500 Y500 Z100 E5000 ; sets maximum accelerations, mm/sec^2
M203 X500 Y500 Z10 E60 ; sets maximum feedrates, mm/sec
M204 P500 R1000 T500 ; sets acceleration (P, T) and retract acceleration (R), mm/sec^2
M205 X8.00 Y8.00 Z0.40 E5.00 ; sets the jerk limits, mm/sec
M205 S0 T0 ; sets the minimum extruding and travel feed rate, mm/sec
M107
;TYPE:Custom
G90 ; use absolute coordinates
M83 ; extruder relative mode
M104 S205 ; set extruder temp
M140 S50 ; set bed temp
M190 S50 ; wait for bed temp
M109 S205 ; wait for extruder temp
M204 S600 ;acceleration
M220 S100 ;Reset Feedrate
M221 S100 ;Reset Flowrate
G28 ; home all
G29
G1 Z2 F240
G1 X2 Y10 F3000
G1 Z0.28 F240
G92 E0.0
G1 Y190 E15.0 F1500.0 ; intro line
M73 P1 R11
M73 Q1 S11
G1 X2.3 F5000
G1 Y10 E30 F1200.0 ; intro line
G92 E0.0
G21 ; set units to millimeters
G90 ; use absolute coordinates
M82 ; use absolute distances for extrusion
G92 E0
; Filament gcode
;LAYER_CHANGE
;Z:0.2
;HEIGHT:0.2
;BEFORE_LAYER_CHANGE
M117 INDICATOR-Layer1
;0.2


M73 P2 R10
M73 Q2 S10
G1 Z0.200 F18000.000
;AFTER_LAYER_CHANGE
;0.2
G1 E-0.50000 F3600.000
G92 E0
G1 X100.238 Y101.115 F18000.000
G1 E0.54000 F2400.000
;TYPE:External perimeter
;WIDTH:0.45
G1 F540.000
G1 X119.188 Y101.115 E1.18143
M73 P3 R10
M73 Q3 S10
G1 X119.188 Y120.065 E1.82287
G1 X100.238 Y120.065 E2.46430
G1 X100.238 Y101.175 E3.10371
M73 P4 R10
M73 Q4 S10
G1 E2.75371 F3600.000
;WIPE_START
G1 F14400.000
G1 X100.838 Y101.173 E2.61121
;WIPE_END
G1 E2.60371 F3600.000
G92 E0
G1 X118.241 Y101.237 F18000.000
G1 E0.54000 F2400.000
;TYPE:Solid infill
;WIDTH:0.450789
G1 F1800.000
G1 X118.883 Y101.878 E0.57076
G1 X118.883 Y102.455 E0.59033
G1 X117.848 Y101.420 E0.63997
G1 X117.271 Y101.420 E0.65953
G1 X118.883 Y103.032 E0.73684
G1 X118.883 Y103.609 E0.75640
G1 X116.694 Y101.420 E0.86137
G1 X116.117 Y101.420 E0.88093
G1 X118.883 Y104.185 E1.01357
G1 X118.883 Y104.762 E1.03314
G1 X115.540 Y101.420 E1.19344
G1 X114.964 Y101.420 E1.21300
G1 X118.883 Y105.339 E1.40097
G1 X118.883 Y105.916 E1.42053
G1 X114.387 Y101.420 E1.63617
G1 X113.810 Y101.420 E1.65573
G1 X118.883 Y106.493 E1.89903
G1 X118.883 Y107.069 E1.91859
G1 X113.233 Y101.420 E2.18956
G1 X112.656 Y101.420 E2.20912
G1 X118.883 Y107.646 E2.50775
G1 X118.883 Y108.223 E2.52731
G1 X112.080 Y101.420 E2.85361
G1 X111.503 Y101.420 E2.87317
G1 X118.883 Y108.800 E3.22713
G1 X118.883 Y109.377 E3.24669
G1 X110.926 Y101.420 E3.62832
G1 X110.349 Y101.420 E3.64788
G1 X118.883 Y109.954 E4.05717
G1 X118.883 Y110.530 E4.07673
G1 X109.772 Y101.420 E4.51369
G1 X109.195 Y101.420 E4.53325
G1 X118.883 Y111.107 E4.99787
M73 P5 R10
M73 Q5 S10
G1 X118.883 Y111.684 E5.01744
G1 X108.619 Y101.420 E5.50972
G1 X108.042 Y101.420 E5.52928
G1 X118.883 Y112.261 E6.04924
G1 X118.883 Y112.838 E6.06880
G1 X107.465 Y101.420 E6.61642
G1 X106.888 Y101.420 E6.63598
G1 X118.883 Y113.414 E7.21126
G1 X118.883 Y113.991 E7.23082
G1 X106.311 Y101.420 E7.83377
G1 X105.735 Y101.420 E7.85334
G1 X118.883 Y114.568 E8.48395
G1 X118.883 Y115.145 E8.50351
G1 X105.158 Y101.420 E9.16179
G1 X104.581 Y101.420 E9.18135
G1 X118.883 Y115.722 E9.86730
G1 X118.883 Y116.298 E9.88686
G1 X104.004 Y101.420 E10.60047
G1 X103.427 Y101.420 E10.62003
M73 P6 R10
M73 Q6 S10
G1 X118.883 Y116.875 E11.36131
G1 X118.883 Y117.452 E11.38087
G1 X102.850 Y101.420 E12.14981
G1 X102.274 Y101.420 E12.16937
G1 X118.883 Y118.029 E12.96598
G1 X118.883 Y118.606 E12.98554
G1 X101.697 Y101.420 E13.80981
G1 X101.120 Y101.420 E13.82937
G1 X118.883 Y119.183 E14.68131
G1 X118.883 Y119.759 E14.70087
G1 X100.543 Y101.420 E15.58047
G1 X100.543 Y101.997 E15.60003
G1 X118.306 Y119.759 E16.45196
G1 X117.729 Y119.759 E16.47152
G1 X100.543 Y102.574 E17.29579
M73 P7 R10
M73 Q7 S10
G1 X100.543 Y103.150 E17.31535
G1 X117.152 Y119.759 E18.11196
G1 X116.575 Y119.759 E18.13152
G1 X100.543 Y103.727 E18.90045
G1 X100.543 Y104.304 E18.92002
G1 X115.999 Y119.759 E19.66129
G1 X115.422 Y119.759 E19.68085
G1 X100.543 Y104.881 E20.39446
G1 X100.543 Y105.458 E20.41402
G1 X114.845 Y119.759 E21.09996
G1 X114.268 Y119.759 E21.11952
G1 X100.543 Y106.034 E21.77780
G1 X100.543 Y106.611 E21.79736
G1 X113.691 Y119.759 E22.42797
G1 X113.115 Y119.759 E22.44753
G1 X100.543 Y107.188 E23.05048
M73 P8 R10
M73 Q8 S10
G1 X100.543 Y107.765 E23.07004
G1 X112.538 Y119.759 E23.64532
G1 X111.961 Y119.759 E23.66488
G1 X100.543 Y108.342 E24.21249
G1 X100.543 Y108.919 E24.23206
G1 X111.384 Y119.759 E24.75200
G1 X110.807 Y119.759 E24.77157
G1 X100.543 Y109.495 E25.26385
G1 X100.543 Y110.072 E25.28341
G1 X110.230 Y119.759 E25.74803
G1 X109.654 Y119.759 E25.76759
G1 X100.543 Y110.649 E26.20454
G1 X100.543 Y111.226 E26.22411
G1 X109.077 Y119.759 E26.63339
G1 X108.500 Y119.759 E26.65296
G1 X100.543 Y111.803 E27.03458
G1 X100.543 Y112.379 E27.05414
G1 X107.923 Y119.759 E27.40810
G1 X107.346 Y119.759 E27.42766
G1 X100.543 Y112.956 E27.75395
G1 X100.543 Y113.533 E27.77351
G1 X106.770 Y119.759 E28.07214
G1 X106.193 Y119.759 E28.09170
G1 X100.543 Y114.110 E28.36266
G1 X100.543 Y114.687 E28.38223
G1 X105.616 Y119.759 E28.62552
G1 X105.039 Y119.759 E28.64508
G1 X100.543 Y115.263 E28.86071
M73 P9 R10
M73 Q9 S10
G1 X100.543 Y115.840 E28.88028
G1 X104.462 Y119.759 E29.06824
G1 X103.885 Y119.759 E29.08780
G1 X100.543 Y116.417 E29.24810
G1 X100.543 Y116.994 E29.26767
G1 X103.309 Y119.759 E29.40030
G1 X102.732 Y119.759 E29.41986
G1 X100.543 Y117.571 E29.52483
G1 X100.543 Y118.148 E29.54439
G1 X102.155 Y119.759 E29.62170
G1 X101.578 Y119.759 E29.64126
G1 X100.543 Y118.724 E29.69090
G1 X100.543 Y119.301 E29.71046
G1 X101.185 Y119.942 E29.74122
M106 S255
;LAYER_CHANGE
;Z:0.4
;HEIGHT:0.2
;BEFORE_LAYER_CHANGE
M117 INDICATOR-Layer2
;0.4


G1 Z0.400 F18000.000
;AFTER_LAYER_CHANGE
;0.4
G1 X101.185 Y120.365
;TYPE:External perimeter
;WIDTH:0.45
G1 F1800.000
G1 X99.938 Y120.365 E29.78342
G1 X99.938 Y100.815 E30.44516
G1 X119.488 Y100.815 E31.10691
G1 X119.488 Y120.365 E31.76865
G1 X101.245 Y120.365 E32.38617
G1 E32.03617 F3600.000
;WIPE_START
G1 F14400.000
G1 X100.645 Y120.365 E31.89367
;WIPE_END
G1 E31.88617 F3600.000
G92 E0
G1 X100.886 Y100.937 F18000.000
G1 E0.54000 F2400.000
;TYPE:Solid infill
;WIDTH:0.451278
G1 F6000.000
G1 X100.243 Y101.579 E0.57085
G1 X100.243 Y102.157 E0.59046
G1 X101.280 Y101.120 E0.64024
G1 X101.857 Y101.120 E0.65985
G1 X100.243 Y102.734 E0.73736
G1 X100.243 Y103.312 E0.75697
G1 X102.435 Y101.120 E0.86221
G1 X103.012 Y101.120 E0.88182
G1 X100.243 Y103.889 E1.01480
G1 X100.243 Y104.467 E1.03441
G1 X103.590 Y101.120 E1.19511
G1 X104.167 Y101.120 E1.21472
G1 X100.243 Y105.044 E1.40316
G1 X100.243 Y105.622 E1.42277
G1 X104.745 Y101.120 E1.63894
G1 X105.323 Y101.120 E1.65855
G1 X100.243 Y106.199 E1.90245
G1 X100.243 Y106.777 E1.92206
G1 X105.900 Y101.120 E2.19370
G1 X106.478 Y101.120 E2.21331
G1 X100.243 Y107.354 E2.51267
M73 P10 R10
M73 Q10 S10
G1 X100.243 Y107.932 E2.53228
G1 X107.055 Y101.120 E2.85938
G1 X107.633 Y101.120 E2.87899
G1 X100.243 Y108.509 E3.23382
G1 X100.243 Y109.087 E3.25343
G1 X108.210 Y101.120 E3.63599
G1 X108.788 Y101.120 E3.65560
G1 X100.243 Y109.664 E4.06589
G1 X100.243 Y110.242 E4.08550
G1 X109.365 Y101.120 E4.52352
G1 X109.943 Y101.120 E4.54313
G1 X100.243 Y110.819 E5.00889
G1 X100.243 Y111.397 E5.02850
G1 X110.520 Y101.120 E5.52199
G1 X111.098 Y101.120 E5.54160
G1 X100.243 Y111.974 E6.06282
G1 X100.243 Y112.552 E6.08242
G1 X111.675 Y101.120 E6.63138
G1 X112.253 Y101.120 E6.65099
G1 X100.243 Y113.129 E7.22767
G1 X100.243 Y113.707 E7.24728
G1 X112.830 Y101.120 E7.85169
G1 X113.408 Y101.120 E7.87130
G1 X100.243 Y114.284 E8.50345
G1 X100.243 Y114.862 E8.52306
G1 X113.985 Y101.120 E9.18293
G1 X114.563 Y101.120 E9.20254
G1 X100.243 Y115.439 E9.89015
G1 X100.243 Y116.017 E9.90976
G1 X115.140 Y101.120 E10.62510
G1 X115.718 Y101.120 E10.64471
G1 X100.243 Y116.594 E11.38779
G1 X100.243 Y117.172 E11.40740
G1 X116.295 Y101.120 E12.17820
G1 X116.873 Y101.120 E12.19781
G1 X100.243 Y117.749 E12.99635
M73 P11 R10
M73 Q11 S10
G1 X100.243 Y118.327 E13.01595
G1 X117.450 Y101.120 E13.84222
G1 X118.028 Y101.120 E13.86183
G1 X100.243 Y118.904 E14.71583
G1 X100.243 Y119.482 E14.73544
G1 X118.605 Y101.120 E15.61717
G1 X119.183 Y101.120 E15.63678
G1 X100.243 Y120.059 E16.54624
G1 X100.821 Y120.059 E16.56585
G1 X119.183 Y101.697 E17.44759
G1 X119.183 Y102.275 E17.46720
G1 X101.398 Y120.059 E18.32120
G1 X101.976 Y120.059 E18.34081
G1 X119.183 Y102.852 E19.16708
G1 X119.183 Y103.430 E19.18669
G1 X102.553 Y120.059 E19.98523
M73 P11 R9
M73 Q11 S9
G1 X103.131 Y120.059 E20.00484
G1 X119.183 Y104.007 E20.77565
G1 X119.183 Y104.585 E20.79526
G1 X103.708 Y120.059 E21.53833
G1 X104.286 Y120.059 E21.55794
G1 X119.183 Y105.162 E22.27329
G1 X119.183 Y105.740 E22.29290
G1 X104.863 Y120.059 E22.98051
G1 X105.441 Y120.059 E23.00012
G1 X119.183 Y106.317 E23.66000
G1 X119.183 Y106.895 E23.67961
G1 X106.018 Y120.059 E24.31176
G1 X106.596 Y120.059 E24.33137
M73 P12 R9
M73 Q12 S9
G1 X119.183 Y107.472 E24.93579
G1 X119.183 Y108.050 E24.95540
G1 X107.173 Y120.059 E25.53209
G1 X107.751 Y120.059 E25.55169
G1 X119.183 Y108.627 E26.10065
G1 X119.183 Y109.205 E26.12026
G1 X108.328 Y120.059 E26.64148
G1 X108.906 Y120.059 E26.66109
G1 X119.183 Y109.782 E27.15458
G1 X119.183 Y110.360 E27.17419
G1 X109.483 Y120.059 E27.63995
G1 X110.061 Y120.059 E27.65956
G1 X119.183 Y110.937 E28.09759
G1 X119.183 Y111.515 E28.11720
G1 X110.638 Y120.059 E28.52750
G1 X111.216 Y120.059 E28.54711
G1 X119.183 Y112.092 E28.92967
G1 X119.183 Y112.670 E28.94928
G1 X111.793 Y120.059 E29.30411
G1 X112.371 Y120.059 E29.32372
G1 X119.183 Y113.247 E29.65082
G1 X119.183 Y113.825 E29.67043
G1 X112.948 Y120.059 E29.96980
G1 X113.526 Y120.059 E29.98941
G1 X119.183 Y114.402 E30.26105
G1 X119.183 Y114.980 E30.28066
G1 X114.103 Y120.059 E30.52457
G1 X114.681 Y120.059 E30.54418
G1 X119.183 Y115.558 E30.76035
G1 X119.183 Y116.135 E30.77996
G1 X115.258 Y120.059 E30.96840
G1 X115.836 Y120.059 E30.98801
G1 X119.183 Y116.713 E31.14872
G1 X119.183 Y117.290 E31.16833
G1 X116.413 Y120.059 E31.30131
G1 X116.991 Y120.059 E31.32092
G1 X119.183 Y117.868 E31.42617
G1 X119.183 Y118.445 E31.44578
G1 X117.568 Y120.059 E31.52330
G1 X118.146 Y120.059 E31.54291
G1 X119.183 Y119.023 E31.59269
G1 X119.183 Y119.600 E31.61230
G1 X118.540 Y120.242 E31.64315
;LAYER_CHANGE
;Z:0.6
;HEIGHT:0.2
;BEFORE_LAYER_CHANGE
M117 INDICATOR-Layer3
;0.6


G1 Z0.600 F18000.000
;AFTER_LAYER_CHANGE
;0.6
G1 X118.540 Y120.365
;TYPE:External perimeter
;WIDTH:0.45
G1 F1800.000
G1 X99.938 Y120.365 E32.27281
M73 P13 R9
M73 Q13 S9
G1 X99.938 Y100.815 E32.93456
G1 X119.488 Y100.815 E33.59630
G1 X119.488 Y120.365 E34.25805
G1 X118.600 Y120.365 E34.28810
G1 E33.93810 F3600.000
;WIPE_START
G1 F14400.000
G1 X118.000 Y120.365 E33.79560
;WIPE_END
G1 E33.78810 F3600.000
G92 E0
G1 X119.366 Y101.762 F18000.000
G1 E0.54000 F2400.000
;TYPE:Solid infill
;WIDTH:0.451278
G1 F6000.000
G1 X118.723 Y101.120 E0.57085
G1 X118.146 Y101.120 E0.59046
G1 X119.183 Y102.157 E0.64024
G1 X119.183 Y102.734 E0.65985
G1 X117.568 Y101.120 E0.73737
G1 X116.991 Y101.120 E0.75698
G1 X119.183 Y103.312 E0.86223
G1 X119.183 Y103.889 E0.88184
G1 X116.413 Y101.120 E1.01482
G1 X115.836 Y101.120 E1.03443
G1 X119.183 Y104.467 E1.19514
G1 X119.183 Y105.044 E1.21475
G1 X115.258 Y101.120 E1.40319
G1 X114.681 Y101.120 E1.42280
G1 X119.183 Y105.622 E1.63897
G1 X119.183 Y106.199 E1.65858
G1 X114.103 Y101.120 E1.90249
G1 X113.526 Y101.120 E1.92210
G1 X119.183 Y106.777 E2.19374
G1 X119.183 Y107.354 E2.21335
G1 X112.948 Y101.120 E2.51272
G1 X112.371 Y101.120 E2.53233
G1 X119.183 Y107.932 E2.85943
G1 X119.183 Y108.509 E2.87904
G1 X111.793 Y101.120 E3.23387
G1 X111.216 Y101.120 E3.25348
G1 X119.183 Y109.087 E3.63604
G1 X119.183 Y109.664 E3.65565
G1 X110.638 Y101.120 E4.06595
G1 X110.061 Y101.120 E4.08556
G1 X119.183 Y110.242 E4.52359
G1 X119.183 Y110.819 E4.54320
G1 X109.483 Y101.120 E5.00896
M73 P14 R9
M73 Q14 S9
G1 X108.906 Y101.120 E5.02857
G1 X119.183 Y111.397 E5.52206
G1 X119.183 Y111.974 E5.54167
G1 X108.328 Y101.120 E6.06289
G1 X107.751 Y101.120 E6.08250
G1 X119.183 Y112.552 E6.63145
G1 X119.183 Y113.129 E6.65106
G1 X107.173 Y101.120 E7.22775
G1 X106.596 Y101.120 E7.24736
G1 X119.183 Y113.707 E7.85178
G1 X119.183 Y114.284 E7.87139
G1 X106.018 Y101.120 E8.50354
G1 X105.441 Y101.120 E8.52315
G1 X119.183 Y114.862 E9.18303
G1 X119.183 Y115.439 E9.20264
G1 X104.863 Y101.120 E9.89025
G1 X104.286 Y101.120 E9.90986
G1 X119.183 Y116.017 E10.62521
G1 X119.183 Y116.594 E10.64482
G1 X103.708 Y101.120 E11.38789
G1 X103.131 Y101.120 E11.40750
G1 X119.183 Y117.172 E12.17831
G1 X119.183 Y117.749 E12.19792
G1 X102.553 Y101.120 E12.99646
G1 X101.976 Y101.120 E13.01607
G1 X119.183 Y118.327 E13.84234
G1 X119.183 Y118.904 E13.86195
G1 X101.398 Y101.120 E14.71595
G1 X100.821 Y101.120 E14.73556
G1 X119.183 Y119.482 E15.61730
G1 X119.183 Y120.059 E15.63691
G1 X100.243 Y101.120 E16.54637
M73 P15 R9
M73 Q15 S9
G1 X100.243 Y101.697 E16.56598
G1 X118.605 Y120.059 E17.44771
G1 X118.028 Y120.059 E17.46732
G1 X100.243 Y102.275 E18.32132
G1 X100.243 Y102.852 E18.34093
G1 X117.450 Y120.059 E19.16720
G1 X116.873 Y120.059 E19.18680
G1 X100.243 Y103.430 E19.98534
G1 X100.243 Y104.007 E20.00495
G1 X116.295 Y120.059 E20.77575
G1 X115.718 Y120.059 E20.79536
G1 X100.243 Y104.585 E21.53844
G1 X100.243 Y105.162 E21.55805
G1 X115.140 Y120.059 E22.27339
G1 X114.563 Y120.059 E22.29300
G1 X100.243 Y105.740 E22.98061
G1 X100.243 Y106.317 E23.00022
G1 X113.985 Y120.059 E23.66009
G1 X113.408 Y120.059 E23.67970
G1 X100.243 Y106.895 E24.31185
G1 X100.243 Y107.473 E24.33146
G1 X112.830 Y120.059 E24.93587
G1 X112.253 Y120.059 E24.95548
G1 X100.243 Y108.050 E25.53216
G1 X100.243 Y108.628 E25.55177
G1 X111.675 Y120.059 E26.10072
G1 X111.098 Y120.059 E26.12033
G1 X100.243 Y109.205 E26.64155
G1 X100.243 Y109.783 E26.66116
G1 X110.520 Y120.059 E27.15465
G1 X109.943 Y120.059 E27.17426
G1 X100.243 Y110.360 E27.64002
M73 P16 R9
M73 Q16 S9
G1 X100.243 Y110.938 E27.65963
G1 X109.365 Y120.059 E28.09765
G1 X108.788 Y120.059 E28.11726
G1 X100.243 Y111.515 E28.52755
G1 X100.243 Y112.093 E28.54716
G1 X108.210 Y120.059 E28.92972
G1 X107.633 Y120.059 E28.94933
G1 X100.243 Y112.670 E29.30416
G1 X100.243 Y113.248 E29.32377
G1 X107.055 Y120.059 E29.65087
G1 X106.478 Y120.059 E29.67048
G1 X100.243 Y113.825 E29.96984
G1 X100.243 Y114.403 E29.98945
G1 X105.900 Y120.059 E30.26109
G1 X105.323 Y120.059 E30.28070
G1 X100.243 Y114.980 E30.52460
G1 X100.243 Y115.558 E30.54421
G1 X104.745 Y120.059 E30.76038
G1 X104.167 Y120.059 E30.77999
G1 X100.243 Y116.135 E30.96843
G1 X100.243 Y116.713 E30.98804
G1 X103.590 Y120.059 E31.14874
G1 X103.012 Y120.059 E31.16835
G1 X100.243 Y117.290 E31.30133
G1 X100.243 Y117.868 E31.32094
G1 X102.435 Y120.059 E31.42618
G1 X101.857 Y120.059 E31.44579
G1 X100.243 Y118.445 E31.52330
G1 X100.243 Y119.023 E31.54291
G1 X101.280 Y120.059 E31.59269
G1 X100.702 Y120.059 E31.61230
G1 X100.060 Y119.417 E31.64315
;LAYER_CHANGE
;Z:0.8
;HEIGHT:0.2
;BEFORE_LAYER_CHANGE
M117 INDICATOR-Layer4
;0.8


G1 Z0.800 F18000.000
;AFTER_LAYER_CHANGE
;0.8
G1 X99.938 Y119.417
;TYPE:External perimeter
;WIDTH:0.45
G1 F1800.000
G1 X99.938 Y100.815 E32.27282
G1 X119.488 Y100.815 E32.93456
G1 X119.488 Y120.365 E33.59631
G1 X99.938 Y120.365 E34.25805
M73 P17 R9
M73 Q17 S9
G1 X99.938 Y119.477 E34.28810
G1 E33.93810 F3600.000
;WIPE_START
G1 F14400.000
G1 X99.938 Y118.877 E33.79560
;WIPE_END
G1 E33.78810 F3600.000
G92 E0
G1 X119.368 Y119.517 F18000.000
G1 E0.54000 F2400.000
;TYPE:Top solid infill
;WIDTH:0.40292
G1 F3000.000
G1 X118.801 Y120.084 E0.56402
G1 X118.292 Y120.084 E0.57926
G1 X119.208 Y119.169 E0.61803
G1 X119.208 Y118.659 E0.63327
G1 X117.783 Y120.084 E0.69359
G1 X117.274 Y120.084 E0.70883
G1 X119.208 Y118.150 E0.79070
G1 X119.208 Y117.641 E0.80594
G1 X116.765 Y120.084 E0.90937
G1 X116.255 Y120.084 E0.92461
G1 X119.208 Y117.132 E1.04958
