; generated by PrusaSlicer 2.3.0+win64 on 2021-03-13 at 12:05:57 UTC

; 

; external perimeters extrusion width = 0.45mm
; perimeters extrusion width = 0.45mm
; infill extrusion width = 0.45mm
; solid infill extrusion width = 0.45mm
; top infill extrusion width = 0.40mm
; first layer extrusion width = 0.30mm

M73 P0 R60
M73 Q0 S60
M201 X500 Y500 Z100 E5000 ; sets maximum accelerations, mm/sec^2
M203 X500 Y500 Z10 E60 ; sets maximum feedrates, mm/sec
M204 P500 R1000 T500 ; sets acceleration (P, T) and retract acceleration (R), mm/sec^2
M205 X8.00 Y8.00 Z0.40 E5.00 ; sets the jerk limits, mm/sec
M205 S0 T0 ; sets the minimum extruding and travel feed rate, mm/sec
M107
;TYPE:Custom
G90 ; use absolute coordinates
M83 ; extruder relative mode
M104 S195 ; set extruder temp
M140 S50 ; set bed temp
M190 S50 ; wait for bed temp
M109 S195 ; wait for extruder temp
M204 S600 ;acceleration
M220 S100 ;Reset Feedrate
M221 S100 ;Reset Flowrate
G28 ; home all
G29
G1 Z2 F240
M73 P0 R59
M73 Q0 S59
G1 X2 Y10 F3000
G1 Z0.28 F240
G92 E0.0
G1 Y190 E15.0 F1500.0 ; intro line
G1 X2.3 F5000
G1 Y10 E30 F1200.0 ; intro line
G92 E0.0
G21 ; set units to millimeters
G90 ; use absolute coordinates
M82 ; use absolute distances for extrusion
G92 E0
; Filament gcode
;LAYER_CHANGE
;Z:0.2
;HEIGHT:0.2
;BEFORE_LAYER_CHANGE
M117 INDICATOR-Layer1
;0.2


G1 E-0.50000 F3600.000
G92 E0
G1 Z0.200 F18000.000
;AFTER_LAYER_CHANGE
;0.2
G1 X93.822 Y95.893
G1 E0.54000 F2400.000
;TYPE:Perimeter
;WIDTH:0.3
G1 F2700.000
G1 X93.822 Y124.294 E1.03783
G1 X91.178 Y124.294 E1.08417
G1 X91.178 Y99.558 E1.51776
G1 X91.201 Y99.128 E1.52531
G1 X91.263 Y98.733 E1.53232
G1 X91.367 Y98.347 E1.53933
G1 X91.510 Y97.973 E1.54634
G1 X91.692 Y97.617 E1.55335
G1 X91.909 Y97.282 E1.56035
G1 X92.161 Y96.971 E1.56736
G1 X92.444 Y96.688 E1.57437
G1 X92.755 Y96.437 E1.58138
G1 X93.090 Y96.219 E1.58839
G1 X93.446 Y96.037 E1.59540
G1 X93.766 Y95.915 E1.60140
G1 X94.079 Y95.559 F18000.000
G1 F2700.000
G1 X94.079 Y124.552 E2.10960
G1 X90.921 Y124.552 E2.16495
G1 X90.921 Y99.551 E2.60317
G1 X90.945 Y99.101 E2.61107
G1 X91.012 Y98.679 E2.61855
G1 X91.122 Y98.267 E2.62603
G1 X91.275 Y97.869 E2.63351
G1 X91.469 Y97.488 E2.64099
G1 X91.701 Y97.131 E2.64847
G1 X91.970 Y96.799 E2.65596
G1 X92.272 Y96.497 E2.66344
G1 X92.603 Y96.228 E2.67092
G1 X92.961 Y95.996 E2.67840
G1 X93.342 Y95.802 E2.68588
G1 X93.740 Y95.649 E2.69336
G1 X94.021 Y95.574 E2.69846
G1 X94.336 Y95.249 F18000.000
G1 F2700.000
G1 X94.336 Y124.809 E3.21659
G1 X90.664 Y124.809 E3.28095
G1 X90.664 Y99.545 E3.72379
G1 X90.689 Y99.074 E3.73205
G1 X90.760 Y98.626 E3.74000
G1 X90.877 Y98.188 E3.74795
G1 X91.040 Y97.764 E3.75591
G1 X91.246 Y97.360 E3.76386
G1 X91.493 Y96.979 E3.77181
G1 X91.779 Y96.627 E3.77977
G1 X92.099 Y96.306 E3.78772
G1 X92.452 Y96.020 E3.79567
G1 X92.833 Y95.773 E3.80363
G1 X93.237 Y95.567 E3.81158
G1 X93.660 Y95.404 E3.81953
G1 X94.099 Y95.287 E3.82749
G1 X94.277 Y95.259 E3.83064
G1 X94.593 Y94.948 F18000.000
G1 F2700.000
G1 X94.593 Y125.066 E4.35856
G1 X90.407 Y125.066 E4.43193
G1 X90.407 Y99.538 E4.87939
G1 X90.433 Y99.047 E4.88801
G1 X90.508 Y98.572 E4.89643
G1 X90.632 Y98.108 E4.90486
G1 X90.805 Y97.659 E4.91328
G1 X91.023 Y97.231 E4.92171
G1 X91.285 Y96.828 E4.93014
G1 X91.587 Y96.454 E4.93856
G1 X91.927 Y96.114 E4.94699
G1 X92.301 Y95.812 E4.95541
G1 X92.704 Y95.550 E4.96384
G1 X93.132 Y95.332 E4.97226
G1 X93.581 Y95.160 E4.98069
G1 X94.045 Y95.035 E4.98912
G1 X94.534 Y94.958 E4.99779
G1 X94.850 Y94.685 F18000.000
;TYPE:External perimeter
G1 F540.000
G1 X94.850 Y125.323 E5.53482
G1 X90.150 Y125.323 E5.61720
G1 X90.150 Y99.531 E6.06929
G1 X90.177 Y99.020 E6.07826
G1 X90.256 Y98.519 E6.08715
G1 X90.388 Y98.029 E6.09605
G1 X90.570 Y97.555 E6.10495
G1 X90.800 Y97.102 E6.11385
G1 X91.076 Y96.677 E6.12275
G1 X91.396 Y96.282 E6.13165
G1 X91.755 Y95.923 E6.14054
G1 X92.149 Y95.604 E6.14944
G1 X92.575 Y95.327 E6.15834
G1 X93.027 Y95.097 E6.16724
G1 X93.501 Y94.915 E6.17614
G1 X93.992 Y94.783 E6.18503
G1 X94.493 Y94.704 E6.19393
G1 X94.790 Y94.688 E6.19915
G1 X94.663 Y95.039 F18000.000
G1 E5.84915 F3600.000
;WIPE_START
G1 F14400.000
G1 X94.791 Y95.288 E5.70665
;WIPE_END
G1 E5.69915 F3600.000
G92 E0
G1 X93.745 Y96.523 F18000.000
G1 E0.54000 F2400.000
;TYPE:Solid infill
;WIDTH:0.301841
G1 F1800.000
G1 X93.465 Y96.244 E0.54697
G1 X93.223 Y96.368 E0.55178
G1 X93.629 Y96.774 E0.56191
G1 X93.629 Y97.140 E0.56838
G1 X92.998 Y96.509 E0.58414
G1 X92.784 Y96.661 E0.58877
G1 X93.629 Y97.506 E0.60987
G1 X93.629 Y97.872 E0.61633
G1 X92.582 Y96.825 E0.64248
G1 X92.398 Y97.007 E0.64705
G1 X93.629 Y98.238 E0.67779
G1 X93.629 Y98.605 E0.68426
G1 X92.224 Y97.200 E0.71933
G1 X92.061 Y97.403 E0.72393
G1 X93.629 Y98.971 E0.76307
G1 X93.629 Y99.337 E0.76954
G1 X91.917 Y97.625 E0.81229
G1 X91.785 Y97.859 E0.81703
G1 X93.629 Y99.703 E0.86307
G1 X93.629 Y100.069 E0.86954
G1 X91.666 Y98.106 E0.91855
G1 X91.564 Y98.371 E0.92355
G1 X93.629 Y100.435 E0.97510
G1 X93.629 Y100.802 E0.98156
G1 X91.484 Y98.656 E1.03513
G1 X91.422 Y98.961 E1.04062
G1 X93.629 Y101.168 E1.09571
G1 X93.629 Y101.534 E1.10217
G1 X91.385 Y99.290 E1.15818
G1 X91.371 Y99.642 E1.16440
G1 X93.629 Y101.900 E1.22077
G1 X93.629 Y102.266 E1.22723
G1 X91.371 Y100.008 E1.28360
G1 X91.371 Y100.375 E1.29007
G1 X93.629 Y102.632 E1.34644
G1 X93.629 Y102.999 E1.35290
G1 X91.371 Y100.741 E1.40927
G1 X91.371 Y101.107 E1.41573
G1 X93.629 Y103.365 E1.47210
G1 X93.629 Y103.731 E1.47857
G1 X91.371 Y101.473 E1.53494
G1 X91.371 Y101.839 E1.54140
M73 P1 R59
M73 Q1 S59
G1 X93.629 Y104.097 E1.59777
G1 X93.629 Y104.463 E1.60424
G1 X91.371 Y102.205 E1.66061
G1 X91.371 Y102.572 E1.66707
G1 X93.629 Y104.829 E1.72344
G1 X93.629 Y105.196 E1.72990
G1 X91.371 Y102.938 E1.78627
G1 X91.371 Y103.304 E1.79274
G1 X93.629 Y105.562 E1.84911
G1 X93.629 Y105.928 E1.85557
G1 X91.371 Y103.670 E1.91194
G1 X91.371 Y104.036 E1.91841
G1 X93.629 Y106.294 E1.97477
G1 X93.629 Y106.660 E1.98124
G1 X91.371 Y104.402 E2.03761
G1 X91.371 Y104.769 E2.04407
G1 X93.629 Y107.026 E2.10044
G1 X93.629 Y107.393 E2.10691
G1 X91.371 Y105.135 E2.16328
G1 X91.371 Y105.501 E2.16974
G1 X93.629 Y107.759 E2.22611
G1 X93.629 Y108.125 E2.23257
G1 X91.371 Y105.867 E2.28894
G1 X91.371 Y106.233 E2.29541
G1 X93.629 Y108.491 E2.35178
G1 X93.629 Y108.857 E2.35824
G1 X91.371 Y106.600 E2.41461
G1 X91.371 Y106.966 E2.42108
G1 X93.629 Y109.223 E2.47745
G1 X93.629 Y109.590 E2.48391
G1 X91.371 Y107.332 E2.54028
G1 X91.371 Y107.698 E2.54674
G1 X93.629 Y109.956 E2.60311
G1 X93.629 Y110.322 E2.60958
G1 X91.371 Y108.064 E2.66595
G1 X91.371 Y108.430 E2.67241
G1 X93.629 Y110.688 E2.72878
G1 X93.629 Y111.054 E2.73524
G1 X91.371 Y108.797 E2.79161
G1 X91.371 Y109.163 E2.79808
G1 X93.629 Y111.420 E2.85445
G1 X93.629 Y111.787 E2.86091
G1 X91.371 Y109.529 E2.91728
G1 X91.371 Y109.895 E2.92375
G1 X93.629 Y112.153 E2.98012
G1 X93.629 Y112.519 E2.98658
G1 X91.371 Y110.261 E3.04295
G1 X91.371 Y110.627 E3.04941
G1 X93.629 Y112.885 E3.10578
G1 X93.629 Y113.251 E3.11225
G1 X91.371 Y110.994 E3.16862
G1 X91.371 Y111.360 E3.17508
G1 X93.629 Y113.618 E3.23145
G1 X93.629 Y113.984 E3.23792
G1 X91.371 Y111.726 E3.29428
G1 X91.371 Y112.092 E3.30075
G1 X93.629 Y114.350 E3.35712
G1 X93.629 Y114.716 E3.36358
G1 X91.371 Y112.458 E3.41995
G1 X91.371 Y112.824 E3.42642
G1 X93.629 Y115.082 E3.48279
G1 X93.629 Y115.448 E3.48925
G1 X91.371 Y113.191 E3.54562
G1 X91.371 Y113.557 E3.55208
G1 X93.629 Y115.815 E3.60845
G1 X93.629 Y116.181 E3.61492
G1 X91.371 Y113.923 E3.67129
G1 X91.371 Y114.289 E3.67775
G1 X93.629 Y116.547 E3.73412
G1 X93.629 Y116.913 E3.74059
G1 X91.371 Y114.655 E3.79696
G1 X91.371 Y115.021 E3.80342
G1 X93.629 Y117.279 E3.85979
G1 X93.629 Y117.645 E3.86625
G1 X91.371 Y115.388 E3.92262
G1 X91.371 Y115.754 E3.92909
G1 X93.629 Y118.012 E3.98546
G1 X93.629 Y118.378 E3.99192
G1 X91.371 Y116.120 E4.04829
G1 X91.371 Y116.486 E4.05475
G1 X93.629 Y118.744 E4.11112
G1 X93.629 Y119.110 E4.11759
G1 X91.371 Y116.852 E4.17396
G1 X91.371 Y117.218 E4.18042
G1 X93.629 Y119.476 E4.23679
G1 X93.629 Y119.842 E4.24326
G1 X91.371 Y117.585 E4.29963
G1 X91.371 Y117.951 E4.30609
G1 X93.629 Y120.209 E4.36246
G1 X93.629 Y120.575 E4.36892
G1 X91.371 Y118.317 E4.42529
G1 X91.371 Y118.683 E4.43176
G1 X93.629 Y120.941 E4.48813
G1 X93.629 Y121.307 E4.49459
G1 X91.371 Y119.049 E4.55096
G1 X91.371 Y119.415 E4.55743
G1 X93.629 Y121.673 E4.61379
G1 X93.629 Y122.039 E4.62026
G1 X91.371 Y119.782 E4.67663
G1 X91.371 Y120.148 E4.68309
G1 X93.629 Y122.406 E4.73946
G1 X93.629 Y122.772 E4.74593
G1 X91.371 Y120.514 E4.80230
G1 X91.371 Y120.880 E4.80876
G1 X93.629 Y123.138 E4.86513
G1 X93.629 Y123.504 E4.87159
G1 X91.371 Y121.246 E4.92796
G1 X91.371 Y121.612 E4.93443
G1 X93.629 Y123.870 E4.99080
G1 X93.629 Y124.102 E4.99488
G1 X93.494 Y124.102 E4.99726
G1 X91.371 Y121.979 E5.05027
G1 X91.371 Y122.345 E5.05673
G1 X93.128 Y124.102 E5.10060
G1 X92.762 Y124.102 E5.10706
G1 X91.371 Y122.711 E5.14178
G1 X91.371 Y123.077 E5.14825
G1 X92.396 Y124.102 E5.17382
G1 X92.029 Y124.102 E5.18029
G1 X91.371 Y123.443 E5.19673
G1 X91.371 Y123.809 E5.20319
G1 X91.779 Y124.217 E5.21337
G1 E4.86337 F3600.000
;WIPE_START
G1 F14400.000
G1 X91.371 Y123.809 E4.72637
G1 X91.371 Y123.786 E4.72087
;WIPE_END
G1 E4.71337 F3600.000
G92 E0
G1 X126.178 Y124.107 F18000.000
G1 E0.54000 F2400.000
;TYPE:Perimeter
;WIDTH:0.3
G1 F2700.000
G1 X126.178 Y95.706 E1.03783
G1 X128.822 Y95.706 E1.08417
G1 X128.822 Y120.442 E1.51776
G1 X128.799 Y120.872 E1.52531
G1 X128.737 Y121.267 E1.53232
G1 X128.633 Y121.653 E1.53933
G1 X128.490 Y122.027 E1.54634
G1 X128.308 Y122.383 E1.55335
G1 X128.091 Y122.718 E1.56035
G1 X127.839 Y123.029 E1.56736
G1 X127.556 Y123.312 E1.57437
G1 X127.245 Y123.563 E1.58138
G1 X126.910 Y123.781 E1.58839
G1 X126.554 Y123.963 E1.59540
G1 X126.234 Y124.085 E1.60140
G1 X125.921 Y124.441 F18000.000
G1 F2700.000
G1 X125.921 Y95.448 E2.10960
G1 X129.079 Y95.448 E2.16495
G1 X129.079 Y120.449 E2.60317
G1 X129.055 Y120.899 E2.61107
G1 X128.988 Y121.321 E2.61855
G1 X128.878 Y121.733 E2.62603
G1 X128.725 Y122.131 E2.63351
G1 X128.531 Y122.512 E2.64100
G1 X128.299 Y122.869 E2.64848
G1 X128.030 Y123.201 E2.65596
G1 X127.728 Y123.503 E2.66344
G1 X127.397 Y123.772 E2.67092
G1 X127.039 Y124.004 E2.67840
G1 X126.658 Y124.198 E2.68588
G1 X126.260 Y124.351 E2.69336
G1 X125.979 Y124.426 E2.69846
G1 X125.664 Y124.751 F18000.000
G1 F2700.000
G1 X125.664 Y95.191 E3.21659
G1 X129.336 Y95.191 E3.28095
G1 X129.336 Y120.455 E3.72379
G1 X129.311 Y120.926 E3.73205
G1 X129.240 Y121.374 E3.74000
G1 X129.123 Y121.812 E3.74796
G1 X128.960 Y122.236 E3.75591
G1 X128.754 Y122.640 E3.76386
G1 X128.507 Y123.021 E3.77181
G1 X128.221 Y123.373 E3.77977
G1 X127.901 Y123.694 E3.78772
G1 X127.548 Y123.980 E3.79568
G1 X127.167 Y124.227 E3.80363
G1 X126.763 Y124.433 E3.81158
G1 X126.340 Y124.596 E3.81954
G1 X125.901 Y124.713 E3.82749
G1 X125.723 Y124.741 E3.83065
G1 X125.407 Y125.052 F18000.000
G1 F2700.000
G1 X125.407 Y94.934 E4.35856
G1 X129.593 Y94.934 E4.43193
G1 X129.593 Y120.462 E4.87940
G1 X129.567 Y120.953 E4.88801
G1 X129.492 Y121.428 E4.89643
G1 X129.368 Y121.892 E4.90486
G1 X129.195 Y122.341 E4.91329
G1 X128.977 Y122.769 E4.92171
G1 X128.715 Y123.172 E4.93014
G1 X128.413 Y123.546 E4.93856
G1 X128.073 Y123.886 E4.94699
G1 X127.699 Y124.188 E4.95541
G1 X127.296 Y124.450 E4.96384
G1 X126.868 Y124.668 E4.97227
G1 X126.419 Y124.840 E4.98069
G1 X125.955 Y124.965 E4.98912
G1 X125.466 Y125.042 E4.99779
G1 X125.150 Y125.315 F18000.000
;TYPE:External perimeter
G1 F540.000
G1 X125.150 Y94.677 E5.53482
G1 X129.850 Y94.677 E5.61720
G1 X129.850 Y120.469 E6.06929
G1 X129.823 Y120.980 E6.07826
G1 X129.744 Y121.481 E6.08716
G1 X129.612 Y121.971 E6.09606
G1 X129.430 Y122.445 E6.10495
G1 X129.200 Y122.898 E6.11385
G1 X128.924 Y123.323 E6.12275
G1 X128.604 Y123.718 E6.13165
G1 X128.245 Y124.077 E6.14054
G1 X127.851 Y124.396 E6.14944
G1 X127.425 Y124.673 E6.15834
G1 X126.973 Y124.903 E6.16724
G1 X126.499 Y125.085 E6.17614
G1 X126.008 Y125.217 E6.18504
G1 X125.507 Y125.296 E6.19394
M73 P1 R58
M73 Q1 S58
G1 X125.210 Y125.312 E6.19915
G1 X125.337 Y124.961 F18000.000
G1 E5.84915 F3600.000
;WIPE_START
G1 F14400.000
G1 X125.209 Y124.712 E5.70665
;WIPE_END
G1 E5.69915 F3600.000
G92 E0
G1 X128.221 Y95.783 F18000.000
G1 E0.54000 F2400.000
;TYPE:Solid infill
;WIDTH:0.301841
G1 F1800.000
G1 X128.629 Y96.191 E0.55018
G1 X128.629 Y96.557 E0.55665
G1 X127.970 Y95.898 E0.57309
G1 X127.604 Y95.898 E0.57955
G1 X128.629 Y96.923 E0.60513
G1 X128.629 Y97.289 E0.61160
G1 X127.238 Y95.898 E0.64632
G1 X126.872 Y95.898 E0.65278
G1 X128.629 Y97.655 E0.69665
G1 X128.629 Y98.021 E0.70311
G1 X126.506 Y95.898 E0.75612
G1 X126.371 Y95.898 E0.75850
G1 X126.371 Y96.130 E0.76258
G1 X128.629 Y98.388 E0.81895
G1 X128.629 Y98.754 E0.82542
G1 X126.371 Y96.496 E0.88179
G1 X126.371 Y96.862 E0.88825
G1 X128.629 Y99.120 E0.94462
G1 X128.629 Y99.486 E0.95108
G1 X126.371 Y97.228 E1.00745
G1 X126.371 Y97.594 E1.01392
G1 X128.629 Y99.852 E1.07029
G1 X128.629 Y100.218 E1.07675
G1 X126.371 Y97.961 E1.13312
G1 X126.371 Y98.327 E1.13959
G1 X128.629 Y100.585 E1.19596
G1 X128.629 Y100.951 E1.20242
G1 X126.371 Y98.693 E1.25879
G1 X126.371 Y99.059 E1.26525
G1 X128.629 Y101.317 E1.32162
G1 X128.629 Y101.683 E1.32809
G1 X126.371 Y99.425 E1.38446
G1 X126.371 Y99.791 E1.39092
G1 X128.629 Y102.049 E1.44729
G1 X128.629 Y102.415 E1.45376
G1 X126.371 Y100.158 E1.51012
G1 X126.371 Y100.524 E1.51659
G1 X128.629 Y102.782 E1.57296
G1 X128.629 Y103.148 E1.57942
G1 X126.371 Y100.890 E1.63579
G1 X126.371 Y101.256 E1.64226
G1 X128.629 Y103.514 E1.69863
G1 X128.629 Y103.880 E1.70509
G1 X126.371 Y101.622 E1.76146
G1 X126.371 Y101.988 E1.76792
G1 X128.629 Y104.246 E1.82429
G1 X128.629 Y104.612 E1.83076
G1 X126.371 Y102.355 E1.88713
G1 X126.371 Y102.721 E1.89359
G1 X128.629 Y104.979 E1.94996
G1 X128.629 Y105.345 E1.95643
G1 X126.371 Y103.087 E2.01280
G1 X126.371 Y103.453 E2.01926
G1 X128.629 Y105.711 E2.07563
G1 X128.629 Y106.077 E2.08209
G1 X126.371 Y103.819 E2.13846
G1 X126.371 Y104.186 E2.14493
G1 X128.629 Y106.443 E2.20130
G1 X128.629 Y106.809 E2.20776
G1 X126.371 Y104.552 E2.26413
G1 X126.371 Y104.918 E2.27059
G1 X128.629 Y107.176 E2.32696
G1 X128.629 Y107.542 E2.33343
G1 X126.371 Y105.284 E2.38980
G1 X126.371 Y105.650 E2.39626
G1 X128.629 Y107.908 E2.45263
G1 X128.629 Y108.274 E2.45910
G1 X126.371 Y106.016 E2.51547
G1 X126.371 Y106.383 E2.52193
G1 X128.629 Y108.640 E2.57830
G1 X128.629 Y109.006 E2.58476
G1 X126.371 Y106.749 E2.64113
G1 X126.371 Y107.115 E2.64760
G1 X128.629 Y109.373 E2.70397
G1 X128.629 Y109.739 E2.71043
G1 X126.371 Y107.481 E2.76680
G1 X126.371 Y107.847 E2.77327
G1 X128.629 Y110.105 E2.82963
G1 X128.629 Y110.471 E2.83610
G1 X126.371 Y108.213 E2.89247
G1 X126.371 Y108.580 E2.89893
G1 X128.629 Y110.837 E2.95530
G1 X128.629 Y111.203 E2.96177
G1 X126.371 Y108.946 E3.01814
G1 X126.371 Y109.312 E3.02460
G1 X128.629 Y111.570 E3.08097
G1 X128.629 Y111.936 E3.08743
G1 X126.371 Y109.678 E3.14380
G1 X126.371 Y110.044 E3.15027
G1 X128.629 Y112.302 E3.20664
G1 X128.629 Y112.668 E3.21310
G1 X126.371 Y110.410 E3.26947
G1 X126.371 Y110.777 E3.27594
G1 X128.629 Y113.034 E3.33231
G1 X128.629 Y113.401 E3.33877
G1 X126.371 Y111.143 E3.39514
G1 X126.371 Y111.509 E3.40160
G1 X128.629 Y113.767 E3.45797
G1 X128.629 Y114.133 E3.46444
G1 X126.371 Y111.875 E3.52081
G1 X126.371 Y112.241 E3.52727
G1 X128.629 Y114.499 E3.58364
G1 X128.629 Y114.865 E3.59010
G1 X126.371 Y112.607 E3.64647
G1 X126.371 Y112.974 E3.65294
G1 X128.629 Y115.231 E3.70931
G1 X128.629 Y115.598 E3.71577
G1 X126.371 Y113.340 E3.77214
G1 X126.371 Y113.706 E3.77861
G1 X128.629 Y115.964 E3.83498
G1 X128.629 Y116.330 E3.84144
G1 X126.371 Y114.072 E3.89781
G1 X126.371 Y114.438 E3.90427
G1 X128.629 Y116.696 E3.96064
G1 X128.629 Y117.062 E3.96711
G1 X126.371 Y114.804 E4.02348
G1 X126.371 Y115.171 E4.02994
G1 X128.629 Y117.428 E4.08631
G1 X128.629 Y117.795 E4.09278
G1 X126.371 Y115.537 E4.14914
G1 X126.371 Y115.903 E4.15561
G1 X128.629 Y118.161 E4.21198
G1 X128.629 Y118.527 E4.21844
G1 X126.371 Y116.269 E4.27481
G1 X126.371 Y116.635 E4.28128
G1 X128.629 Y118.893 E4.33765
G1 X128.629 Y119.259 E4.34411
