; generated by PrusaSlicer 2.3.0+win64 on 2021-02-28 at 15:48:13 UTC

; 

; external perimeters extrusion width = 0.45mm
; perimeters extrusion width = 0.45mm
; infill extrusion width = 0.45mm
; solid infill extrusion width = 0.45mm
; top infill extrusion width = 0.40mm
; first layer extrusion width = 0.30mm

M73 P0 R157
M73 Q0 S157
M201 X500 Y500 Z100 E5000 ; sets maximum accelerations, mm/sec^2
M203 X500 Y500 Z10 E60 ; sets maximum feedrates, mm/sec
M204 P500 R1000 T500 ; sets acceleration (P, T) and retract acceleration (R), mm/sec^2
M205 X8.00 Y8.00 Z0.40 E5.00 ; sets the jerk limits, mm/sec
M205 S0 T0 ; sets the minimum extruding and travel feed rate, mm/sec
M107
;TYPE:Custom
G90 ; use absolute coordinates
M83 ; extruder relative mode
M104 S215 ; set extruder temp
M140 S60 ; set bed temp
M190 S60 ; wait for bed temp
M109 S215 ; wait for extruder temp
M204 S600 ;acceleration
M220 S100 ;Reset Feedrate
M221 S100 ;Reset Flowrate
G28 ; home all
G29
G1 Z2 F240
G1 X2 Y10 F3000
G1 Z0.28 F240
G92 E0.0
G1 Y190 E15.0 F1500.0 ; intro line
G1 X2.3 F5000
G1 Y10 E30 F1200.0 ; intro line
G92 E0.0
G21 ; set units to millimeters
G90 ; use absolute coordinates
M82 ; use absolute distances for extrusion
G92 E0
; Filament gcode
;LAYER_CHANGE
;Z:0.2
;HEIGHT:0.2
;BEFORE_LAYER_CHANGE
M117 INDICATOR-Layer1
;0.2


G1 E-0.50000 F3600.000
G92 E0
G1 Z0.200 F18000.000
;AFTER_LAYER_CHANGE
;0.2
G1 X118.024 Y87.934
G1 E0.58000 F2400.000
;TYPE:Perimeter
;WIDTH:0.3
G1 F540.000
G1 X118.424 Y87.534 E0.58992
G1 X118.904 Y87.233 E0.59984
G1 X119.438 Y87.046 E0.60976
G1 X119.991 Y86.984 E0.61952
G1 X120.560 Y87.046 E0.62956
G1 X121.096 Y87.233 E0.63951
G1 X121.576 Y87.534 E0.64943
G1 X121.976 Y87.934 E0.65935
G1 X122.277 Y88.414 E0.66927
G1 X122.464 Y88.948 E0.67919
G1 X122.527 Y89.510 E0.68911
G1 X122.464 Y90.072 E0.69903
G1 X122.277 Y90.606 E0.70895
G1 X121.976 Y91.086 E0.71886
G1 X121.576 Y91.486 E0.72878
G1 X121.096 Y91.787 E0.73870
G1 X120.562 Y91.974 E0.74862
G1 X120.000 Y92.037 E0.75854
G1 X119.438 Y91.974 E0.76846
G1 X118.904 Y91.787 E0.77838
G1 X118.424 Y91.486 E0.78830
G1 X118.024 Y91.086 E0.79822
G1 X117.723 Y90.606 E0.80814
G1 X117.536 Y90.072 E0.81806
G1 X117.473 Y89.510 E0.82797
G1 X117.536 Y88.948 E0.83789
G1 X117.723 Y88.414 E0.84781
G1 X117.992 Y87.985 E0.85668
G1 X118.210 Y88.122 F18000.000
G1 F540.000
G1 X118.586 Y87.737 E0.86611
G1 X119.016 Y87.466 E0.87502
G1 X119.495 Y87.299 E0.88392
G1 X119.991 Y87.243 E0.89267
G1 X120.503 Y87.298 E0.90170
G1 X120.984 Y87.466 E0.91063
G1 X121.414 Y87.737 E0.91953
G1 X121.773 Y88.096 E0.92844
G1 X122.044 Y88.526 E0.93734
G1 X122.211 Y89.005 E0.94624
G1 X122.268 Y89.510 E0.95515
G1 X122.211 Y90.015 E0.96405
G1 X122.044 Y90.494 E0.97296
G1 X121.773 Y90.924 E0.98186
G1 X121.414 Y91.283 E0.99076
G1 X120.984 Y91.554 E0.99967
G1 X120.505 Y91.721 E1.00857
G1 X120.000 Y91.778 E1.01747
G1 X119.495 Y91.721 E1.02638
G1 X119.016 Y91.554 E1.03528
G1 X118.586 Y91.283 E1.04418
G1 X118.227 Y90.924 E1.05309
G1 X117.956 Y90.494 E1.06199
G1 X117.789 Y90.015 E1.07090
G1 X117.732 Y89.510 E1.07980
G1 X117.789 Y89.005 E1.08870
G1 X117.956 Y88.526 E1.09761
G1 X118.178 Y88.173 E1.10491
G1 X118.429 Y88.257 F18000.000
G1 F540.000
G1 X118.747 Y87.939 E1.11280
G1 X119.128 Y87.699 E1.12069
G1 X119.553 Y87.551 E1.12858
G1 X119.992 Y87.501 E1.13633
G1 X120.446 Y87.550 E1.14434
G1 X120.872 Y87.699 E1.15224
G1 X121.253 Y87.939 E1.16013
G1 X121.571 Y88.257 E1.16802
G1 X121.811 Y88.638 E1.17591
G1 X121.959 Y89.063 E1.18379
G1 X122.010 Y89.510 E1.19168
G1 X121.959 Y89.957 E1.19957
G1 X121.811 Y90.382 E1.20746
G1 X121.571 Y90.763 E1.21535
G1 X121.253 Y91.081 E1.22323
G1 X120.872 Y91.321 E1.23112
G1 X120.447 Y91.469 E1.23901
G1 X120.000 Y91.520 E1.24690
G1 X119.553 Y91.469 E1.25479
G1 X119.128 Y91.321 E1.26268
G1 X118.747 Y91.081 E1.27056
G1 X118.429 Y90.763 E1.27845
G1 X118.189 Y90.382 E1.28634
G1 X118.041 Y89.957 E1.29423
G1 X117.990 Y89.510 E1.30212
G1 X118.041 Y89.063 E1.31000
G1 X118.189 Y88.638 E1.31789
G1 X118.397 Y88.308 E1.32473
G1 X118.631 Y88.418 F18000.000
;TYPE:External perimeter
G1 F540.000
G1 X118.908 Y88.141 E1.33160
G1 X119.240 Y87.932 E1.33847
G1 X119.610 Y87.803 E1.34535
G1 X119.993 Y87.760 E1.35209
G1 X120.389 Y87.803 E1.35908
G1 X120.760 Y87.932 E1.36596
G1 X121.092 Y88.141 E1.37283
G1 X121.369 Y88.418 E1.37971
G1 X121.578 Y88.750 E1.38658
G1 X121.707 Y89.120 E1.39345
G1 X121.751 Y89.510 E1.40033
G1 X121.707 Y89.900 E1.40720
G1 X121.578 Y90.270 E1.41407
G1 X121.369 Y90.602 E1.42094
G1 X121.092 Y90.879 E1.42782
G1 X120.760 Y91.088 E1.43469
G1 X120.390 Y91.217 E1.44156
G1 X120.000 Y91.261 E1.44843
G1 X119.610 Y91.217 E1.45531
G1 X119.240 Y91.088 E1.46218
G1 X118.908 Y90.879 E1.46905
G1 X118.631 Y90.602 E1.47593
G1 X118.422 Y90.270 E1.48280
G1 X118.293 Y89.900 E1.48967
G1 X118.249 Y89.510 E1.49654
G1 X118.293 Y89.120 E1.50342
G1 X118.422 Y88.750 E1.51029
G1 X118.599 Y88.469 E1.51611
G1 X118.488 Y88.053 F18000.000
G1 E1.16611 F3600.000
;WIPE_START
G1 F14400.000
G1 X118.908 Y88.141 E1.05905
G1 X119.035 Y88.062 E1.02361
;WIPE_END
G1 E1.01611 F3600.000
G92 E0
G1 X125.723 Y84.606 F18000.000
G1 E0.58000 F2400.000
;TYPE:Perimeter
G1 F540.000
G1 X125.536 Y84.072 E0.58992
G1 X125.473 Y83.510 E0.59984
G1 X125.536 Y82.948 E0.60976
G1 X125.720 Y82.422 E0.61952
G1 X126.023 Y81.936 E0.62956
G1 X126.424 Y81.534 E0.63951
G1 X126.904 Y81.233 E0.64943
G1 X127.438 Y81.046 E0.65935
G1 X127.991 Y80.984 E0.66911
G1 X128.560 Y81.046 E0.67915
G1 X129.096 Y81.233 E0.68910
G1 X129.576 Y81.534 E0.69902
G1 X129.976 Y81.934 E0.70894
G1 X130.277 Y82.414 E0.71886
G1 X130.464 Y82.948 E0.72878
G1 X130.527 Y83.510 E0.73870
G1 X130.464 Y84.072 E0.74862
G1 X130.277 Y84.606 E0.75854
G1 X129.976 Y85.086 E0.76846
G1 X129.576 Y85.486 E0.77838
G1 X129.096 Y85.787 E0.78830
G1 X128.562 Y85.974 E0.79821
G1 X128.000 Y86.037 E0.80813
G1 X127.438 Y85.974 E0.81805
G1 X126.904 Y85.787 E0.82797
G1 X126.424 Y85.486 E0.83789
G1 X126.024 Y85.086 E0.84781
G1 X125.755 Y84.657 E0.85668
G1 X125.973 Y84.520 F18000.000
G1 F540.000
G1 X125.789 Y84.015 E0.86611
G1 X125.732 Y83.510 E0.87502
G1 X125.789 Y83.005 E0.88392
G1 X125.953 Y82.534 E0.89267
G1 X126.225 Y82.097 E0.90170
G1 X126.586 Y81.737 E0.91063
G1 X127.016 Y81.466 E0.91953
G1 X127.495 Y81.299 E0.92843
G1 X127.991 Y81.243 E0.93719
G1 X128.503 Y81.298 E0.94621
G1 X128.984 Y81.466 E0.95514
G1 X129.414 Y81.737 E0.96405
G1 X129.773 Y82.096 E0.97295
G1 X130.044 Y82.526 E0.98185
G1 X130.211 Y83.005 E0.99076
G1 X130.268 Y83.510 E0.99966
G1 X130.211 Y84.015 E1.00856
G1 X130.044 Y84.494 E1.01747
G1 X129.773 Y84.924 E1.02637
G1 X129.414 Y85.283 E1.03527
G1 X128.984 Y85.554 E1.04418
G1 X128.505 Y85.721 E1.05308
G1 X128.000 Y85.778 E1.06199
G1 X127.495 Y85.721 E1.07089
G1 X127.016 Y85.554 E1.07979
G1 X126.586 Y85.283 E1.08870
G1 X126.227 Y84.924 E1.09760
G1 X126.005 Y84.571 E1.10491
G1 X126.189 Y84.382 F18000.000
G1 F540.000
G1 X126.041 Y83.957 E1.11280
G1 X125.990 Y83.510 E1.12068
G1 X126.041 Y83.063 E1.12857
G1 X126.187 Y82.646 E1.13632
G1 X126.428 Y82.258 E1.14433
G1 X126.747 Y81.939 E1.15223
G1 X127.128 Y81.699 E1.16012
G1 X127.553 Y81.551 E1.16801
G1 X127.992 Y81.501 E1.17576
G1 X128.446 Y81.550 E1.18377
G1 X128.872 Y81.699 E1.19167
G1 X129.253 Y81.939 E1.19956
G1 X129.571 Y82.257 E1.20745
G1 X129.811 Y82.638 E1.21534
G1 X129.959 Y83.063 E1.22323
G1 X130.010 Y83.510 E1.23111
G1 X129.959 Y83.957 E1.23900
G1 X129.811 Y84.382 E1.24689
G1 X129.571 Y84.763 E1.25478
G1 X129.253 Y85.081 E1.26267
G1 X128.872 Y85.321 E1.27055
G1 X128.447 Y85.469 E1.27844
G1 X128.000 Y85.520 E1.28633
G1 X127.553 Y85.469 E1.29422
G1 X127.128 Y85.321 E1.30211
G1 X126.747 Y85.081 E1.31000
G1 X126.429 Y84.763 E1.31788
G1 X126.221 Y84.433 E1.32472
G1 X126.422 Y84.270 F18000.000
;TYPE:External perimeter
G1 F540.000
G1 X126.293 Y83.900 E1.33159
G1 X126.249 Y83.510 E1.33847
G1 X126.293 Y83.120 E1.34534
G1 X126.420 Y82.757 E1.35208
G1 X126.631 Y82.419 E1.35907
G1 X126.908 Y82.141 E1.36595
G1 X127.240 Y81.932 E1.37283
G1 X127.610 Y81.803 E1.37970
G1 X127.993 Y81.760 E1.38644
G1 X128.389 Y81.803 E1.39344
G1 X128.760 Y81.932 E1.40031
G1 X129.092 Y82.141 E1.40719
G1 X129.369 Y82.418 E1.41406
G1 X129.578 Y82.750 E1.42093
G1 X129.707 Y83.120 E1.42780
G1 X129.751 Y83.510 E1.43468
G1 X129.707 Y83.900 E1.44155
G1 X129.578 Y84.270 E1.44842
G1 X129.369 Y84.602 E1.45530
G1 X129.092 Y84.879 E1.46217
G1 X128.760 Y85.088 E1.46904
G1 X128.390 Y85.217 E1.47591
G1 X128.000 Y85.261 E1.48279
G1 X127.610 Y85.217 E1.48966
G1 X127.240 Y85.088 E1.49653
G1 X126.908 Y84.879 E1.50340
G1 X126.631 Y84.602 E1.51028
G1 X126.454 Y84.321 E1.51610
G1 X126.031 Y84.240 F18000.000
G1 E1.16610 F3600.000
;WIPE_START
G1 F14400.000
G1 X126.293 Y83.900 E1.05904
G1 X126.276 Y83.751 E1.02360
;WIPE_END
G1 E1.01610 F3600.000
G92 E0
G1 X102.464 Y88.948 F18000.000
G1 E0.58000 F2400.000
;TYPE:Perimeter
G1 F540.000
G1 X102.527 Y89.510 E0.58992
G1 X102.464 Y90.072 E0.59984
G1 X102.280 Y90.598 E0.60960
G1 X101.977 Y91.084 E0.61964
G1 X101.576 Y91.486 E0.62959
G1 X101.096 Y91.787 E0.63951
G1 X100.562 Y91.974 E0.64943
G1 X100.000 Y92.037 E0.65935
G1 X99.438 Y91.974 E0.66927
G1 X98.904 Y91.787 E0.67919
G1 X98.424 Y91.486 E0.68911
G1 X98.024 Y91.086 E0.69903
G1 X97.723 Y90.606 E0.70895
G1 X97.536 Y90.072 E0.71886
G1 X97.473 Y89.510 E0.72878
G1 X97.536 Y88.948 E0.73870
G1 X97.720 Y88.422 E0.74846
G1 X98.023 Y87.936 E0.75850
G1 X98.424 Y87.534 E0.76846
G1 X98.904 Y87.233 E0.77838
G1 X99.438 Y87.046 E0.78829
G1 X99.991 Y86.984 E0.79805
G1 X100.560 Y87.046 E0.80809
G1 X101.096 Y87.233 E0.81805
G1 X101.576 Y87.534 E0.82797
G1 X101.976 Y87.934 E0.83789
G1 X102.277 Y88.414 E0.84781
G1 X102.444 Y88.891 E0.85667
G1 X102.201 Y88.976 F18000.000
G1 F540.000
G1 X102.268 Y89.510 E0.86611
G1 X102.211 Y90.015 E0.87501
G1 X102.047 Y90.486 E0.88376
G1 X101.775 Y90.923 E0.89279
G1 X101.414 Y91.283 E0.90172
G1 X100.984 Y91.554 E0.91062
G1 X100.505 Y91.721 E0.91953
G1 X100.000 Y91.778 E0.92843
G1 X99.495 Y91.721 E0.93733
G1 X99.016 Y91.554 E0.94624
G1 X98.586 Y91.283 E0.95514
G1 X98.227 Y90.924 E0.96405
G1 X97.956 Y90.494 E0.97295
G1 X97.789 Y90.015 E0.98185
G1 X97.732 Y89.510 E0.99076
G1 X97.789 Y89.005 E0.99966
G1 X97.953 Y88.534 E1.00841
G1 X98.225 Y88.097 E1.01744
G1 X98.586 Y87.737 E1.02637
G1 X99.016 Y87.466 E1.03527
G1 X99.495 Y87.299 E1.04418
G1 X99.991 Y87.243 E1.05293
G1 X100.503 Y87.298 E1.06195
G1 X100.984 Y87.466 E1.07088
G1 X101.414 Y87.737 E1.07979
G1 X101.773 Y88.096 E1.08869
G1 X102.044 Y88.526 E1.09759
G1 X102.181 Y88.919 E1.10490
G1 X101.959 Y89.063 F18000.000
G1 F540.000
G1 X102.010 Y89.510 E1.11279
G1 X101.959 Y89.957 E1.12068
G1 X101.813 Y90.374 E1.12843
G1 X101.572 Y90.762 E1.13644
G1 X101.253 Y91.081 E1.14434
G1 X100.872 Y91.321 E1.15223
G1 X100.447 Y91.469 E1.16012
G1 X100.000 Y91.520 E1.16800
G1 X99.553 Y91.469 E1.17589
G1 X99.128 Y91.321 E1.18378
G1 X98.747 Y91.081 E1.19167
G1 X98.429 Y90.763 E1.19956
G1 X98.189 Y90.382 E1.20745
G1 X98.041 Y89.957 E1.21533
G1 X97.990 Y89.510 E1.22322
G1 X98.041 Y89.063 E1.23111
G1 X98.187 Y88.646 E1.23886
G1 X98.428 Y88.258 E1.24687
G1 X98.747 Y87.939 E1.25477
G1 X99.128 Y87.699 E1.26266
G1 X99.553 Y87.551 E1.27055
G1 X99.992 Y87.501 E1.27829
G1 X100.446 Y87.550 E1.28631
G1 X100.872 Y87.699 E1.29421
G1 X101.253 Y87.939 E1.30210
G1 X101.571 Y88.257 E1.30999
G1 X101.811 Y88.638 E1.31787
G1 X101.939 Y89.006 E1.32471
G1 X101.707 Y89.120 F18000.000
;TYPE:External perimeter
G1 F540.000
G1 X101.751 Y89.510 E1.33158
G1 X101.707 Y89.900 E1.33846
G1 X101.580 Y90.263 E1.34520
G1 X101.369 Y90.601 E1.35219
G1 X101.092 Y90.879 E1.35907
G1 X100.760 Y91.088 E1.36594
G1 X100.390 Y91.217 E1.37282
G1 X100.000 Y91.261 E1.37969
G1 X99.610 Y91.217 E1.38656
G1 X99.240 Y91.088 E1.39343
G1 X98.908 Y90.879 E1.40031
G1 X98.631 Y90.602 E1.40718
G1 X98.422 Y90.270 E1.41405
G1 X98.293 Y89.900 E1.42093
G1 X98.249 Y89.510 E1.42780
G1 X98.293 Y89.120 E1.43467
G1 X98.420 Y88.757 E1.44141
G1 X98.631 Y88.419 E1.44841
G1 X98.908 Y88.141 E1.45529
G1 X99.240 Y87.932 E1.46216
G1 X99.610 Y87.803 E1.46903
G1 X99.993 Y87.760 E1.47577
G1 X100.389 Y87.803 E1.48277
G1 X100.760 Y87.932 E1.48965
G1 X101.092 Y88.141 E1.49652
G1 X101.369 Y88.418 E1.50339
G1 X101.578 Y88.750 E1.51027
G1 X101.687 Y89.064 E1.51609
G1 X102.082 Y89.236 F18000.000
G1 E1.16609 F3600.000
;WIPE_START
G1 F14400.000
G1 X101.751 Y89.510 E1.05903
G1 X101.734 Y89.658 E1.02359
;WIPE_END
G1 E1.01609 F3600.000
G92 E0
G1 X94.277 Y84.606 F18000.000
G1 E0.58000 F2400.000
;TYPE:Perimeter
G1 F540.000
G1 X93.976 Y85.086 E0.58992
G1 X93.582 Y85.479 E0.59968
G1 X93.098 Y85.786 E0.60972
G1 X92.562 Y85.974 E0.61967
G1 X92.000 Y86.037 E0.62959
G1 X91.438 Y85.974 E0.63951
G1 X90.904 Y85.787 E0.64943
G1 X90.424 Y85.486 E0.65935
G1 X90.024 Y85.086 E0.66927
G1 X89.723 Y84.606 E0.67919
G1 X89.536 Y84.072 E0.68911
G1 X89.473 Y83.510 E0.69903
G1 X89.536 Y82.948 E0.70895
G1 X89.720 Y82.422 E0.71870
G1 X90.023 Y81.936 E0.72874
G1 X90.424 Y81.534 E0.73870
G1 X90.904 Y81.233 E0.74862
G1 X91.438 Y81.046 E0.75854
G1 X91.991 Y80.984 E0.76830
G1 X92.560 Y81.046 E0.77834
G1 X93.096 Y81.233 E0.78829
G1 X93.576 Y81.534 E0.79821
G1 X93.976 Y81.934 E0.80813
G1 X94.277 Y82.414 E0.81805
G1 X94.464 Y82.948 E0.82797
G1 X94.527 Y83.510 E0.83789
G1 X94.464 Y84.072 E0.84781
G1 X94.297 Y84.550 E0.85667
G1 X94.054 Y84.465 F18000.000
G1 F540.000
G1 X93.773 Y84.924 E0.86611
G1 X93.420 Y85.277 E0.87486
G1 X92.986 Y85.553 E0.88389
G1 X92.505 Y85.721 E0.89282
G1 X92.000 Y85.778 E0.90172
G1 X91.495 Y85.721 E0.91062
G1 X91.016 Y85.554 E0.91953
G1 X90.586 Y85.283 E0.92843
G1 X90.227 Y84.924 E0.93733
G1 X89.956 Y84.494 E0.94624
G1 X89.789 Y84.015 E0.95514
G1 X89.732 Y83.510 E0.96405
G1 X89.789 Y83.005 E0.97295
G1 X89.953 Y82.534 E0.98170
G1 X90.225 Y82.097 E0.99073
G1 X90.586 Y81.737 E0.99966
G1 X91.016 Y81.466 E1.00856
G1 X91.495 Y81.299 E1.01746
G1 X91.991 Y81.243 E1.02622
G1 X92.503 Y81.298 E1.03524
G1 X92.984 Y81.466 E1.04417
G1 X93.414 Y81.737 E1.05308
G1 X93.773 Y82.096 E1.06198
G1 X94.044 Y82.526 E1.07088
G1 X94.211 Y83.005 E1.07979
G1 X94.268 Y83.510 E1.08869
G1 X94.211 Y84.015 E1.09759
G1 X94.074 Y84.408 E1.10490
G1 X93.811 Y84.382 F18000.000
G1 F540.000
G1 X93.571 Y84.763 E1.11279
G1 X93.259 Y85.076 E1.12054
G1 X92.873 Y85.320 E1.12855
G1 X92.447 Y85.469 E1.13645
G1 X92.000 Y85.520 E1.14434
G1 X91.553 Y85.469 E1.15223
G1 X91.128 Y85.321 E1.16012
G1 X90.747 Y85.081 E1.16800
G1 X90.429 Y84.763 E1.17589
G1 X90.189 Y84.382 E1.18378
G1 X90.041 Y83.957 E1.19167
G1 X89.990 Y83.510 E1.19956
G1 X90.041 Y83.063 E1.20745
G1 X90.187 Y82.646 E1.21519
G1 X90.428 Y82.258 E1.22320
G1 X90.747 Y81.939 E1.23111
G1 X91.128 Y81.699 E1.23900
G1 X91.553 Y81.551 E1.24688
G1 X91.992 Y81.501 E1.25463
G1 X92.446 Y81.550 E1.26264
G1 X92.872 Y81.699 E1.27055
G1 X93.253 Y81.939 E1.27843
G1 X93.571 Y82.257 E1.28632
G1 X93.811 Y82.638 E1.29421
G1 X93.959 Y83.063 E1.30210
G1 X94.010 Y83.510 E1.30999
G1 X93.959 Y83.957 E1.31787
G1 X93.830 Y84.325 E1.32471
G1 X93.578 Y84.270 F18000.000
;TYPE:External perimeter
G1 F540.000
G1 X93.369 Y84.602 E1.33158
G1 X93.097 Y84.874 E1.33832
G1 X92.760 Y85.087 E1.34532
G1 X92.390 Y85.217 E1.35220
G1 X92.000 Y85.261 E1.35907
G1 X91.610 Y85.217 E1.36594
G1 X91.240 Y85.088 E1.37282
G1 X90.908 Y84.879 E1.37969
G1 X90.631 Y84.602 E1.38656
G1 X90.422 Y84.270 E1.39343
G1 X90.293 Y83.900 E1.40031
G1 X90.249 Y83.510 E1.40718
G1 X90.293 Y83.120 E1.41405
G1 X90.420 Y82.757 E1.42079
G1 X90.631 Y82.419 E1.42779
G1 X90.908 Y82.141 E1.43467
G1 X91.240 Y81.932 E1.44154
G1 X91.610 Y81.803 E1.44841
G1 X91.993 Y81.760 E1.45515
G1 X92.389 Y81.803 E1.46215
G1 X92.760 Y81.932 E1.46903
G1 X93.092 Y82.141 E1.47590
G1 X93.369 Y82.418 E1.48277
G1 X93.578 Y82.750 E1.48965
G1 X93.707 Y83.120 E1.49652
G1 X93.751 Y83.510 E1.50339
G1 X93.707 Y83.900 E1.51027
G1 X93.597 Y84.213 E1.51609
G1 X93.798 Y84.594 F18000.000
G1 E1.16609 F3600.000
;WIPE_START
G1 F14400.000
G1 X93.369 Y84.602 E1.05903
G1 X93.263 Y84.707 E1.02359
;WIPE_END
G1 E1.01609 F3600.000
G92 E0
G1 X84.921 Y79.431 F18000.000
G1 E0.58000 F2400.000
;TYPE:Perimeter
G1 F2700.000
G1 X135.079 Y79.431 E1.45919
G1 X135.079 Y105.589 E1.91769
