; generated by PrusaSlicer 2.3.0+win64 on 2021-02-17 at 20:13:41 UTC

; 

; external perimeters extrusion width = 0.45mm
; perimeters extrusion width = 0.45mm
; infill extrusion width = 0.45mm
; solid infill extrusion width = 0.45mm
; top infill extrusion width = 0.40mm
; support material extrusion width = 0.38mm
; first layer extrusion width = 0.35mm

M73 P0 R160
M73 Q0 S160
M201 X500 Y500 Z100 E5000 ; sets maximum accelerations, mm/sec^2
M203 X500 Y500 Z10 E60 ; sets maximum feedrates, mm/sec
M204 P500 R1000 T500 ; sets acceleration (P, T) and retract acceleration (R), mm/sec^2
M205 X8.00 Y8.00 Z0.40 E5.00 ; sets the jerk limits, mm/sec
M205 S0 T0 ; sets the minimum extruding and travel feed rate, mm/sec
M107
;TYPE:Custom
G90 ; use absolute coordinates
M83 ; extruder relative mode
M104 S215 ; set extruder temp
M140 S60 ; set bed temp
M190 S60 ; wait for bed temp
M109 S215 ; wait for extruder temp
G28 ; home all
G1 Z2 F240
G1 X2 Y10 F3000
G1 Z0.28 F240
G92 E0.0
G1 Y190 E15.0 F1500.0 ; intro line
G1 X2.3 F5000
G1 Y10 E30 F1200.0 ; intro line
G92 E0.0
G21 ; set units to millimeters
G90 ; use absolute coordinates
M82 ; use absolute distances for extrusion
G92 E0
; Filament gcode
;LAYER_CHANGE
;Z:0.2
;HEIGHT:0.2
;BEFORE_LAYER_CHANGE
M117 INDICATOR-Layer1
;0.2


M73 P0 R159
M73 Q0 S159
G1 E-0.50000 F3600.000
G92 E0
G1 Z0.200 F18000.000
;AFTER_LAYER_CHANGE
;0.2
G1 X115.519 Y126.242
G1 E0.60000 F2400.000
;TYPE:Perimeter
;WIDTH:0.35
G1 F900.000
G1 X116.004 Y125.881 E0.61266
G1 X116.559 Y125.641 E0.62532
G1 X117.145 Y125.538 E0.63777
G1 X117.755 Y125.571 E0.65057
G1 X118.337 Y125.745 E0.66328
G1 X118.860 Y126.047 E0.67594
G1 X119.300 Y126.462 E0.68860
G1 X119.632 Y126.967 E0.70126
G1 X119.839 Y127.535 E0.71392
G1 X119.909 Y128.136 E0.72657
G1 X119.840 Y128.727 E0.73903
G1 X119.634 Y129.302 E0.75183
G1 X119.300 Y129.809 E0.76454
G1 X118.860 Y130.224 E0.77720
G1 X118.337 Y130.526 E0.78986
G1 X117.758 Y130.700 E0.80252
G1 X117.154 Y130.735 E0.81517
G1 X116.559 Y130.630 E0.82783
G1 X116.004 Y130.391 E0.84049
G1 X115.519 Y130.030 E0.85315
G1 X115.130 Y129.566 E0.86580
G1 X114.859 Y129.026 E0.87846
G1 X114.720 Y128.438 E0.89112
G1 X114.720 Y127.833 E0.90378
G1 X114.859 Y127.245 E0.91644
G1 X115.130 Y126.705 E0.92909
G1 X115.480 Y126.288 E0.94049
G1 X115.716 Y126.485 F18000.000
G1 F900.000
G1 X116.158 Y126.149 E0.95214
G1 X116.648 Y125.938 E0.96330
G1 X117.164 Y125.847 E0.97427
G1 X117.702 Y125.876 E0.98556
G1 X118.214 Y126.029 E0.99676
G1 X118.676 Y126.295 E1.00791
G1 X119.063 Y126.661 E1.01907
G1 X119.356 Y127.106 E1.03022
G1 X119.538 Y127.607 E1.04137
G1 X119.600 Y128.136 E1.05253
G1 X119.539 Y128.656 E1.06350
G1 X119.357 Y129.164 E1.07480
G1 X119.063 Y129.611 E1.08599
G1 X118.676 Y129.976 E1.09714
G1 X118.214 Y130.243 E1.10830
G1 X117.704 Y130.395 E1.11945
G1 X117.172 Y130.426 E1.13061
G1 X116.648 Y130.334 E1.14176
G1 X116.158 Y130.123 E1.15292
G1 X115.731 Y129.805 E1.16407
G1 X115.389 Y129.397 E1.17523
G1 X115.150 Y128.920 E1.18638
G1 X115.027 Y128.402 E1.19754
G1 X115.027 Y127.869 E1.20869
G1 X115.150 Y127.351 E1.21985
G1 X115.389 Y126.875 E1.23100
G1 X115.677 Y126.531 E1.24039
G1 X115.943 Y126.692 F18000.000
G1 F900.000
G1 X116.313 Y126.416 E1.25005
G1 X116.736 Y126.234 E1.25970
G1 X117.182 Y126.155 E1.26918
G1 X117.649 Y126.180 E1.27897
G1 X118.092 Y126.313 E1.28865
G1 X118.491 Y126.543 E1.29830
G1 X118.827 Y126.860 E1.30795
G1 X119.080 Y127.245 E1.31760
G1 X119.238 Y127.678 E1.32726
G1 X119.291 Y128.136 E1.33691
G1 X119.238 Y128.586 E1.34639
G1 X119.080 Y129.026 E1.35618
G1 X118.827 Y129.412 E1.36586
G1 X118.491 Y129.728 E1.37551
G1 X118.092 Y129.959 E1.38516
G1 X117.650 Y130.091 E1.39481
G1 X117.190 Y130.118 E1.40447
G1 X116.736 Y130.038 E1.41412
G1 X116.313 Y129.855 E1.42377
G1 X115.943 Y129.580 E1.43342
G1 X115.647 Y129.227 E1.44307
G1 X115.440 Y128.815 E1.45272
G1 X115.334 Y128.366 E1.46238
G1 X115.334 Y127.905 E1.47203
G1 X115.440 Y127.457 E1.48168
G1 X115.647 Y127.045 E1.49133
G1 X115.905 Y126.738 E1.49973
G1 X116.140 Y126.935 F18000.000
;TYPE:External perimeter
G1 F900.000
G1 X116.468 Y126.684 E1.50837
G1 X116.825 Y126.530 E1.51652
G1 X117.201 Y126.464 E1.52451
G1 X117.596 Y126.485 E1.53280
G1 X117.970 Y126.597 E1.54096
G1 X118.307 Y126.791 E1.54911
G1 X118.590 Y127.058 E1.55726
G1 X118.804 Y127.383 E1.56540
G1 X118.937 Y127.749 E1.57355
G1 X118.982 Y128.136 E1.58170
G1 X118.938 Y128.515 E1.58970
G1 X118.804 Y128.888 E1.59799
G1 X118.590 Y129.213 E1.60614
G1 X118.307 Y129.480 E1.61429
G1 X117.970 Y129.675 E1.62244
G1 X117.597 Y129.786 E1.63059
G1 X117.208 Y129.809 E1.63874
G1 X116.825 Y129.741 E1.64689
G1 X116.468 Y129.587 E1.65504
G1 X116.155 Y129.355 E1.66319
G1 X115.905 Y129.057 E1.67133
G1 X115.731 Y128.709 E1.67948
G1 X115.641 Y128.330 E1.68763
G1 X115.641 Y127.941 E1.69578
G1 X115.731 Y127.562 E1.70393
G1 X115.905 Y127.215 E1.71208
G1 X116.101 Y126.981 E1.71846
G1 X116.044 Y126.547 F18000.000
G1 E1.36846 F3600.000
;WIPE_START
G1 F14400.000
G1 X116.468 Y126.684 E1.25650
G1 X116.586 Y126.633 E1.22596
;WIPE_END
G1 E1.21846 F3600.000
G92 E0
G1 X123.130 Y132.705 F18000.000
G1 E0.60000 F2400.000
;TYPE:Perimeter
G1 F900.000
G1 X123.519 Y132.242 E0.61266
G1 X124.004 Y131.881 E0.62532
G1 X124.559 Y131.641 E0.63797
G1 X125.145 Y131.538 E0.65043
G1 X125.755 Y131.571 E0.66323
G1 X126.337 Y131.745 E0.67594
G1 X126.860 Y132.047 E0.68860
G1 X127.300 Y132.462 E0.70126
G1 X127.632 Y132.967 E0.71392
G1 X127.839 Y133.535 E0.72657
G1 X127.909 Y134.136 E0.73923
G1 X127.840 Y134.727 E0.75169
G1 X127.634 Y135.302 E0.76449
G1 X127.300 Y135.809 E0.77720
G1 X126.860 Y136.224 E0.78986
G1 X126.337 Y136.526 E0.80252
G1 X125.758 Y136.700 E0.81517
G1 X125.154 Y136.735 E0.82783
G1 X124.559 Y136.630 E0.84049
G1 X124.004 Y136.391 E0.85315
G1 X123.527 Y136.035 E0.86561
G1 X123.131 Y135.569 E0.87841
G1 X122.859 Y135.026 E0.89112
G1 X122.720 Y134.438 E0.90377
G1 X122.720 Y133.833 E0.91643
G1 X122.859 Y133.245 E0.92909
G1 X123.103 Y132.759 E0.94049
G1 X123.378 Y132.896 F18000.000
G1 F900.000
G1 X123.731 Y132.467 E0.95214
G1 X124.158 Y132.149 E0.96329
G1 X124.648 Y131.938 E0.97445
G1 X125.164 Y131.847 E0.98542
G1 X125.702 Y131.876 E0.99671
G1 X126.214 Y132.029 E1.00791
G1 X126.676 Y132.295 E1.01906
G1 X127.063 Y132.661 E1.03022
G1 X127.356 Y133.106 E1.04137
G1 X127.538 Y133.607 E1.05253
G1 X127.600 Y134.136 E1.06368
G1 X127.539 Y134.656 E1.07465
G1 X127.357 Y135.164 E1.08595
G1 X127.063 Y135.611 E1.09714
G1 X126.676 Y135.976 E1.10830
G1 X126.214 Y136.243 E1.11945
G1 X125.704 Y136.395 E1.13060
G1 X125.172 Y136.426 E1.14176
G1 X124.648 Y136.334 E1.15291
G1 X124.158 Y136.123 E1.16407
G1 X123.738 Y135.810 E1.17504
G1 X123.389 Y135.398 E1.18634
G1 X123.150 Y134.920 E1.19753
G1 X123.027 Y134.402 E1.20868
G1 X123.027 Y133.869 E1.21984
G1 X123.150 Y133.351 E1.23099
G1 X123.351 Y132.950 E1.24039
G1 X123.647 Y133.045 F18000.000
G1 F900.000
G1 X123.943 Y132.692 E1.25004
G1 X124.313 Y132.416 E1.25969
G1 X124.736 Y132.234 E1.26934
G1 X125.182 Y132.155 E1.27882
G1 X125.649 Y132.180 E1.28862
G1 X126.092 Y132.313 E1.29829
G1 X126.491 Y132.543 E1.30795
G1 X126.827 Y132.860 E1.31760
G1 X127.080 Y133.245 E1.32725
G1 X127.238 Y133.678 E1.33690
G1 X127.291 Y134.136 E1.34655
G1 X127.238 Y134.586 E1.35603
G1 X127.080 Y135.026 E1.36583
G1 X126.827 Y135.412 E1.37550
G1 X126.491 Y135.728 E1.38516
G1 X126.092 Y135.959 E1.39481
G1 X125.650 Y136.091 E1.40446
G1 X125.190 Y136.118 E1.41411
G1 X124.736 Y136.038 E1.42376
G1 X124.313 Y135.855 E1.43341
G1 X123.950 Y135.585 E1.44290
G1 X123.647 Y135.228 E1.45269
G1 X123.440 Y134.815 E1.46236
G1 X123.334 Y134.366 E1.47202
G1 X123.334 Y133.905 E1.48167
G1 X123.440 Y133.457 E1.49132
G1 X123.620 Y133.098 E1.49972
G1 X123.894 Y133.236 F18000.000
;TYPE:External perimeter
G1 F900.000
G1 X124.155 Y132.916 E1.50836
G1 X124.468 Y132.684 E1.51650
G1 X124.825 Y132.530 E1.52465
G1 X125.201 Y132.464 E1.53265
G1 X125.596 Y132.485 E1.54094
G1 X125.970 Y132.597 E1.54910
G1 X126.307 Y132.791 E1.55724
G1 X126.590 Y133.058 E1.56539
G1 X126.804 Y133.383 E1.57354
G1 X126.937 Y133.749 E1.58169
G1 X126.982 Y134.136 E1.58984
G1 X126.938 Y134.515 E1.59783
G1 X126.804 Y134.888 E1.60612
G1 X126.590 Y135.213 E1.61428
G1 X126.307 Y135.480 E1.62243
G1 X125.970 Y135.675 E1.63058
G1 X125.597 Y135.786 E1.63873
G1 X125.208 Y135.809 E1.64688
G1 X124.825 Y135.741 E1.65502
G1 X124.468 Y135.587 E1.66317
G1 X124.161 Y135.359 E1.67117
G1 X123.905 Y135.057 E1.67946
G1 X123.731 Y134.709 E1.68762
G1 X123.641 Y134.330 E1.69576
G1 X123.641 Y133.941 E1.70391
G1 X123.731 Y133.562 E1.71206
G1 X123.867 Y133.290 E1.71845
G1 X123.711 Y132.881 F18000.000
G1 E1.36845 F3600.000
;WIPE_START
G1 F14400.000
G1 X124.155 Y132.916 E1.25649
G1 X124.259 Y132.840 E1.22595
;WIPE_END
G1 E1.21845 F3600.000
G92 E0
G1 X99.839 Y128.736 F18000.000
G1 E0.60000 F2400.000
;TYPE:Perimeter
G1 F900.000
G1 X99.632 Y129.304 E0.61266
G1 X99.305 Y129.801 E0.62512
G1 X98.863 Y130.223 E0.63792
G1 X98.337 Y130.526 E0.65063
G1 X97.758 Y130.700 E0.66328
G1 X97.154 Y130.735 E0.67594
G1 X96.559 Y130.630 E0.68860
G1 X96.004 Y130.391 E0.70126
G1 X95.519 Y130.030 E0.71392
G1 X95.130 Y129.566 E0.72657
G1 X94.859 Y129.026 E0.73923
G1 X94.720 Y128.438 E0.75189
G1 X94.720 Y127.833 E0.76455
G1 X94.859 Y127.245 E0.77720
G1 X95.130 Y126.705 E0.78986
G1 X95.519 Y126.242 E0.80252
G1 X96.004 Y125.881 E0.81518
G1 X96.559 Y125.641 E0.82784
G1 X97.145 Y125.538 E0.84029
G1 X97.755 Y125.571 E0.85309
G1 X98.337 Y125.745 E0.86580
G1 X98.860 Y126.047 E0.87846
G1 X99.300 Y126.462 E0.89112
G1 X99.632 Y126.967 E0.90378
G1 X99.839 Y127.535 E0.91644
G1 X99.909 Y128.136 E0.92909
G1 X99.846 Y128.677 E0.94049
G1 X99.541 Y128.641 F18000.000
G1 F900.000
G1 X99.356 Y129.165 E0.95214
G1 X99.068 Y129.603 E0.96311
G1 X98.677 Y129.975 E0.97441
G1 X98.214 Y130.243 E0.98560
G1 X97.704 Y130.395 E0.99676
G1 X97.172 Y130.426 E1.00791
G1 X96.648 Y130.334 E1.01907
G1 X96.158 Y130.123 E1.03022
G1 X95.731 Y129.805 E1.04137
G1 X95.389 Y129.397 E1.05253
G1 X95.150 Y128.920 E1.06368
G1 X95.027 Y128.402 E1.07484
G1 X95.027 Y127.869 E1.08599
G1 X95.150 Y127.351 E1.09715
G1 X95.389 Y126.875 E1.10830
G1 X95.731 Y126.467 E1.11946
G1 X96.158 Y126.149 E1.13061
G1 X96.648 Y125.938 E1.14177
G1 X97.164 Y125.847 E1.15274
G1 X97.702 Y125.876 E1.16403
G1 X98.214 Y126.029 E1.17523
G1 X98.676 Y126.295 E1.18638
G1 X99.063 Y126.661 E1.19754
G1 X99.356 Y127.106 E1.20869
G1 X99.538 Y127.607 E1.21985
G1 X99.600 Y128.136 E1.23100
G1 X99.548 Y128.581 E1.24039
G1 X99.238 Y128.594 F18000.000
G1 F900.000
G1 X99.080 Y129.027 E1.25005
G1 X98.831 Y129.405 E1.25953
G1 X98.492 Y129.728 E1.26932
G1 X98.092 Y129.959 E1.27900
G1 X97.650 Y130.091 E1.28865
G1 X97.190 Y130.118 E1.29830
G1 X96.736 Y130.038 E1.30795
G1 X96.313 Y129.855 E1.31760
G1 X95.943 Y129.580 E1.32726
G1 X95.647 Y129.227 E1.33691
G1 X95.440 Y128.815 E1.34656
G1 X95.334 Y128.366 E1.35621
G1 X95.334 Y127.905 E1.36586
G1 X95.440 Y127.457 E1.37551
G1 X95.647 Y127.045 E1.38517
G1 X95.943 Y126.692 E1.39482
G1 X96.313 Y126.416 E1.40447
G1 X96.736 Y126.234 E1.41412
G1 X97.182 Y126.155 E1.42360
G1 X97.649 Y126.180 E1.43340
G1 X98.092 Y126.313 E1.44307
G1 X98.491 Y126.543 E1.45272
G1 X98.827 Y126.860 E1.46238
G1 X99.080 Y127.245 E1.47203
G1 X99.238 Y127.678 E1.48168
G1 X99.291 Y128.136 E1.49133
G1 X99.244 Y128.534 E1.49973
G1 X98.939 Y128.498 F18000.000
;TYPE:External perimeter
G1 F900.000
G1 X98.804 Y128.888 E1.50837
G1 X98.594 Y129.207 E1.51636
G1 X98.307 Y129.480 E1.52465
G1 X97.970 Y129.675 E1.53281
G1 X97.597 Y129.786 E1.54096
G1 X97.208 Y129.809 E1.54911
G1 X96.825 Y129.741 E1.55726
G1 X96.468 Y129.587 E1.56540
G1 X96.155 Y129.355 E1.57355
G1 X95.905 Y129.057 E1.58170
G1 X95.731 Y128.709 E1.58985
G1 X95.641 Y128.330 E1.59800
G1 X95.641 Y127.941 E1.60615
G1 X95.731 Y127.562 E1.61430
G1 X95.905 Y127.215 E1.62245
G1 X96.155 Y126.916 E1.63059
G1 X96.468 Y126.684 E1.63874
G1 X96.825 Y126.530 E1.64689
G1 X97.201 Y126.464 E1.65489
G1 X97.596 Y126.485 E1.66318
G1 X97.970 Y126.597 E1.67133
G1 X98.307 Y126.791 E1.67948
G1 X98.590 Y127.058 E1.68763
G1 X98.804 Y127.383 E1.69578
G1 X98.937 Y127.749 E1.70393
G1 X98.982 Y128.136 E1.71208
G1 X98.946 Y128.439 E1.71846
G1 X99.233 Y128.770 F18000.000
G1 E1.36846 F3600.000
;WIPE_START
G1 F14400.000
G1 X98.804 Y128.888 E1.25650
G1 X98.733 Y128.995 E1.22596
;WIPE_END
G1 E1.21846 F3600.000
G92 E0
G1 X91.632 Y132.967 F18000.000
G1 E0.60000 F2400.000
;TYPE:Perimeter
G1 F900.000
G1 X91.839 Y133.535 E0.61266
G1 X91.909 Y134.136 E0.62532
G1 X91.840 Y134.727 E0.63777
G1 X91.634 Y135.302 E0.65057
G1 X91.300 Y135.809 E0.66328
G1 X90.860 Y136.224 E0.67594
G1 X90.337 Y136.526 E0.68860
G1 X89.758 Y136.700 E0.70126
G1 X89.154 Y136.735 E0.71392
G1 X88.559 Y136.630 E0.72657
G1 X88.004 Y136.391 E0.73923
G1 X87.527 Y136.035 E0.75169
G1 X87.131 Y135.569 E0.76449
G1 X86.859 Y135.026 E0.77720
G1 X86.720 Y134.438 E0.78986
G1 X86.720 Y133.833 E0.80252
G1 X86.859 Y133.245 E0.81517
G1 X87.130 Y132.705 E0.82783
G1 X87.519 Y132.242 E0.84049
G1 X88.004 Y131.881 E0.85315
G1 X88.559 Y131.641 E0.86580
G1 X89.145 Y131.538 E0.87826
G1 X89.755 Y131.571 E0.89106
G1 X90.337 Y131.745 E0.90377
G1 X90.860 Y132.047 E0.91643
G1 X91.300 Y132.462 E0.92909
G1 X91.599 Y132.917 E0.94049
G1 X91.343 Y133.086 F18000.000
G1 F900.000
G1 X91.538 Y133.607 E0.95214
G1 X91.600 Y134.136 E0.96329
G1 X91.539 Y134.656 E0.97426
G1 X91.357 Y135.164 E0.98556
G1 X91.063 Y135.611 E0.99675
G1 X90.676 Y135.976 E1.00791
G1 X90.214 Y136.243 E1.01906
G1 X89.704 Y136.395 E1.03022
G1 X89.172 Y136.426 E1.04137
G1 X88.648 Y136.334 E1.05253
G1 X88.158 Y136.123 E1.06368
G1 X87.738 Y135.810 E1.07465
G1 X87.389 Y135.398 E1.08595
G1 X87.150 Y134.920 E1.09714
G1 X87.027 Y134.402 E1.10830
G1 X87.027 Y133.869 E1.11945
G1 X87.150 Y133.351 E1.13060
G1 X87.389 Y132.875 E1.14176
G1 X87.731 Y132.467 E1.15291
G1 X88.158 Y132.149 E1.16407
G1 X88.648 Y131.938 E1.17522
G1 X89.164 Y131.847 E1.18619
G1 X89.702 Y131.876 E1.19749
G1 X90.214 Y132.029 E1.20868
G1 X90.676 Y132.295 E1.21984
G1 X91.063 Y132.661 E1.23099
G1 X91.310 Y133.036 E1.24039
G1 X91.080 Y133.245 F18000.000
G1 F900.000
G1 X91.238 Y133.678 E1.25004
G1 X91.291 Y134.136 E1.25969
G1 X91.238 Y134.586 E1.26917
G1 X91.080 Y135.026 E1.27897
G1 X90.827 Y135.412 E1.28864
G1 X90.491 Y135.728 E1.29829
G1 X90.092 Y135.959 E1.30795
G1 X89.650 Y136.091 E1.31760
G1 X89.190 Y136.118 E1.32725
G1 X88.736 Y136.038 E1.33690
G1 X88.313 Y135.855 E1.34655
G1 X87.950 Y135.585 E1.35603
G1 X87.647 Y135.228 E1.36583
G1 X87.440 Y134.815 E1.37550
G1 X87.334 Y134.366 E1.38515
G1 X87.334 Y133.905 E1.39481
G1 X87.440 Y133.457 E1.40446
G1 X87.647 Y133.045 E1.41411
G1 X87.943 Y132.692 E1.42376
G1 X88.313 Y132.416 E1.43341
G1 X88.736 Y132.234 E1.44307
G1 X89.182 Y132.155 E1.45255
G1 X89.649 Y132.180 E1.46234
G1 X90.092 Y132.313 E1.47202
G1 X90.491 Y132.543 E1.48167
G1 X90.827 Y132.860 E1.49132
G1 X91.047 Y133.195 E1.49972
G1 X90.790 Y133.363 F18000.000
;TYPE:External perimeter
G1 F900.000
G1 X90.937 Y133.749 E1.50836
G1 X90.982 Y134.136 E1.51650
G1 X90.938 Y134.515 E1.52450
G1 X90.804 Y134.888 E1.53279
G1 X90.590 Y135.213 E1.54095
G1 X90.307 Y135.480 E1.54910
G1 X89.970 Y135.675 E1.55724
G1 X89.597 Y135.786 E1.56539
G1 X89.208 Y135.809 E1.57354
G1 X88.825 Y135.741 E1.58169
G1 X88.468 Y135.587 E1.58984
G1 X88.161 Y135.359 E1.59783
G1 X87.905 Y135.057 E1.60612
G1 X87.731 Y134.709 E1.61428
G1 X87.641 Y134.330 E1.62243
G1 X87.641 Y133.941 E1.63058
G1 X87.731 Y133.562 E1.63873
G1 X87.905 Y133.215 E1.64688
G1 X88.155 Y132.916 E1.65502
G1 X88.468 Y132.684 E1.66317
G1 X88.825 Y132.530 E1.67132
G1 X89.201 Y132.464 E1.67932
G1 X89.596 Y132.485 E1.68761
G1 X89.970 Y132.597 E1.69576
G1 X90.307 Y132.791 E1.70391
G1 X90.590 Y133.058 E1.71206
G1 X90.757 Y133.313 E1.71845
G1 X91.190 Y133.382 F18000.000
G1 E1.36845 F3600.000
;WIPE_START
G1 F14400.000
G1 X90.937 Y133.749 E1.25649
G1 X90.952 Y133.877 E1.22595
;WIPE_END
G1 E1.21845 F3600.000
G92 E0
G1 X82.402 Y138.039 F18000.000
G1 E0.60000 F2400.000
;TYPE:Perimeter
G1 F2700.000
G1 X82.402 Y112.232 E1.14035
G1 X132.209 Y112.232 E2.18320
G1 X132.209 Y138.039 E2.72356
G1 X82.462 Y138.039 E3.76515
