; generated by PrusaSlicer 2.3.0+win64 on 2021-02-28 at 15:22:42 UTC

; 

; external perimeters extrusion width = 0.45mm
; perimeters extrusion width = 0.45mm
; infill extrusion width = 0.45mm
; solid infill extrusion width = 0.45mm
; top infill extrusion width = 0.40mm
; first layer extrusion width = 0.30mm

M73 P0 R155
M73 Q0 S155
M201 X500 Y500 Z100 E5000 ; sets maximum accelerations, mm/sec^2
M203 X500 Y500 Z10 E60 ; sets maximum feedrates, mm/sec
M204 P500 R1000 T500 ; sets acceleration (P, T) and retract acceleration (R), mm/sec^2
M205 X8.00 Y8.00 Z0.40 E5.00 ; sets the jerk limits, mm/sec
M205 S0 T0 ; sets the minimum extruding and travel feed rate, mm/sec
M107
;TYPE:Custom
G90 ; use absolute coordinates
M83 ; extruder relative mode
M104 S215 ; set extruder temp
M140 S60 ; set bed temp
M190 S60 ; wait for bed temp
M109 S215 ; wait for extruder temp
M204 S600 ;acceleration
M220 S100 ;Reset Feedrate
M221 S100 ;Reset Flowrate
G28 ; home all
G29
G1 Z2 F240
G1 X2 Y10 F3000
G1 Z0.28 F240
G92 E0.0
G1 Y190 E15.0 F1500.0 ; intro line
G1 X2.3 F5000
G1 Y10 E30 F1200.0 ; intro line
G92 E0.0
G21 ; set units to millimeters
G90 ; use absolute coordinates
M82 ; use absolute distances for extrusion
G92 E0
; Filament gcode
;LAYER_CHANGE
;Z:0.2
;HEIGHT:0.2
;BEFORE_LAYER_CHANGE
M117 INDICATOR-Layer1
;0.2


G1 E-0.50000 F3600.000
G92 E0
G1 Z0.200 F18000.000
;AFTER_LAYER_CHANGE
;0.2
G1 X117.946 Y87.872
G1 E0.58000 F2400.000
;TYPE:Perimeter
;WIDTH:0.3
G1 F540.000
G1 X118.362 Y87.456 E0.59031
G1 X118.860 Y87.143 E0.60063
G1 X119.415 Y86.948 E0.61094
G1 X119.977 Y86.885 E0.62085
G1 X120.580 Y86.947 E0.63148
G1 X121.140 Y87.143 E0.64188
G1 X121.638 Y87.456 E0.65219
G1 X122.054 Y87.872 E0.66251
G1 X122.367 Y88.370 E0.67282
G1 X122.562 Y88.925 E0.68313
G1 X122.628 Y89.510 E0.69345
G1 X122.562 Y90.095 E0.70376
G1 X122.367 Y90.650 E0.71408
G1 X122.054 Y91.148 E0.72439
G1 X121.638 Y91.564 E0.73470
G1 X121.140 Y91.877 E0.74502
G1 X120.585 Y92.072 E0.75533
G1 X120.000 Y92.138 E0.76565
G1 X119.415 Y92.072 E0.77596
G1 X118.860 Y91.877 E0.78627
G1 X118.362 Y91.564 E0.79659
G1 X117.962 Y91.165 E0.80650
G1 X117.634 Y90.655 E0.81713
G1 X117.438 Y90.095 E0.82752
G1 X117.372 Y89.510 E0.83784
G1 X117.438 Y88.925 E0.84815
G1 X117.633 Y88.370 E0.85847
G1 X117.914 Y87.922 E0.86773
G1 X118.131 Y88.059 F18000.000
G1 F540.000
G1 X118.523 Y87.658 E0.87756
G1 X118.972 Y87.376 E0.88686
G1 X119.473 Y87.200 E0.89616
G1 X119.978 Y87.143 E0.90507
G1 X120.524 Y87.199 E0.91468
G1 X121.028 Y87.376 E0.92404
G1 X121.477 Y87.658 E0.93334
G1 X121.852 Y88.033 E0.94264
G1 X122.134 Y88.482 E0.95194
G1 X122.310 Y88.983 E0.96124
G1 X122.369 Y89.510 E0.97054
G1 X122.310 Y90.037 E0.97984
G1 X122.134 Y90.538 E0.98913
G1 X121.852 Y90.987 E0.99843
G1 X121.477 Y91.362 E1.00773
G1 X121.028 Y91.644 E1.01703
G1 X120.527 Y91.820 E1.02633
G1 X120.000 Y91.879 E1.03563
G1 X119.473 Y91.820 E1.04493
G1 X118.972 Y91.644 E1.05422
G1 X118.523 Y91.362 E1.06352
G1 X118.163 Y91.003 E1.07244
G1 X117.867 Y90.541 E1.08205
G1 X117.690 Y90.037 E1.09141
G1 X117.631 Y89.510 E1.10071
G1 X117.690 Y88.983 E1.11001
G1 X117.866 Y88.482 E1.11931
G1 X118.099 Y88.110 E1.12701
G1 X118.350 Y88.194 F18000.000
G1 F540.000
G1 X118.684 Y87.860 E1.13529
G1 X119.084 Y87.609 E1.14358
G1 X119.530 Y87.453 E1.15186
G1 X119.980 Y87.402 E1.15978
G1 X120.468 Y87.452 E1.16838
G1 X120.916 Y87.609 E1.17670
G1 X121.316 Y87.860 E1.18498
G1 X121.650 Y88.194 E1.19327
G1 X121.901 Y88.594 E1.20155
G1 X122.057 Y89.040 E1.20983
G1 X122.110 Y89.510 E1.21812
G1 X122.057 Y89.980 E1.22640
G1 X121.901 Y90.426 E1.23468
G1 X121.650 Y90.826 E1.24297
G1 X121.316 Y91.160 E1.25125
G1 X120.916 Y91.411 E1.25953
G1 X120.470 Y91.567 E1.26782
G1 X120.000 Y91.620 E1.27610
G1 X119.530 Y91.567 E1.28438
G1 X119.084 Y91.411 E1.29267
G1 X118.684 Y91.160 E1.30095
G1 X118.365 Y90.840 E1.30887
G1 X118.099 Y90.428 E1.31747
G1 X117.943 Y89.980 E1.32579
G1 X117.890 Y89.510 E1.33407
G1 X117.943 Y89.040 E1.34236
G1 X118.099 Y88.594 E1.35064
G1 X118.318 Y88.245 E1.35787
G1 X118.552 Y88.356 F18000.000
;TYPE:External perimeter
G1 F540.000
G1 X118.846 Y88.062 E1.36514
G1 X119.197 Y87.842 E1.37241
G1 X119.588 Y87.705 E1.37968
G1 X119.981 Y87.661 E1.38661
G1 X120.411 Y87.705 E1.39419
G1 X120.803 Y87.842 E1.40147
G1 X121.154 Y88.062 E1.40874
G1 X121.448 Y88.356 E1.41601
G1 X121.668 Y88.707 E1.42327
G1 X121.805 Y89.098 E1.43054
G1 X121.852 Y89.510 E1.43781
G1 X121.805 Y89.922 E1.44508
G1 X121.668 Y90.313 E1.45235
G1 X121.448 Y90.664 E1.45961
G1 X121.154 Y90.958 E1.46688
G1 X120.803 Y91.178 E1.47415
G1 X120.412 Y91.315 E1.48142
G1 X120.000 Y91.362 E1.48868
G1 X119.588 Y91.315 E1.49595
G1 X119.197 Y91.178 E1.50322
G1 X118.846 Y90.958 E1.51049
G1 X118.566 Y90.678 E1.51742
G1 X118.332 Y90.314 E1.52500
G1 X118.195 Y89.922 E1.53228
G1 X118.148 Y89.510 E1.53955
G1 X118.195 Y89.098 E1.54682
G1 X118.332 Y88.707 E1.55409
G1 X118.520 Y88.406 E1.56030
G1 X118.406 Y87.983 F18000.000
G1 E1.21030 F3600.000
;WIPE_START
G1 F14400.000
G1 X118.846 Y88.062 E1.09789
G1 X118.953 Y87.995 E1.06780
;WIPE_END
G1 E1.06030 F3600.000
G92 E0
G1 X125.633 Y84.650 F18000.000
G1 E0.58000 F2400.000
;TYPE:Perimeter
G1 F540.000
G1 X125.438 Y84.095 E0.59031
G1 X125.372 Y83.510 E0.60063
G1 X125.438 Y82.925 E0.61094
G1 X125.625 Y82.392 E0.62085
G1 X125.942 Y81.875 E0.63148
G1 X126.362 Y81.456 E0.64188
G1 X126.860 Y81.143 E0.65219
G1 X127.415 Y80.948 E0.66251
G1 X127.977 Y80.885 E0.67241
G1 X128.580 Y80.947 E0.68304
G1 X129.140 Y81.143 E0.69344
G1 X129.638 Y81.456 E0.70375
G1 X130.054 Y81.872 E0.71407
G1 X130.367 Y82.370 E0.72438
G1 X130.562 Y82.925 E0.73470
G1 X130.628 Y83.510 E0.74501
G1 X130.562 Y84.095 E0.75532
G1 X130.367 Y84.650 E0.76564
G1 X130.054 Y85.148 E0.77595
G1 X129.655 Y85.548 E0.78586
G1 X129.145 Y85.876 E0.79649
G1 X128.585 Y86.072 E0.80689
G1 X128.000 Y86.138 E0.81720
G1 X127.415 Y86.072 E0.82752
G1 X126.860 Y85.877 E0.83783
G1 X126.362 Y85.564 E0.84814
G1 X125.946 Y85.148 E0.85846
G1 X125.664 Y84.701 E0.86772
G1 X125.882 Y84.564 F18000.000
G1 F540.000
G1 X125.690 Y84.037 E0.87755
G1 X125.631 Y83.510 E0.88685
G1 X125.690 Y82.983 E0.89615
G1 X125.858 Y82.503 E0.90506
G1 X126.145 Y82.035 E0.91468
G1 X126.523 Y81.658 E0.92404
G1 X126.972 Y81.376 E0.93333
G1 X127.473 Y81.200 E0.94263
G1 X127.978 Y81.143 E0.95155
G1 X128.524 Y81.199 E0.96116
G1 X129.028 Y81.376 E0.97052
G1 X129.477 Y81.658 E0.97982
G1 X129.852 Y82.033 E0.98912
G1 X130.134 Y82.482 E0.99842
G1 X130.310 Y82.983 E1.00772
G1 X130.369 Y83.510 E1.01701
G1 X130.310 Y84.037 E1.02631
G1 X130.134 Y84.538 E1.03561
G1 X129.852 Y84.987 E1.04491
G1 X129.493 Y85.347 E1.05383
G1 X129.031 Y85.643 E1.06344
G1 X128.527 Y85.820 E1.07280
G1 X128.000 Y85.879 E1.08210
G1 X127.473 Y85.820 E1.09140
G1 X126.972 Y85.644 E1.10069
G1 X126.523 Y85.362 E1.10999
G1 X126.148 Y84.987 E1.11929
G1 X125.914 Y84.615 E1.12700
G1 X126.099 Y84.426 F18000.000
G1 F540.000
G1 X125.943 Y83.980 E1.13528
G1 X125.890 Y83.510 E1.14356
G1 X125.943 Y83.040 E1.15184
G1 X126.092 Y82.614 E1.15977
G1 X126.349 Y82.196 E1.16837
G1 X126.684 Y81.860 E1.17669
G1 X127.084 Y81.609 E1.18497
G1 X127.530 Y81.453 E1.19325
G1 X127.980 Y81.402 E1.20118
G1 X128.468 Y81.452 E1.20977
G1 X128.916 Y81.609 E1.21809
G1 X129.316 Y81.860 E1.22638
G1 X129.650 Y82.194 E1.23466
G1 X129.901 Y82.594 E1.24294
G1 X130.057 Y83.040 E1.25123
G1 X130.110 Y83.510 E1.25951
G1 X130.057 Y83.980 E1.26779
G1 X129.901 Y84.426 E1.27608
G1 X129.650 Y84.826 E1.28436
G1 X129.330 Y85.145 E1.29228
G1 X128.918 Y85.411 E1.30088
G1 X128.470 Y85.567 E1.30920
G1 X128.000 Y85.620 E1.31749
G1 X127.530 Y85.567 E1.32577
G1 X127.084 Y85.411 E1.33405
G1 X126.684 Y85.160 E1.34233
G1 X126.350 Y84.826 E1.35062
G1 X126.131 Y84.476 E1.35785
G1 X126.332 Y84.313 F18000.000
;TYPE:External perimeter
G1 F540.000
G1 X126.195 Y83.922 E1.36512
G1 X126.148 Y83.510 E1.37239
G1 X126.195 Y83.098 E1.37965
G1 X126.325 Y82.725 E1.38658
G1 X126.552 Y82.356 E1.39417
G1 X126.846 Y82.062 E1.40145
G1 X127.197 Y81.842 E1.40872
G1 X127.588 Y81.705 E1.41598
G1 X127.981 Y81.661 E1.42291
G1 X128.411 Y81.705 E1.43050
G1 X128.803 Y81.842 E1.43778
G1 X129.154 Y82.062 E1.44505
G1 X129.448 Y82.356 E1.45231
G1 X129.668 Y82.707 E1.45958
G1 X129.805 Y83.098 E1.46685
G1 X129.852 Y83.510 E1.47412
G1 X129.805 Y83.922 E1.48139
G1 X129.668 Y84.313 E1.48865
G1 X129.448 Y84.664 E1.49592
G1 X129.168 Y84.944 E1.50285
G1 X128.804 Y85.178 E1.51044
G1 X128.412 Y85.315 E1.51772
G1 X128.000 Y85.362 E1.52498
G1 X127.588 Y85.315 E1.53225
G1 X127.197 Y85.178 E1.53952
G1 X126.846 Y84.958 E1.54679
G1 X126.552 Y84.664 E1.55406
G1 X126.364 Y84.364 E1.56027
G1 X125.933 Y84.283 F18000.000
G1 E1.21027 F3600.000
;WIPE_START
G1 F14400.000
G1 X126.195 Y83.922 E1.09786
G1 X126.181 Y83.796 E1.06777
;WIPE_END
G1 E1.06027 F3600.000
G92 E0
G1 X102.562 Y88.925 F18000.000
G1 E0.58000 F2400.000
;TYPE:Perimeter
G1 F540.000
G1 X102.628 Y89.510 E0.59031
G1 X102.562 Y90.095 E0.60063
G1 X102.367 Y90.650 E0.61094
G1 X102.054 Y91.148 E0.62126
G1 X101.638 Y91.564 E0.63157
G1 X101.140 Y91.877 E0.64188
G1 X100.585 Y92.072 E0.65220
G1 X100.000 Y92.138 E0.66251
G1 X99.415 Y92.072 E0.67283
G1 X98.860 Y91.877 E0.68314
G1 X98.362 Y91.564 E0.69346
G1 X97.946 Y91.148 E0.70377
G1 X97.633 Y90.650 E0.71408
G1 X97.438 Y90.095 E0.72440
G1 X97.372 Y89.510 E0.73471
G1 X97.438 Y88.925 E0.74503
G1 X97.625 Y88.392 E0.75493
G1 X97.942 Y87.875 E0.76556
G1 X98.362 Y87.456 E0.77596
G1 X98.860 Y87.143 E0.78627
G1 X99.415 Y86.948 E0.79659
G1 X99.977 Y86.885 E0.80650
G1 X100.580 Y86.947 E0.81713
G1 X101.140 Y87.143 E0.82752
G1 X101.638 Y87.456 E0.83784
G1 X102.054 Y87.872 E0.84815
G1 X102.367 Y88.370 E0.85847
G1 X102.542 Y88.869 E0.86773
G1 X102.299 Y88.954 F18000.000
G1 F540.000
G1 X102.369 Y89.510 E0.87756
G1 X102.310 Y90.037 E0.88686
G1 X102.134 Y90.538 E0.89615
G1 X101.852 Y90.987 E0.90545
G1 X101.477 Y91.362 E0.91475
G1 X101.028 Y91.644 E0.92405
G1 X100.527 Y91.820 E0.93335
G1 X100.000 Y91.879 E0.94265
G1 X99.473 Y91.820 E0.95195
G1 X98.972 Y91.644 E0.96125
G1 X98.523 Y91.362 E0.97054
G1 X98.148 Y90.987 E0.97984
G1 X97.866 Y90.538 E0.98914
G1 X97.690 Y90.037 E0.99844
G1 X97.631 Y89.510 E1.00774
G1 X97.690 Y88.983 E1.01704
G1 X97.858 Y88.503 E1.02595
G1 X98.145 Y88.035 E1.03557
G1 X98.523 Y87.658 E1.04493
G1 X98.972 Y87.376 E1.05422
G1 X99.473 Y87.200 E1.06352
G1 X99.978 Y87.143 E1.07244
G1 X100.524 Y87.199 E1.08205
G1 X101.028 Y87.376 E1.09141
G1 X101.477 Y87.658 E1.10071
G1 X101.852 Y88.033 E1.11001
G1 X102.134 Y88.482 E1.11931
G1 X102.280 Y88.897 E1.12701
G1 X102.057 Y89.040 F18000.000
G1 F540.000
G1 X102.110 Y89.510 E1.13529
G1 X102.057 Y89.980 E1.14358
G1 X101.901 Y90.426 E1.15186
G1 X101.650 Y90.826 E1.16014
G1 X101.316 Y91.160 E1.16843
G1 X100.916 Y91.411 E1.17671
G1 X100.470 Y91.567 E1.18499
G1 X100.000 Y91.620 E1.19328
G1 X99.530 Y91.567 E1.20156
G1 X99.084 Y91.411 E1.20984
G1 X98.684 Y91.160 E1.21813
G1 X98.350 Y90.826 E1.22641
G1 X98.099 Y90.426 E1.23469
G1 X97.943 Y89.980 E1.24297
G1 X97.890 Y89.510 E1.25126
G1 X97.943 Y89.040 E1.25954
G1 X98.092 Y88.614 E1.26746
G1 X98.349 Y88.196 E1.27606
G1 X98.684 Y87.860 E1.28438
G1 X99.084 Y87.609 E1.29267
G1 X99.530 Y87.453 E1.30095
G1 X99.980 Y87.402 E1.30887
G1 X100.468 Y87.452 E1.31747
G1 X100.916 Y87.609 E1.32579
G1 X101.316 Y87.860 E1.33407
G1 X101.650 Y88.194 E1.34236
G1 X101.901 Y88.594 E1.35064
G1 X102.038 Y88.984 E1.35787
G1 X101.805 Y89.098 F18000.000
;TYPE:External perimeter
G1 F540.000
G1 X101.852 Y89.510 E1.36514
G1 X101.805 Y89.922 E1.37241
G1 X101.668 Y90.313 E1.37968
G1 X101.448 Y90.664 E1.38694
G1 X101.154 Y90.958 E1.39421
G1 X100.803 Y91.178 E1.40148
G1 X100.412 Y91.315 E1.40875
G1 X100.000 Y91.362 E1.41601
G1 X99.588 Y91.315 E1.42328
G1 X99.197 Y91.178 E1.43055
G1 X98.846 Y90.958 E1.43782
G1 X98.552 Y90.664 E1.44508
G1 X98.332 Y90.313 E1.45235
G1 X98.195 Y89.922 E1.45962
G1 X98.148 Y89.510 E1.46689
G1 X98.195 Y89.098 E1.47416
G1 X98.325 Y88.725 E1.48109
G1 X98.552 Y88.356 E1.48867
G1 X98.846 Y88.062 E1.49595
G1 X99.197 Y87.842 E1.50322
G1 X99.588 Y87.705 E1.51049
G1 X99.981 Y87.661 E1.51742
G1 X100.411 Y87.705 E1.52500
G1 X100.803 Y87.842 E1.53228
G1 X101.154 Y88.062 E1.53955
G1 X101.448 Y88.356 E1.54682
G1 X101.668 Y88.707 E1.55409
G1 X101.785 Y89.041 E1.56030
G1 X102.187 Y89.216 F18000.000
G1 E1.21030 F3600.000
;WIPE_START
G1 F14400.000
G1 X101.852 Y89.510 E1.09789
G1 X101.837 Y89.636 E1.06780
;WIPE_END
G1 E1.06030 F3600.000
G92 E0
G1 X94.367 Y84.650 F18000.000
G1 E0.58000 F2400.000
;TYPE:Perimeter
G1 F540.000
G1 X94.054 Y85.148 E0.59031
G1 X93.655 Y85.548 E0.60022
G1 X93.145 Y85.876 E0.61085
G1 X92.585 Y86.072 E0.62125
G1 X92.000 Y86.138 E0.63156
G1 X91.415 Y86.072 E0.64188
G1 X90.860 Y85.877 E0.65219
G1 X90.362 Y85.564 E0.66251
G1 X89.946 Y85.148 E0.67282
G1 X89.633 Y84.650 E0.68313
G1 X89.438 Y84.095 E0.69345
G1 X89.372 Y83.510 E0.70376
G1 X89.438 Y82.925 E0.71408
G1 X89.625 Y82.392 E0.72398
G1 X89.942 Y81.875 E0.73461
G1 X90.362 Y81.456 E0.74501
G1 X90.860 Y81.143 E0.75532
G1 X91.415 Y80.948 E0.76564
G1 X91.977 Y80.885 E0.77555
G1 X92.580 Y80.947 E0.78618
G1 X93.140 Y81.143 E0.79657
G1 X93.638 Y81.456 E0.80689
G1 X94.054 Y81.872 E0.81720
G1 X94.367 Y82.370 E0.82752
G1 X94.562 Y82.925 E0.83783
G1 X94.628 Y83.510 E0.84814
G1 X94.562 Y84.095 E0.85846
G1 X94.387 Y84.593 E0.86772
G1 X94.145 Y84.509 F18000.000
G1 F540.000
G1 X93.852 Y84.987 E0.87755
G1 X93.493 Y85.347 E0.88647
G1 X93.031 Y85.643 E0.89608
G1 X92.527 Y85.820 E0.90544
G1 X92.000 Y85.879 E0.91474
G1 X91.473 Y85.820 E0.92404
G1 X90.972 Y85.644 E0.93333
G1 X90.523 Y85.362 E0.94263
G1 X90.148 Y84.987 E0.95193
G1 X89.866 Y84.538 E0.96123
G1 X89.690 Y84.037 E0.97053
G1 X89.631 Y83.510 E0.97983
G1 X89.690 Y82.983 E0.98913
G1 X89.858 Y82.503 E0.99804
G1 X90.145 Y82.035 E1.00766
G1 X90.523 Y81.658 E1.01701
G1 X90.972 Y81.376 E1.02631
G1 X91.473 Y81.200 E1.03561
G1 X91.978 Y81.143 E1.04453
G1 X92.524 Y81.199 E1.05414
G1 X93.028 Y81.376 E1.06350
G1 X93.477 Y81.658 E1.07280
G1 X93.852 Y82.033 E1.08210
G1 X94.134 Y82.482 E1.09140
G1 X94.310 Y82.983 E1.10069
G1 X94.369 Y83.510 E1.10999
G1 X94.310 Y84.037 E1.11929
G1 X94.164 Y84.452 E1.12700
G1 X93.901 Y84.426 F18000.000
G1 F540.000
G1 X93.650 Y84.826 E1.13528
G1 X93.330 Y85.145 E1.14320
G1 X92.918 Y85.411 E1.15180
G1 X92.470 Y85.567 E1.16012
G1 X92.000 Y85.620 E1.16840
G1 X91.530 Y85.567 E1.17669
G1 X91.084 Y85.411 E1.18497
G1 X90.684 Y85.160 E1.19325
G1 X90.350 Y84.826 E1.20154
G1 X90.099 Y84.426 E1.20982
G1 X89.943 Y83.980 E1.21810
G1 X89.890 Y83.510 E1.22639
G1 X89.943 Y83.040 E1.23467
G1 X90.092 Y82.614 E1.24259
G1 X90.349 Y82.196 E1.25119
G1 X90.684 Y81.860 E1.25951
G1 X91.084 Y81.609 E1.26779
G1 X91.530 Y81.453 E1.27608
G1 X91.980 Y81.402 E1.28400
G1 X92.468 Y81.452 E1.29260
G1 X92.916 Y81.609 E1.30092
G1 X93.316 Y81.860 E1.30920
G1 X93.650 Y82.194 E1.31749
G1 X93.901 Y82.594 E1.32577
G1 X94.057 Y83.040 E1.33405
G1 X94.110 Y83.510 E1.34234
G1 X94.057 Y83.980 E1.35062
G1 X93.921 Y84.369 E1.35785
G1 X93.668 Y84.313 F18000.000
;TYPE:External perimeter
G1 F540.000
G1 X93.448 Y84.664 E1.36512
G1 X93.168 Y84.944 E1.37205
G1 X92.804 Y85.178 E1.37963
G1 X92.412 Y85.315 E1.38691
G1 X92.000 Y85.362 E1.39418
G1 X91.588 Y85.315 E1.40145
G1 X91.197 Y85.178 E1.40872
G1 X90.846 Y84.958 E1.41598
G1 X90.552 Y84.664 E1.42325
G1 X90.332 Y84.313 E1.43052
G1 X90.195 Y83.922 E1.43779
G1 X90.148 Y83.510 E1.44505
G1 X90.195 Y83.098 E1.45232
M73 P0 R154
M73 Q0 S154
G1 X90.325 Y82.725 E1.45925
G1 X90.552 Y82.356 E1.46684
G1 X90.846 Y82.062 E1.47412
G1 X91.197 Y81.842 E1.48139
G1 X91.588 Y81.705 E1.48865
G1 X91.981 Y81.661 E1.49558
G1 X92.411 Y81.705 E1.50317
G1 X92.803 Y81.842 E1.51045
G1 X93.154 Y82.062 E1.51772
G1 X93.448 Y82.356 E1.52498
G1 X93.668 Y82.707 E1.53225
G1 X93.805 Y83.098 E1.53952
G1 X93.852 Y83.510 E1.54679
G1 X93.805 Y83.922 E1.55406
G1 X93.688 Y84.257 E1.56027
G1 X93.894 Y84.644 F18000.000
G1 E1.21027 F3600.000
;WIPE_START
G1 F14400.000
G1 X93.448 Y84.664 E1.09786
G1 X93.358 Y84.754 E1.06777
;WIPE_END
G1 E1.06027 F3600.000
G92 E0
G1 X85.021 Y79.531 F18000.000
G1 E0.58000 F2400.000
;TYPE:Perimeter
G1 F2700.000
G1 X134.979 Y79.531 E1.45568
