; generated by PrusaSlicer 2.3.0+win64 on 2021-02-26 at 20:52:58 UTC

; 

; external perimeters extrusion width = 0.45mm
; perimeters extrusion width = 0.45mm
; infill extrusion width = 0.45mm
; solid infill extrusion width = 0.45mm
; top infill extrusion width = 0.40mm
; support material extrusion width = 0.38mm
; first layer extrusion width = 0.35mm

M73 P0 R82
M73 Q0 S82
M201 X500 Y500 Z100 E5000 ; sets maximum accelerations, mm/sec^2
M203 X500 Y500 Z10 E60 ; sets maximum feedrates, mm/sec
M204 P500 R1000 T500 ; sets acceleration (P, T) and retract acceleration (R), mm/sec^2
M205 X8.00 Y8.00 Z0.40 E5.00 ; sets the jerk limits, mm/sec
M205 S0 T0 ; sets the minimum extruding and travel feed rate, mm/sec
M107
;TYPE:Custom
G90 ; use absolute coordinates
M83 ; extruder relative mode
M104 S215 ; set extruder temp
M140 S60 ; set bed temp
M190 S60 ; wait for bed temp
M109 S215 ; wait for extruder temp
G28 ; home all
G1 Z2 F240
G1 X2 Y10 F3000
G1 Z0.28 F240
G92 E0.0
G1 Y190 E15.0 F1500.0 ; intro line
G1 X2.3 F5000
G1 Y10 E30 F1200.0 ; intro line
G92 E0.0
G21 ; set units to millimeters
G90 ; use absolute coordinates
M82 ; use absolute distances for extrusion
G92 E0
; Filament gcode
;LAYER_CHANGE
;Z:0.2
;HEIGHT:0.2
;BEFORE_LAYER_CHANGE
M117 INDICATOR-Layer1
;0.2


G1 E-0.50000 F3600.000
G92 E0
G1 Z0.200 F18000.000
;AFTER_LAYER_CHANGE
;0.2
G1 X79.275 Y87.848
G1 E0.60000 F2400.000
;TYPE:Support material
;WIDTH:0.35
G1 F900.000
G1 X79.275 Y96.353 E0.77808
G1 X79.889 Y96.353 E0.79094
G1 X79.889 Y87.986 E0.96612
G1 X80.503 Y87.986 E0.97898
G1 X80.503 Y96.353 E1.15416
G1 X81.118 Y96.353 E1.16702
G1 X81.118 Y87.986 E1.34221
G1 X81.260 Y87.986 E1.34519
G1 X81.260 Y76.301 E1.58986
G1 X81.732 Y76.301 E1.59973
G1 X81.732 Y96.353 E2.01958
G1 X82.346 Y96.353 E2.03244
G1 X82.346 Y76.301 E2.45229
G1 X82.960 Y76.301 E2.46515
G1 X82.960 Y96.353 E2.88500
G1 X83.574 Y96.353 E2.89786
G1 X83.574 Y76.301 E3.31771
G1 X84.188 Y76.301 E3.33057
G1 X84.188 Y96.353 E3.75042
G1 X84.803 Y96.353 E3.76327
G1 X84.803 Y76.301 E4.18312
G1 X85.417 Y76.301 E4.19598
G1 X85.417 Y96.353 E4.61583
G1 X86.031 Y96.353 E4.62869
G1 X86.031 Y76.301 E5.04854
G1 X86.645 Y76.301 E5.06140
G1 X86.645 Y96.353 E5.48125
G1 X87.259 Y96.353 E5.49411
G1 X87.259 Y76.301 E5.91396
G1 X87.873 Y76.301 E5.92682
G1 X87.873 Y96.353 E6.34667
G1 X88.488 Y96.353 E6.35953
G1 X88.488 Y76.301 E6.77937
G1 X89.102 Y76.301 E6.79223
G1 X89.102 Y96.353 E7.21208
G1 X89.716 Y96.353 E7.22494
G1 X89.716 Y76.301 E7.64479
G1 X90.330 Y76.301 E7.65765
G1 X90.330 Y96.353 E8.07750
M73 P0 R81
M73 Q0 S81
G1 X90.944 Y96.353 E8.09036
G1 X90.944 Y76.301 E8.51021
G1 X91.558 Y76.301 E8.52307
G1 X91.558 Y96.353 E8.94292
G1 X92.172 Y96.353 E8.95578
G1 X92.172 Y76.301 E9.37563
G1 X92.787 Y76.301 E9.38848
G1 X92.787 Y96.353 E9.80833
G1 X93.401 Y96.353 E9.82119
G1 X93.401 Y76.301 E10.24104
M73 P1 R81
M73 Q1 S81
G1 X94.015 Y76.301 E10.25390
G1 X94.015 Y96.353 E10.67375
G1 X94.629 Y96.353 E10.68661
G1 X94.629 Y76.301 E11.10646
G1 X95.243 Y76.301 E11.11932
G1 X95.243 Y96.353 E11.53917
G1 X95.857 Y96.353 E11.55203
G1 X95.857 Y76.301 E11.97188
G1 X96.472 Y76.301 E11.98474
G1 X96.472 Y96.353 E12.40459
G1 X97.086 Y96.353 E12.41744
G1 X97.086 Y76.301 E12.83729
G1 X97.700 Y76.301 E12.85015
G1 X97.700 Y96.353 E13.27000
G1 X98.314 Y96.353 E13.28286
G1 X98.314 Y76.301 E13.70271
G1 X98.928 Y76.301 E13.71557
G1 X98.928 Y96.353 E14.13542
G1 X99.542 Y96.353 E14.14828
G1 X99.542 Y76.301 E14.56813
G1 X100.157 Y76.301 E14.58099
G1 X100.157 Y96.353 E15.00084
G1 X100.771 Y96.353 E15.01370
G1 X100.771 Y76.301 E15.43355
G1 X101.385 Y76.301 E15.44640
G1 X101.385 Y96.353 E15.86625
G1 X101.999 Y96.353 E15.87911
G1 X101.999 Y76.301 E16.29896
G1 X102.613 Y76.301 E16.31182
G1 X102.613 Y96.353 E16.73167
G1 X103.227 Y96.353 E16.74453
G1 X103.227 Y76.301 E17.16438
G1 X103.841 Y76.301 E17.17724
G1 X103.841 Y96.353 E17.59709
G1 X104.456 Y96.353 E17.60995
G1 X104.456 Y76.301 E18.02980
G1 X105.070 Y76.301 E18.04266
G1 X105.070 Y98.690 E18.51144
G1 X105.684 Y98.690 E18.52430
G1 X105.684 Y76.301 E18.99308
G1 X106.298 Y76.301 E19.00594
G1 X106.298 Y98.690 E19.47472
G1 X106.912 Y98.690 E19.48758
G1 X106.912 Y76.301 E19.95636
G1 X107.526 Y76.301 E19.96922
G1 X107.526 Y98.690 E20.43800
G1 X108.141 Y98.690 E20.45086
G1 X108.141 Y76.301 E20.91965
G1 X108.755 Y76.301 E20.93250
G1 X108.755 Y98.690 E21.40129
G1 X109.369 Y98.690 E21.41415
G1 X109.369 Y76.301 E21.88293
G1 X109.983 Y76.301 E21.89579
G1 X109.983 Y98.690 E22.36457
G1 X110.597 Y98.690 E22.37743
G1 X110.597 Y76.301 E22.84621
G1 X111.211 Y76.301 E22.85907
G1 X111.211 Y80.864 E22.95462
G1 X111.826 Y80.864 E22.96748
G1 X111.826 Y76.301 E23.06303
G1 X112.440 Y76.301 E23.07588
G1 X112.440 Y80.864 E23.17143
G1 X113.054 Y80.864 E23.18429
G1 X113.054 Y76.301 E23.27984
G1 X113.668 Y76.301 E23.29270
G1 X113.668 Y80.864 E23.38825
G1 X114.282 Y80.864 E23.40110
G1 X114.282 Y76.301 E23.49665
G1 X114.896 Y76.301 E23.50951
G1 X114.896 Y81.002 E23.60795
G1 E23.25795 F3600.000
;WIPE_START
G1 F14400.000
G1 X114.896 Y80.402 E23.11545
;WIPE_END
G1 E23.10795 F3600.000
G92 E0
G1 X110.597 Y136.222 F18000.000
G1 E0.60000 F2400.000
G1 F900.000
G1 X110.597 Y116.031 E1.02274
G1 X109.983 Y116.031 E1.03560
G1 X109.983 Y136.083 E1.45545
G1 X109.369 Y136.083 E1.46831
G1 X109.369 Y116.031 E1.88816
G1 X108.755 Y116.031 E1.90102
G1 X108.755 Y136.083 E2.32087
M73 P2 R81
M73 Q2 S81
G1 X108.141 Y136.083 E2.33373
G1 X108.141 Y116.031 E2.75358
G1 X107.526 Y116.031 E2.76644
G1 X107.526 Y136.083 E3.18629
G1 X106.912 Y136.083 E3.19914
G1 X106.912 Y116.031 E3.61899
M73 P2 R80
M73 Q2 S80
G1 X106.298 Y116.031 E3.63185
G1 X106.298 Y136.083 E4.05170
G1 X105.684 Y136.083 E4.06456
G1 X105.684 Y116.031 E4.48441
G1 X105.070 Y116.031 E4.49727
G1 X105.070 Y136.083 E4.91712
G1 X104.631 Y136.083 E4.92631
G1 X104.631 Y133.746 E4.97524
G1 X104.456 Y133.746 E4.97891
G1 X104.456 Y118.368 E5.30089
G1 X103.841 Y118.368 E5.31375
G1 X103.841 Y133.746 E5.63574
G1 X103.227 Y133.746 E5.64860
G1 X103.227 Y118.368 E5.97058
G1 X102.613 Y118.368 E5.98344
G1 X102.613 Y133.746 E6.30542
G1 X101.999 Y133.746 E6.31828
G1 X101.999 Y118.368 E6.64026
G1 X101.385 Y118.368 E6.65312
G1 X101.385 Y133.746 E6.97511
G1 X100.771 Y133.746 E6.98797
G1 X100.771 Y118.368 E7.30995
G1 X100.157 Y118.368 E7.32281
G1 X100.157 Y133.746 E7.64479
G1 X99.542 Y133.746 E7.65765
G1 X99.542 Y118.368 E7.97963
G1 X98.928 Y118.368 E7.99249
G1 X98.928 Y133.746 E8.31448
G1 X98.314 Y133.746 E8.32734
G1 X98.314 Y118.368 E8.64932
G1 X97.700 Y118.368 E8.66218
G1 X97.700 Y133.746 E8.98416
G1 X97.086 Y133.746 E8.99702
G1 X97.086 Y118.368 E9.31900
G1 X96.472 Y118.368 E9.33186
G1 X96.472 Y133.746 E9.65385
G1 X95.857 Y133.746 E9.66671
G1 X95.857 Y118.368 E9.98869
G1 X95.243 Y118.368 E10.00155
G1 X95.243 Y133.746 E10.32353
G1 X94.629 Y133.746 E10.33639
G1 X94.629 Y118.368 E10.65837
G1 X94.015 Y118.368 E10.67123
G1 X94.015 Y133.746 E10.99322
G1 X93.401 Y133.746 E11.00608
G1 X93.401 Y118.368 E11.32806
G1 X92.787 Y118.368 E11.34092
G1 X92.787 Y133.746 E11.66290
G1 X92.172 Y133.746 E11.67576
G1 X92.172 Y118.368 E11.99774
G1 X91.558 Y118.368 E12.01060
G1 X91.558 Y133.746 E12.33259
G1 X90.944 Y133.746 E12.34544
G1 X90.944 Y118.368 E12.66743
G1 X90.330 Y118.368 E12.68029
G1 X90.330 Y133.746 E13.00227
G1 X89.716 Y133.746 E13.01513
G1 X89.716 Y118.368 E13.33711
G1 X89.102 Y118.368 E13.34997
G1 X89.102 Y133.746 E13.67196
G1 X88.488 Y133.746 E13.68481
G1 X88.488 Y118.368 E14.00680
G1 X87.873 Y118.368 E14.01966
G1 X87.873 Y133.746 E14.34164
G1 X87.259 Y133.746 E14.35450
G1 X87.259 Y118.368 E14.67648
G1 X86.645 Y118.368 E14.68934
G1 X86.645 Y133.746 E15.01133
G1 X86.031 Y133.746 E15.02418
G1 X86.031 Y118.368 E15.34617
G1 X85.417 Y118.368 E15.35903
G1 X85.417 Y133.746 E15.68101
G1 X84.803 Y133.746 E15.69387
G1 X84.803 Y118.368 E16.01585
G1 X84.188 Y118.368 E16.02871
G1 X84.188 Y133.746 E16.35069
G1 X83.574 Y133.746 E16.36355
G1 X83.574 Y118.368 E16.68554
G1 X82.960 Y118.368 E16.69840
G1 X82.960 Y133.746 E17.02038
G1 X82.346 Y133.746 E17.03324
G1 X82.346 Y118.368 E17.35522
G1 X81.732 Y118.368 E17.36808
G1 X81.732 Y133.746 E17.69006
M73 P3 R80
M73 Q3 S80
G1 X81.118 Y133.746 E17.70292
G1 X81.118 Y125.379 E17.87811
G1 X80.503 Y125.379 E17.89097
G1 X80.503 Y133.746 E18.06615
G1 X79.889 Y133.746 E18.07901
G1 X79.889 Y125.379 E18.25419
G1 X79.275 Y125.379 E18.26705
G1 X79.275 Y133.885 E18.44513
G1 E18.09513 F3600.000
;WIPE_START
G1 F14400.000
G1 X79.275 Y133.285 E17.95263
;WIPE_END
G1 E17.94513 F3600.000
G92 E0
G1 X116.298 Y117.507 F18000.000
G1 E0.60000 F2400.000
;TYPE:Perimeter
G1 F540.000
G1 X116.146 Y116.862 E0.61387
G1 X116.146 Y116.200 E0.62775
G1 X116.298 Y115.555 E0.64162
G1 X116.596 Y114.963 E0.65549
G1 X117.022 Y114.455 E0.66937
G1 X117.553 Y114.060 E0.68324
G1 X118.162 Y113.797 E0.69711
G1 X118.814 Y113.682 E0.71098
G1 X119.476 Y113.721 E0.72486
G1 X120.110 Y113.911 E0.73873
G1 X120.684 Y114.242 E0.75260
G1 X121.166 Y114.697 E0.76648
G1 X121.530 Y115.250 E0.78035
G1 X121.757 Y115.873 E0.79422
G1 X121.834 Y116.531 E0.80809
G1 X121.757 Y117.189 E0.82197
G1 X121.530 Y117.812 E0.83584
G1 X121.166 Y118.366 E0.84972
G1 X120.684 Y118.820 E0.86359
G1 X120.110 Y119.151 E0.87746
G1 X119.475 Y119.341 E0.89133
G1 X118.814 Y119.380 E0.90521
G1 X118.161 Y119.265 E0.91908
G1 X117.553 Y119.002 E0.93295
G1 X117.022 Y118.607 E0.94683
G1 X116.596 Y118.099 E0.96070
G1 X116.325 Y117.561 E0.97332
G1 X116.600 Y117.423 F18000.000
G1 F540.000
G1 X116.453 Y116.827 E0.98618
G1 X116.453 Y116.236 E0.99855
G1 X116.589 Y115.661 E1.01092
G1 X116.854 Y115.133 E1.02329
G1 X117.234 Y114.680 E1.03566
G1 X117.708 Y114.327 E1.04803
G1 X118.250 Y114.093 E1.06040
G1 X118.832 Y113.991 E1.07277
G1 X119.422 Y114.025 E1.08514
G1 X119.988 Y114.195 E1.09751
G1 X120.499 Y114.490 E1.10988
G1 X120.929 Y114.896 E1.12225
G1 X121.254 Y115.389 E1.13462
G1 X121.456 Y115.944 E1.14699
G1 X121.524 Y116.531 E1.15936
G1 X121.456 Y117.118 E1.17173
G1 X121.254 Y117.673 E1.18410
G1 X120.929 Y118.167 E1.19647
G1 X120.499 Y118.572 E1.20884
G1 X119.988 Y118.868 E1.22121
G1 X119.422 Y119.037 E1.23358
G1 X118.832 Y119.071 E1.24595
G1 X118.250 Y118.969 E1.25832
G1 X117.708 Y118.735 E1.27069
G1 X117.234 Y118.382 E1.28306
G1 X116.854 Y117.929 E1.29543
G1 X116.627 Y117.476 E1.30604
G1 X116.879 Y117.296 F18000.000
G1 F540.000
G1 X116.760 Y116.791 E1.31690
G1 X116.760 Y116.272 E1.32777
G1 X116.879 Y115.766 E1.33864
G1 X117.112 Y115.303 E1.34951
G1 X117.446 Y114.905 E1.36037
G1 X117.862 Y114.595 E1.37124
G1 X118.339 Y114.390 E1.38211
G1 X118.850 Y114.300 E1.39297
G1 X119.368 Y114.330 E1.40384
G1 X119.865 Y114.479 E1.41471
G1 X120.315 Y114.738 E1.42557
G1 X120.692 Y115.094 E1.43644
G1 X120.978 Y115.528 E1.44731
G1 X121.155 Y116.016 E1.45817
G1 X121.215 Y116.531 E1.46904
G1 X121.155 Y117.047 E1.47991
G1 X120.977 Y117.534 E1.49078
G1 X120.692 Y117.968 E1.50164
G1 X120.315 Y118.324 E1.51251
G1 X119.865 Y118.584 E1.52338
G1 X119.368 Y118.733 E1.53425
G1 X118.850 Y118.763 E1.54511
G1 X118.339 Y118.673 E1.55598
G1 X117.862 Y118.467 E1.56685
G1 X117.446 Y118.157 E1.57771
G1 X117.112 Y117.759 E1.58858
G1 X116.906 Y117.349 E1.59819
G1 X117.181 Y117.211 F18000.000
;TYPE:External perimeter
G1 F540.000
G1 X117.067 Y116.755 E1.60805
G1 X117.067 Y116.307 E1.61741
G1 X117.170 Y115.872 E1.62677
G1 X117.371 Y115.473 E1.63614
G1 X117.658 Y115.130 E1.64550
G1 X118.017 Y114.863 E1.65487
G1 X118.428 Y114.686 E1.66423
G1 X118.868 Y114.608 E1.67359
G1 X119.314 Y114.634 E1.68296
G1 X119.743 Y114.763 E1.69232
G1 X120.130 Y114.986 E1.70169
G1 X120.456 Y115.293 E1.71105
G1 X120.701 Y115.667 E1.72041
G1 X120.854 Y116.087 E1.72978
G1 X120.906 Y116.531 E1.73914
G1 X120.854 Y116.975 E1.74851
G1 X120.701 Y117.396 E1.75787
G1 X120.455 Y117.769 E1.76723
G1 X120.130 Y118.076 E1.77660
G1 X119.743 Y118.300 E1.78596
G1 X119.314 Y118.428 E1.79533
G1 X118.868 Y118.454 E1.80469
G1 X118.427 Y118.376 E1.81406
G1 X118.017 Y118.199 E1.82342
G1 X117.658 Y117.932 E1.83278
G1 X117.371 Y117.590 E1.84215
G1 X117.208 Y117.265 E1.84975
G1 X116.786 Y117.145 F18000.000
G1 E1.49975 F3600.000
;WIPE_START
G1 F14400.000
G1 X117.067 Y116.755 E1.37403
G1 X117.067 Y116.684 E1.35725
;WIPE_END
G1 E1.34975 F3600.000
G92 E0
G1 X126.022 Y128.122 F18000.000
G1 E0.60000 F2400.000
;TYPE:Perimeter
G1 F540.000
G1 X126.553 Y127.726 E0.61387
G1 X127.162 Y127.464 E0.62775
G1 X127.814 Y127.349 E0.64162
G1 X128.476 Y127.387 E0.65550
G1 X129.110 Y127.577 E0.66937
G1 X129.684 Y127.909 E0.68324
G1 X130.166 Y128.364 E0.69712
G1 X130.530 Y128.917 E0.71099
G1 X130.757 Y129.540 E0.72487
G1 X130.834 Y130.198 E0.73874
G1 X130.757 Y130.856 E0.75261
G1 X130.530 Y131.479 E0.76649
G1 X130.166 Y132.032 E0.78036
G1 X129.684 Y132.487 E0.79423
G1 X129.110 Y132.818 E0.80811
G1 X128.475 Y133.008 E0.82198
G1 X127.814 Y133.047 E0.83585
G1 X127.161 Y132.932 E0.84973
G1 X126.553 Y132.669 E0.86360
G1 X126.021 Y132.273 E0.87747
G1 X125.596 Y131.766 E0.89135
G1 X125.298 Y131.174 E0.90522
G1 X125.145 Y130.529 E0.91909
G1 X125.145 Y129.867 E0.93296
G1 X125.298 Y129.222 E0.94683
G1 X125.596 Y128.629 E0.96072
G1 X125.983 Y128.168 E0.97333
G1 X126.218 Y128.365 F18000.000
G1 F540.000
G1 X126.707 Y127.994 E0.98619
G1 X127.250 Y127.760 E0.99856
G1 X127.832 Y127.657 E1.01094
G1 X128.422 Y127.692 E1.02331
G1 X128.988 Y127.861 E1.03568
G1 X129.500 Y128.157 E1.04805
G1 X129.929 Y128.562 E1.06042
G1 X130.254 Y129.056 E1.07279
G1 X130.456 Y129.611 E1.08516
G1 X130.525 Y130.198 E1.09753
G1 X130.456 Y130.785 E1.10990
G1 X130.254 Y131.340 E1.12227
G1 X129.929 Y131.834 E1.13464
G1 X129.499 Y132.239 E1.14701
G1 X128.988 Y132.534 E1.15938
G1 X128.422 Y132.704 E1.17175
G1 X127.832 Y132.738 E1.18412
G1 X127.250 Y132.635 E1.19649
G1 X126.707 Y132.401 E1.20886
G1 X126.234 Y132.049 E1.22124
M73 P3 R79
M73 Q3 S79
G1 X125.854 Y131.596 E1.23360
G1 X125.589 Y131.068 E1.24598
G1 X125.452 Y130.493 E1.25835
G1 X125.452 Y129.903 E1.27071
G1 X125.589 Y129.328 E1.28308
G1 X125.854 Y128.799 E1.29546
G1 X126.180 Y128.411 E1.30607
G1 X126.446 Y128.572 F18000.000
G1 F540.000
G1 X126.862 Y128.262 E1.31693
G1 X127.339 Y128.056 E1.32780
G1 X127.850 Y127.966 E1.33867
G1 X128.368 Y127.996 E1.34954
G1 X128.865 Y128.145 E1.36041
G1 X129.315 Y128.405 E1.37127
G1 X129.692 Y128.761 E1.38214
G1 X129.978 Y129.195 E1.39301
G1 X130.155 Y129.682 E1.40388
G1 X130.215 Y130.198 E1.41474
G1 X130.155 Y130.713 E1.42561
G1 X129.978 Y131.201 E1.43648
G1 X129.692 Y131.635 E1.44735
G1 X129.315 Y131.991 E1.45821
G1 X128.865 Y132.250 E1.46908
G1 X128.368 Y132.399 E1.47995
G1 X127.850 Y132.429 E1.49082
G1 X127.339 Y132.339 E1.50168
G1 X126.862 Y132.134 E1.51255
G1 X126.446 Y131.824 E1.52342
G1 X126.112 Y131.426 E1.53429
G1 X125.879 Y130.962 E1.54516
G1 X125.760 Y130.457 E1.55602
G1 X125.760 Y129.938 E1.56688
G1 X125.879 Y129.433 E1.57775
G1 X126.112 Y128.969 E1.58863
G1 X126.407 Y128.618 E1.59823
G1 X126.643 Y128.815 F18000.000
;TYPE:External perimeter
G1 F540.000
G1 X127.017 Y128.530 E1.60809
G1 X127.428 Y128.352 E1.61746
G1 X127.868 Y128.275 E1.62682
G1 X128.315 Y128.301 E1.63619
G1 X128.743 Y128.429 E1.64555
G1 X129.130 Y128.653 E1.65492
G1 X129.456 Y128.960 E1.66428
G1 X129.701 Y129.333 E1.67364
G1 X129.854 Y129.754 E1.68301
G1 X129.906 Y130.198 E1.69237
G1 X129.854 Y130.642 E1.70174
G1 X129.701 Y131.062 E1.71110
G1 X129.455 Y131.436 E1.72047
G1 X129.130 Y131.743 E1.72983
G1 X128.743 Y131.967 E1.73920
G1 X128.314 Y132.095 E1.74856
G1 X127.868 Y132.121 E1.75793
G1 X127.427 Y132.043 E1.76729
G1 X127.017 Y131.866 E1.77665
G1 X126.658 Y131.599 E1.78602
G1 X126.371 Y131.256 E1.79538
G1 X126.170 Y130.856 E1.80475
G1 X126.067 Y130.421 E1.81411
G1 X126.067 Y129.974 E1.82347
G1 X126.170 Y129.539 E1.83284
G1 X126.371 Y129.139 E1.84221
G1 X126.604 Y128.861 E1.84981
G1 X126.547 Y128.427 F18000.000
G1 E1.49981 F3600.000
;WIPE_START
G1 F14400.000
G1 X127.017 Y128.530 E1.37413
G1 X127.082 Y128.502 E1.35731
;WIPE_END
G1 E1.34981 F3600.000
G92 E0
G1 X127.814 Y105.713 F18000.000
G1 E0.60000 F2400.000
;TYPE:Perimeter
G1 F540.000
G1 X127.161 Y105.598 E0.61387
G1 X126.553 Y105.336 E0.62775
G1 X126.022 Y104.940 E0.64162
G1 X125.596 Y104.432 E0.65549
