; generated by PrusaSlicer 2.3.0+win64 on 2021-03-12 at 20:37:09 UTC

; 

; external perimeters extrusion width = 0.45mm
; perimeters extrusion width = 0.45mm
; infill extrusion width = 0.45mm
; solid infill extrusion width = 0.45mm
; top infill extrusion width = 0.40mm
; first layer extrusion width = 0.30mm

M73 P0 R54
M73 Q0 S54
M201 X500 Y500 Z100 E5000 ; sets maximum accelerations, mm/sec^2
M203 X500 Y500 Z10 E60 ; sets maximum feedrates, mm/sec
M204 P500 R1000 T500 ; sets acceleration (P, T) and retract acceleration (R), mm/sec^2
M205 X8.00 Y8.00 Z0.40 E5.00 ; sets the jerk limits, mm/sec
M205 S0 T0 ; sets the minimum extruding and travel feed rate, mm/sec
M107
;TYPE:Custom
G90 ; use absolute coordinates
M83 ; extruder relative mode
M104 S195 ; set extruder temp
M140 S50 ; set bed temp
M190 S50 ; wait for bed temp
M109 S195 ; wait for extruder temp
M204 S600 ;acceleration
M220 S100 ;Reset Feedrate
M221 S100 ;Reset Flowrate
G28 ; home all
G29
G1 Z2 F240
G1 X2 Y10 F3000
G1 Z0.28 F240
G92 E0.0
G1 Y190 E15.0 F1500.0 ; intro line
G1 X2.3 F5000
G1 Y10 E30 F1200.0 ; intro line
G92 E0.0
G21 ; set units to millimeters
G90 ; use absolute coordinates
M82 ; use absolute distances for extrusion
G92 E0
; Filament gcode
;LAYER_CHANGE
;Z:0.2
;HEIGHT:0.2
;BEFORE_LAYER_CHANGE
M117 INDICATOR-Layer1
;0.2


M73 P0 R53
M73 Q0 S53
G1 E-0.50000 F3600.000
G92 E0
G1 Z0.200 F18000.000
;AFTER_LAYER_CHANGE
;0.2
G1 X102.774 Y112.911
G1 E0.58000 F2400.000
;TYPE:Perimeter
;WIDTH:0.3
G1 F2700.000
G1 X117.225 Y112.911 E0.83330
G1 X117.255 Y113.026 E0.83538
G1 X116.799 Y113.282 E0.84455
G1 X116.420 Y113.529 E0.85248
G1 X116.040 Y113.814 E0.86080
G1 X115.707 Y114.104 E0.86854
G1 X115.392 Y114.422 E0.87639
G1 X115.114 Y114.750 E0.88392
G1 X114.860 Y115.105 E0.89158
G1 X114.641 Y115.477 E0.89915
G1 X114.462 Y115.854 E0.90646
G1 X114.316 Y116.254 E0.91392
G1 X114.211 Y116.664 E0.92133
G1 X114.149 Y117.070 E0.92854
G1 X114.127 Y117.490 E0.93591
G1 X114.149 Y117.910 E0.94328
G1 X114.211 Y118.316 E0.95049
G1 X114.316 Y118.726 E0.95790
G1 X114.462 Y119.126 E0.96535
G1 X114.641 Y119.503 E0.97267
G1 X114.860 Y119.874 E0.98024
G1 X115.107 Y120.221 E0.98770
G1 X115.400 Y120.567 E0.99565
G1 X115.707 Y120.877 E1.00328
G1 X116.050 Y121.174 E1.01125
G1 X116.407 Y121.442 E1.01907
G1 X116.799 Y121.698 E1.02727
G1 X117.255 Y121.954 E1.03643
G1 X117.225 Y122.069 E1.03852
G1 X102.775 Y122.069 E1.29180
G1 X102.745 Y121.954 E1.29389
G1 X103.201 Y121.698 E1.30305
G1 X103.594 Y121.442 E1.31126
G1 X103.961 Y121.165 E1.31932
G1 X104.293 Y120.876 E1.32704
G1 X104.599 Y120.568 E1.33466
G1 X104.885 Y120.231 E1.34240
G1 X105.140 Y119.875 E1.35008
G1 X105.359 Y119.503 E1.35765
G1 X105.538 Y119.126 E1.36497
G1 X105.684 Y118.726 E1.37242
G1 X105.789 Y118.315 E1.37985
G1 X105.852 Y117.900 E1.38722
G1 X105.873 Y117.490 E1.39441
G1 X105.852 Y117.080 E1.40160
G1 X105.789 Y116.665 E1.40897
G1 X105.684 Y116.254 E1.41640
G1 X105.538 Y115.853 E1.42387
G1 X105.354 Y115.467 E1.43137
G1 X105.140 Y115.105 E1.43874
G1 X104.893 Y114.760 E1.44619
G1 X104.609 Y114.422 E1.45392
G1 X104.293 Y114.104 E1.46178
G1 X103.949 Y113.805 E1.46977
G1 X103.580 Y113.529 E1.47785
G1 X103.201 Y113.283 E1.48576
G1 X102.747 Y113.031 E1.49487
G1 X102.761 Y112.970 E1.49598
G1 X101.504 Y112.654 F18000.000
G1 F2700.000
G1 X118.521 Y112.654 E1.79426
G1 X118.541 Y112.785 E1.79658
G1 X118.171 Y112.902 E1.80338
G1 X117.341 Y113.273 E1.81932
G1 X116.932 Y113.502 E1.82754
G1 X116.567 Y113.740 E1.83518
G1 X116.202 Y114.014 E1.84318
G1 X115.882 Y114.292 E1.85060
G1 X115.581 Y114.596 E1.85809
G1 X115.317 Y114.908 E1.86527
G1 X115.076 Y115.245 E1.87254
G1 X114.868 Y115.598 E1.87971
G1 X114.699 Y115.954 E1.88661
G1 X114.562 Y116.330 E1.89364
G1 X114.463 Y116.715 E1.90060
G1 X114.405 Y117.096 E1.90736
G1 X114.385 Y117.490 E1.91427
G1 X114.405 Y117.884 E1.92119
G1 X114.463 Y118.265 E1.92794
G1 X114.562 Y118.650 E1.93491
G1 X114.699 Y119.026 E1.94193
G1 X114.868 Y119.382 E1.94883
G1 X115.076 Y119.734 E1.95600
G1 X115.310 Y120.063 E1.96309
G1 X115.590 Y120.393 E1.97067
G1 X115.883 Y120.689 E1.97796
G1 X116.212 Y120.974 E1.98559
G1 X116.555 Y121.232 E1.99311
G1 X116.932 Y121.478 E2.00101
G1 X117.332 Y121.702 E2.00904
G1 X117.736 Y121.897 E2.01690
G1 X118.180 Y122.081 E2.02534
G1 X118.541 Y122.195 E2.03197
G1 X118.521 Y122.326 E2.03429
G1 X101.479 Y122.326 E2.33301
G1 X101.459 Y122.195 E2.33533
G1 X101.820 Y122.081 E2.34196
G1 X102.264 Y121.897 E2.35040
G1 X102.668 Y121.702 E2.35826
G1 X103.068 Y121.478 E2.36629
G1 X103.446 Y121.232 E2.37420
G1 X103.799 Y120.965 E2.38195
G1 X104.118 Y120.688 E2.38935
G1 X104.410 Y120.394 E2.39662
G1 X104.682 Y120.073 E2.40401
G1 X104.924 Y119.735 E2.41129
G1 X105.132 Y119.382 E2.41847
G1 X105.301 Y119.026 E2.42537
G1 X105.438 Y118.650 E2.43239
G1 X105.537 Y118.264 E2.43937
G1 X105.596 Y117.874 E2.44629
G1 X105.615 Y117.490 E2.45303
G1 X105.596 Y117.106 E2.45976
G1 X105.537 Y116.716 E2.46668
G1 X105.438 Y116.330 E2.47366
G1 X105.301 Y115.953 E2.48070
G1 X105.126 Y115.588 E2.48778
G1 X104.924 Y115.246 E2.49476
G1 X104.690 Y114.917 E2.50182
G1 X104.419 Y114.596 E2.50920
G1 X104.117 Y114.291 E2.51671
G1 X103.788 Y114.005 E2.52436
G1 X103.433 Y113.740 E2.53213
G1 X103.068 Y113.503 E2.53975
G1 X102.683 Y113.286 E2.54751
G1 X102.265 Y113.083 E2.55565
G1 X101.482 Y112.783 E2.57034
G1 X101.494 Y112.713 E2.57157
G1 E2.22157 F3600.000
;WIPE_START
G1 F14400.000
G1 X102.094 Y112.711 E2.07907
;WIPE_END
G1 E2.07157 F3600.000
G92 E0
G1 X125.863 Y113.781 F18000.000
G1 E0.58000 F2400.000
G1 F540.000
G1 X125.863 Y121.199 E0.71002
G1 X125.179 Y121.573 E0.72369
G1 X124.687 Y121.790 E0.73312
G1 X123.851 Y122.070 E0.74857
G1 X123.363 Y122.191 E0.75739
G1 X122.455 Y122.339 E0.77351
G1 X121.955 Y122.382 E0.78231
G1 X121.020 Y122.389 E0.79870
G1 X120.523 Y122.355 E0.80743
G1 X119.604 Y122.220 E0.82371
G1 X119.130 Y122.112 E0.83224
G1 X118.268 Y121.839 E0.84807
G1 X117.841 Y121.663 E0.85618
G1 X117.451 Y121.474 E0.86377
G1 X117.065 Y121.258 E0.87152
G1 X116.702 Y121.021 E0.87912
G1 X116.373 Y120.774 E0.88633
G1 X116.059 Y120.501 E0.89364
G1 X115.780 Y120.220 E0.90058
G1 X115.513 Y119.905 E0.90780
G1 X115.291 Y119.594 E0.91450
G1 X115.095 Y119.261 E0.92127
G1 X114.937 Y118.927 E0.92776
G1 X114.808 Y118.574 E0.93434
G1 X114.716 Y118.213 E0.94087
G1 X114.661 Y117.858 E0.94717
G1 X114.642 Y117.490 E0.95363
G1 X114.661 Y117.122 E0.96008
G1 X114.716 Y116.767 E0.96639
G1 X114.808 Y116.406 E0.97291
G1 X114.937 Y116.053 E0.97950
G1 X115.095 Y115.719 E0.98599
G1 X115.291 Y115.386 E0.99276
G1 X115.520 Y115.066 E0.99965
G1 X115.771 Y114.769 E1.00646
G1 X116.058 Y114.479 E1.01362
G1 X116.363 Y114.214 E1.02070
G1 X116.714 Y113.951 E1.02839
G1 X117.065 Y113.722 E1.03573
G1 X117.456 Y113.503 E1.04359
G1 X118.263 Y113.143 E1.05908
G1 X119.130 Y112.868 E1.07501
G1 X119.604 Y112.760 E1.08354
G1 X120.523 Y112.625 E1.09982
G1 X121.015 Y112.591 E1.10847
G1 X121.512 Y112.584 E1.11718
G1 X122.405 Y112.636 E1.13286
G1 X122.889 Y112.700 E1.14142
G1 X123.368 Y112.790 E1.14995
G1 X123.851 Y112.910 E1.15868
G1 X124.687 Y113.190 E1.17414
G1 X125.179 Y113.407 E1.18356
G1 X125.811 Y113.752 E1.19618
G1 X125.606 Y113.934 F18000.000
;TYPE:External perimeter
G1 F540.000
G1 X125.606 Y121.046 E1.32086
G1 X125.065 Y121.342 E1.33167
G1 X124.594 Y121.550 E1.34070
G1 X123.779 Y121.823 E1.35576
G1 X123.311 Y121.939 E1.36421
G1 X122.423 Y122.084 E1.37998
G1 X121.943 Y122.125 E1.38843
G1 X121.028 Y122.132 E1.40448
G1 X120.551 Y122.099 E1.41285
G1 X119.652 Y121.967 E1.42878
G1 X119.197 Y121.863 E1.43695
G1 X118.356 Y121.597 E1.45241
G1 X117.946 Y121.428 E1.46019
G1 X117.570 Y121.246 E1.46751
G1 X117.199 Y121.038 E1.47498
G1 X116.850 Y120.810 E1.48228
G1 X116.535 Y120.574 E1.48918
G1 X116.234 Y120.313 E1.49616
G1 X115.969 Y120.046 E1.50275
G1 X115.716 Y119.747 E1.50961
G1 X115.507 Y119.454 E1.51593
G1 X115.323 Y119.141 E1.52230
G1 X115.174 Y118.828 E1.52837
G1 X115.054 Y118.498 E1.53453
G1 X114.968 Y118.162 E1.54060
G1 X114.917 Y117.832 E1.54646
G1 X114.900 Y117.490 E1.55246
G1 X114.917 Y117.148 E1.55845
G1 X114.968 Y116.818 E1.56431
G1 X115.054 Y116.482 E1.57039
G1 X115.174 Y116.152 E1.57654
G1 X115.323 Y115.839 E1.58262
G1 X115.507 Y115.526 E1.58899
G1 X115.723 Y115.224 E1.59550
G1 X115.961 Y114.943 E1.60195
G1 X116.234 Y114.667 E1.60876
G1 X116.525 Y114.414 E1.61551
G1 X116.862 Y114.162 E1.62289
G1 X117.199 Y113.942 E1.62993
G1 X117.572 Y113.733 E1.63744
G1 X118.354 Y113.383 E1.65246
G1 X119.197 Y113.117 E1.66795
G1 X119.652 Y113.013 E1.67612
G1 X120.551 Y112.881 E1.69205
G1 X121.026 Y112.848 E1.70040
G1 X121.506 Y112.841 E1.70883
G1 X122.380 Y112.892 E1.72417
G1 X122.849 Y112.954 E1.73245
G1 X123.313 Y113.041 E1.74074
G1 X123.779 Y113.157 E1.74915
G1 X124.594 Y113.430 E1.76422
G1 X125.065 Y113.638 E1.77325
G1 X125.554 Y113.905 E1.78300
G1 X126.002 Y113.995 F18000.000
G1 E1.43300 F3600.000
;WIPE_START
G1 F14400.000
G1 X125.558 Y114.505 E1.29050
;WIPE_END
G1 E1.28300 F3600.000
G92 E0
G1 X126.378 Y121.504 F18000.000
G1 E0.58000 F2400.000
;TYPE:Perimeter
G1 F540.000
G1 X126.378 Y113.476 E0.72071
G1 X125.556 Y113.027 E0.73712
G1 X125.585 Y112.911 E0.73922
G1 X130.192 Y112.911 E0.81997
G1 X130.192 Y122.069 E0.98049
M73 P1 R53
M73 Q1 S53
G1 X125.586 Y122.069 E1.06123
G1 X125.556 Y121.953 E1.06333
G1 X126.325 Y121.533 E1.07869
G1 X126.121 Y121.351 F18000.000
G1 F540.000
G1 X126.121 Y113.629 E1.21406
G1 X125.293 Y113.176 E1.23059
G1 X124.780 Y112.950 E1.24042
G1 X124.283 Y112.784 E1.24960
G1 X124.304 Y112.654 E1.25190
G1 X130.449 Y112.654 E1.35961
G1 X130.449 Y122.326 E1.52914
G1 X124.304 Y122.326 E1.63685
G1 X124.283 Y122.196 E1.63915
G1 X124.780 Y122.030 E1.64833
G1 X125.293 Y121.804 E1.65816
G1 X126.068 Y121.380 E1.67364
G1 E1.32364 F3600.000
;WIPE_START
G1 F14400.000
G1 X126.072 Y120.780 E1.18114
;WIPE_END
G1 E1.17364 F3600.000
G92 E0
G1 X94.137 Y121.203 F18000.000
G1 E0.58000 F2400.000
G1 F540.000
G1 X94.137 Y113.781 E0.71010
G1 X94.821 Y113.407 E0.72377
G1 X95.313 Y113.190 E0.73320
G1 X96.149 Y112.910 E0.74865
G1 X96.632 Y112.790 E0.75738
G1 X97.111 Y112.700 E0.76591
G1 X97.595 Y112.636 E0.77447
G1 X98.493 Y112.583 E0.79025
G1 X99.472 Y112.624 E0.80741
G1 X100.422 Y112.766 E0.82426
G1 X101.292 Y112.989 E0.83999
G1 X101.737 Y113.143 E0.84824
G1 X102.160 Y113.317 E0.85626
G1 X102.563 Y113.513 E0.86413
G1 X102.935 Y113.723 E0.87160
G1 X103.285 Y113.951 E0.87893
G1 X103.626 Y114.206 E0.88640
G1 X103.942 Y114.479 E0.89371
G1 X104.229 Y114.770 E0.90087
G1 X104.487 Y115.075 E0.90788
G1 X104.709 Y115.386 E0.91457
G1 X104.899 Y115.709 E0.92115
G1 X105.063 Y116.053 E0.92782
G1 X105.192 Y116.406 E0.93442
G1 X105.285 Y116.767 E0.94095
G1 X105.340 Y117.132 E0.94742
G1 X105.358 Y117.490 E0.95370
G1 X105.340 Y117.848 E0.95998
G1 X105.285 Y118.213 E0.96646
G1 X105.192 Y118.574 E0.97299
G1 X105.063 Y118.927 E0.97957
G1 X104.905 Y119.261 E0.98606
G1 X104.709 Y119.594 E0.99283
G1 X104.480 Y119.914 E0.99973
G1 X104.220 Y120.220 E1.00676
G1 X103.942 Y120.501 E1.01369
G1 X103.637 Y120.765 E1.02077
G1 X103.298 Y121.021 E1.02820
G1 X102.935 Y121.258 E1.03581
G1 X102.549 Y121.474 E1.04356
G1 X102.159 Y121.663 E1.05115
G1 X101.732 Y121.839 E1.05926
G1 X100.865 Y122.113 E1.07518
G1 X99.952 Y122.297 E1.09152
G1 X99.019 Y122.387 E1.10795
G1 X98.488 Y122.396 E1.11725
G1 X97.550 Y122.340 E1.13372
G1 X96.632 Y122.190 E1.15002
G1 X95.762 Y121.953 E1.16584
G1 X94.970 Y121.641 E1.18076
G1 X94.190 Y121.231 E1.19621
G1 X94.394 Y121.048 F18000.000
;TYPE:External perimeter
G1 F540.000
G1 X94.394 Y113.934 E1.32091
G1 X94.935 Y113.638 E1.33172
G1 X95.406 Y113.430 E1.34075
G1 X96.221 Y113.157 E1.35581
G1 X96.687 Y113.041 E1.36423
G1 X97.151 Y112.954 E1.37251
G1 X97.620 Y112.892 E1.38079
G1 X98.495 Y112.841 E1.39617
G1 X99.448 Y112.881 E1.41287
G1 X100.371 Y113.018 E1.42924
G1 X101.218 Y113.235 E1.44456
G1 X101.645 Y113.383 E1.45249
G1 X102.054 Y113.552 E1.46025
G1 X102.444 Y113.741 E1.46784
G1 X102.802 Y113.942 E1.47503
G1 X103.138 Y114.162 E1.48207
G1 X103.465 Y114.406 E1.48922
G1 X103.766 Y114.667 E1.49620
G1 X104.039 Y114.943 E1.50302
G1 X104.284 Y115.233 E1.50966
G1 X104.493 Y115.526 E1.51598
G1 X104.672 Y115.830 E1.52216
G1 X104.826 Y116.152 E1.52842
G1 X104.946 Y116.482 E1.53458
G1 X105.032 Y116.818 E1.54065
G1 X105.084 Y117.158 E1.54667
G1 X105.100 Y117.490 E1.55250
G1 X105.084 Y117.822 E1.55834
G1 X105.032 Y118.162 E1.56436
G1 X104.946 Y118.498 E1.57043
G1 X104.826 Y118.828 E1.57659
G1 X104.677 Y119.141 E1.58266
G1 X104.493 Y119.454 E1.58904
G1 X104.277 Y119.756 E1.59555
G1 X104.030 Y120.046 E1.60221
G1 X103.766 Y120.313 E1.60881
G1 X103.475 Y120.566 E1.61555
G1 X103.150 Y120.810 E1.62268
G1 X102.801 Y121.038 E1.62998
G1 X102.430 Y121.246 E1.63745
G1 X102.054 Y121.428 E1.64477
G1 X101.644 Y121.597 E1.65255
G1 X100.801 Y121.864 E1.66804
G1 X99.914 Y122.043 E1.68391
G1 X99.004 Y122.130 E1.69992
G1 X98.494 Y122.139 E1.70888
G1 X97.579 Y122.084 E1.72494
G1 X96.687 Y121.939 E1.74078
G1 X95.843 Y121.708 E1.75611
G1 X95.077 Y121.407 E1.77054
G1 X94.447 Y121.076 E1.78302
G1 X93.998 Y120.991 F18000.000
G1 E1.43302 F3600.000
;WIPE_START
G1 F14400.000
G1 X94.442 Y120.476 E1.29052
;WIPE_END
G1 E1.28302 F3600.000
G92 E0
G1 X93.622 Y113.476 F18000.000
G1 E0.58000 F2400.000
;TYPE:Perimeter
G1 F540.000
G1 X93.622 Y121.514 E0.72088
G1 X94.455 Y121.951 E0.73737
G1 X94.426 Y122.069 E0.73949
G1 X89.808 Y122.069 E0.82044
G1 X89.808 Y112.911 E0.98095
G1 X94.414 Y112.911 E1.06170
G1 X94.444 Y113.027 E1.06380
G1 X93.675 Y113.447 E1.07916
G1 X93.879 Y113.629 F18000.000
G1 F540.000
G1 X93.879 Y121.358 E1.21465
G1 X94.862 Y121.875 E1.23412
G1 X95.689 Y122.200 E1.24968
G1 X95.665 Y122.326 E1.25192
G1 X89.551 Y122.326 E1.35910
G1 X89.551 Y112.654 E1.52863
G1 X95.696 Y112.654 E1.63634
G1 X95.717 Y112.784 E1.63864
G1 X95.220 Y112.950 E1.64782
G1 X94.707 Y113.176 E1.65764
G1 X93.932 Y113.600 E1.67313
G1 E1.32313 F3600.000
;WIPE_START
G1 F14400.000
G1 X93.928 Y114.200 E1.18063
;WIPE_END
G1 E1.17313 F3600.000
G92 E0
G1 X89.294 Y112.397 F18000.000
G1 E0.58000 F2400.000
G1 F2700.000
G1 X130.706 Y112.397 E1.30590
G1 X130.706 Y122.583 E1.48444
G1 X89.294 Y122.583 E2.21033
G1 X89.294 Y112.457 E2.38783
G1 X89.037 Y112.140 F18000.000
;TYPE:External perimeter
G1 F540.000
G1 X130.963 Y112.140 E3.12273
G1 X130.963 Y122.840 E3.31029
G1 X89.037 Y122.840 E4.04520
M73 P2 R53
M73 Q2 S53
G1 X89.037 Y112.200 E4.23170
G1 X89.435 Y112.173 F18000.000
G1 E3.88170 F3600.000
;WIPE_START
G1 F14400.000
G1 X89.637 Y112.199 E3.73920
;WIPE_END
G1 E3.73170 F3600.000
G92 E0
G1 X93.621 Y112.988 F18000.000
G1 E0.58000 F2400.000
;TYPE:Solid infill
;WIDTH:0.304541
G1 F1800.000
G1 X93.795 Y113.162 E0.58439
G1 X93.555 Y113.293 E0.58926
G1 X93.366 Y113.104 E0.59403
G1 X92.996 Y113.104 E0.60063
G1 X93.430 Y113.537 E0.61156
G1 X93.430 Y113.907 E0.61816
G1 X92.626 Y113.104 E0.63842
G1 X92.256 Y113.104 E0.64502
G1 X93.430 Y114.277 E0.67462
G1 X93.430 Y114.647 E0.68122
G1 X91.886 Y113.104 E0.72015
G1 X91.516 Y113.104 E0.72675
G1 X93.430 Y115.017 E0.77502
G1 X93.430 Y115.387 E0.78162
G1 X91.146 Y113.104 E0.83921
G1 X90.776 Y113.104 E0.84581
G1 X93.430 Y115.757 E0.91275
G1 X93.430 Y116.127 E0.91935
G1 X90.406 Y113.104 E0.99561
G1 X90.036 Y113.104 E1.00221
G1 X93.430 Y116.497 E1.08781
G1 X93.430 Y116.867 E1.09441
G1 X90.001 Y113.438 E1.18091
G1 X90.001 Y113.808 E1.18751
G1 X93.430 Y117.237 E1.27401
G1 X93.430 Y117.607 E1.28061
G1 X90.001 Y114.178 E1.36711
G1 X90.001 Y114.548 E1.37371
G1 X93.430 Y117.977 E1.46021
G1 X93.430 Y118.347 E1.46681
G1 X90.001 Y114.918 E1.55330
G1 X90.001 Y115.288 E1.55990
G1 X93.430 Y118.717 E1.64640
G1 X93.430 Y119.087 E1.65300
G1 X90.001 Y115.658 E1.73950
G1 X90.001 Y116.028 E1.74610
G1 X93.430 Y119.457 E1.83260
G1 X93.430 Y119.827 E1.83920
G1 X90.001 Y116.398 E1.92570
G1 X90.001 Y116.768 E1.93230
G1 X93.430 Y120.197 E2.01880
G1 X93.430 Y120.567 E2.02540
G1 X90.001 Y117.138 E2.11189
G1 X90.001 Y117.508 E2.11849
G1 X93.430 Y120.937 E2.20499
G1 X93.430 Y121.307 E2.21159
G1 X90.001 Y117.878 E2.29809
G1 X90.001 Y118.248 E2.30469
G1 X93.629 Y121.876 E2.39621
G1 X93.259 Y121.876 E2.40281
G1 X90.001 Y118.618 E2.48499
