; generated by PrusaSlicer 2.3.0+win64 on 2021-02-28 at 08:19:35 UTC

; 

; external perimeters extrusion width = 0.45mm
; perimeters extrusion width = 0.45mm
; infill extrusion width = 0.45mm
; solid infill extrusion width = 0.45mm
; top infill extrusion width = 0.40mm
; support material extrusion width = 0.38mm
; first layer extrusion width = 0.30mm

M73 P0 R124
M73 Q0 S124
M201 X500 Y500 Z100 E5000 ; sets maximum accelerations, mm/sec^2
M203 X500 Y500 Z10 E60 ; sets maximum feedrates, mm/sec
M204 P500 R1000 T500 ; sets acceleration (P, T) and retract acceleration (R), mm/sec^2
M205 X8.00 Y8.00 Z0.40 E5.00 ; sets the jerk limits, mm/sec
M205 S0 T0 ; sets the minimum extruding and travel feed rate, mm/sec
M107
;TYPE:Custom
G90 ; use absolute coordinates
M83 ; extruder relative mode
M104 S215 ; set extruder temp
M140 S60 ; set bed temp
M190 S60 ; wait for bed temp
M109 S215 ; wait for extruder temp
M204 S600 ;acceleration
M220 S100 ;Reset Feedrate
M221 S100 ;Reset Flowrate

G21 ; set units to millimeters
G90 ; use absolute coordinates
M82 ; use absolute distances for extrusion

G92 E0
G1 Z2
G1 X110.333 Y49.245
G1 Z1.200 F18000.000
G92 E1.5
;AFTER_LAYER_CHANGE
;1.2

G1 X110.333 Y49.245 E1.71961
G1 X110.406 Y49.069 E1.72752
G1 X110.529 Y48.556 E1.74938
G1 X110.541 Y48.410 E1.75544
G1 X112.602 Y46.348 E1.87632
G1 X112.392 Y45.931 E1.89568
G1 X110.550 Y47.773 E2.00367
G1 X110.529 Y47.504 E2.01487
G1 X110.464 Y47.233 E2.02644
G1 X112.146 Y45.550 E2.12507
G1 X111.868 Y45.202 E2.14357
G1 X110.310 Y46.759 E2.23490
G1 X110.204 Y46.504 E2.24637
G1 X110.103 Y46.339 E2.25438
G1 X111.556 Y44.887 E2.33953
G1 X111.208 Y44.607 E2.35802
G1 X109.851 Y45.964 E2.43758
G1 X109.562 Y45.625 E2.45602
G1 X110.829 Y44.359 E2.53026
G1 X110.415 Y44.146 E2.54956
G1 X109.140 Y45.420 E2.62426
G1 X108.056 Y44.980 F18000.000
;TYPE:Solid infill
;WIDTH:0.487766
;HEIGHT:0.2
G1 F6000.000
G1 X109.215 Y43.822 E2.67396
G1 X108.935 Y43.793 E2.68250
G1 X108.615 Y43.793 E2.69221
G1 X107.696 Y44.711 E2.73162
G1 X107.209 Y44.673 E2.74645
G1 X107.097 Y44.682 E2.74987
G1 X108.169 Y43.609 E2.79588
G1 E2.44588 F3600.000
;WIPE_START
G1 F14400.000
G1 X107.745 Y44.033 E2.30338
;WIPE_END
G1 E2.29588 F3600.000
G92 E0
G1 X92.471 Y44.877 F18000.000
G1 E0.58000 F2400.000
;WIDTH:0.485942
G1 F6000.000
G1 X92.735 Y44.613 E0.59127
G1 X92.397 Y44.325 E0.60470
G1 X92.035 Y44.687 E0.62016
G1 X91.839 Y44.702 E0.62610
G1 X91.289 Y44.806 E0.64300
G1 X92.059 Y44.036 E0.67589
G1 X91.761 Y43.782 E0.68771
G1 X91.687 Y43.782 E0.68997
G1 X90.639 Y44.829 E0.73471
G1 X90.366 Y44.476 E0.74820
G1 X91.060 Y43.782 E0.77788
G1 X90.421 Y43.795 E0.79720
G1 X89.962 Y44.254 E0.81682
G1 E0.46682 F3600.000
;WIPE_START
G1 F14400.000
G1 X90.386 Y43.830 E0.32432
;WIPE_END
G1 E0.31682 F3600.000
G92 E0
G1 X86.785 Y45.978 F18000.000
G1 E0.58000 F2400.000
;TYPE:Bridge infill
;WIDTH:0.39348
;HEIGHT:0.366606
G1 F3000.000
G1 X87.959 Y44.804 E0.64885
G1 X88.103 Y44.682 E0.65665
G1 X88.388 Y44.479 E0.67119
G1 X88.690 Y44.299 E0.68572
G1 X89.005 Y44.145 E0.70026
G1 X89.391 Y44.000 E0.71735
G1 X86.691 Y46.699 E0.87560
G1 X86.640 Y46.844 E0.88196
G1 X86.524 Y47.336 E0.90291
G1 X86.501 Y47.516 E0.91046
G1 X89.712 Y44.306 E1.09870
G1 X89.986 Y44.659 E1.11723
G1 X86.472 Y48.173 E1.32323
G1 X86.528 Y48.744 E1.34704
G1 X90.260 Y45.012 E1.56584
G1 X90.316 Y45.085 E1.56967
G1 X89.489 Y46.054 E1.62249
G1 X89.213 Y46.504 E1.64435
G1 X89.085 Y46.815 E1.65831
G1 X86.649 Y49.250 E1.80107
G1 X86.815 Y49.711 E1.82140
G1 X88.877 Y47.650 E1.94228
G1 X88.847 Y48.030 E1.95810
G1 X88.867 Y48.286 E1.96877
G1 X87.025 Y50.128 E2.07676
G1 X87.271 Y50.510 E2.09557
G1 X88.954 Y48.827 E2.19420
G1 X89.012 Y49.069 E2.20450
G1 X89.107 Y49.301 E2.21490
G1 X87.550 Y50.858 E2.30622
G1 X87.862 Y51.173 E2.32461
G1 X89.314 Y49.721 E2.40976
G1 X89.489 Y50.006 E2.42362
G1 X89.566 Y50.096 E2.42855
G1 X88.209 Y51.453 E2.50811
G1 X88.589 Y51.701 E2.52690
G1 X89.855 Y50.435 E2.60113
G1 X90.144 Y50.773 E2.61957
G1 X88.863 Y52.054 E2.69469
G1 E2.34469 F3600.000
;WIPE_START
G1 F14400.000
G1 X89.287 Y51.630 E2.20219
;WIPE_END
G1 E2.19469 F3600.000
G92 E0
G1 X91.237 Y52.462 F18000.000
G1 E0.58000 F2400.000
;TYPE:Solid infill
;WIDTH:0.487765
;HEIGHT:0.2
G1 F6000.000
G1 X92.321 Y51.378 E0.62648
G1 X92.166 Y51.390 E0.63119
G1 X91.735 Y51.335 E0.64437
G1 X90.791 Y52.278 E0.68484
G1 X90.198 Y52.243 E0.70286
G1 X91.361 Y51.080 E0.75274
G1 E0.40274 F3600.000
;WIPE_START
G1 F14400.000
G1 X90.937 Y51.504 E0.26024
;WIPE_END
G1 E0.25274 F3600.000
G92 E0
G1 X104.973 Y80.365 F18000.000
G1 E0.58000 F2400.000
;TYPE:Perimeter
;WIDTH:0.45
G1 F1800.000
G1 X105.556 Y80.105 E0.59772
G1 X106.181 Y79.973 E0.61544
G1 X106.819 Y79.973 E0.63317
G1 X107.444 Y80.105 E0.65089
G1 X108.027 Y80.365 E0.66861
G1 X108.544 Y80.740 E0.68633
G1 X108.971 Y81.215 E0.70406
G1 X109.290 Y81.768 E0.72178
G1 X109.487 Y82.375 E0.73950
G1 X109.554 Y83.010 E0.75722
G1 X109.487 Y83.645 E0.77495
G1 X109.290 Y84.252 E0.79267
G1 X108.971 Y84.805 E0.81039
G1 X108.544 Y85.280 E0.82811
G1 X108.027 Y85.655 E0.84583
G1 X107.444 Y85.915 E0.86356
G1 X106.819 Y86.047 E0.88128
G1 X106.181 Y86.047 E0.89900
G1 X105.556 Y85.915 E0.91672
G1 X104.973 Y85.655 E0.93445
G1 X104.456 Y85.280 E0.95217
G1 X104.029 Y84.805 E0.96989
G1 X103.710 Y84.252 E0.98761
G1 X103.513 Y83.645 E1.00533
G1 X103.446 Y83.010 E1.02306
G1 X103.513 Y82.375 E1.04078
G1 X103.710 Y81.768 E1.05850
G1 X104.029 Y81.215 E1.07622
G1 X104.456 Y80.740 E1.09395
G1 X104.924 Y80.400 E1.11000
G1 X105.164 Y80.730 F18000.000
G1 F1800.000
G1 X105.683 Y80.495 E1.12582
G1 X106.224 Y80.380 E1.14117
G1 X106.776 Y80.380 E1.15651
G1 X107.317 Y80.495 E1.17186
G1 X107.822 Y80.719 E1.18721
G1 X108.270 Y81.044 E1.20255
G1 X108.640 Y81.455 E1.21790
G1 X108.916 Y81.934 E1.23325
G1 X109.087 Y82.460 E1.24860
G1 X109.145 Y83.010 E1.26394
G1 X109.087 Y83.560 E1.27929
G1 X108.916 Y84.086 E1.29464
G1 X108.640 Y84.565 E1.30998
G1 X108.270 Y84.976 E1.32533
G1 X107.822 Y85.301 E1.34068
G1 X107.317 Y85.525 E1.35603
G1 X106.776 Y85.640 E1.37137
G1 X106.224 Y85.640 E1.38672
G1 X105.683 Y85.525 E1.40207
G1 X105.178 Y85.301 E1.41741
G1 X104.730 Y84.976 E1.43276
G1 X104.360 Y84.565 E1.44811
G1 X104.084 Y84.086 E1.46346
G1 X103.913 Y83.560 E1.47880
G1 X103.855 Y83.010 E1.49415
G1 X103.913 Y82.460 E1.50950
G1 X104.084 Y81.934 E1.52484
G1 X104.360 Y81.455 E1.54019
G1 X104.730 Y81.044 E1.55554
G1 X105.115 Y80.765 E1.56874
G1 X105.354 Y81.094 F18000.000
G1 F1800.000
G1 X105.809 Y80.884 E1.58265
G1 X106.266 Y80.787 E1.59562
G1 X106.734 Y80.787 E1.60859
G1 X107.191 Y80.884 E1.62157
G1 X107.618 Y81.074 E1.63454
G1 X107.996 Y81.349 E1.64751
G1 X108.309 Y81.696 E1.66048
G1 X108.542 Y82.101 E1.67346
G1 X108.687 Y82.545 E1.68643
G1 X108.736 Y83.010 E1.69940
G1 X108.687 Y83.475 E1.71237
G1 X108.542 Y83.919 E1.72534
G1 X108.309 Y84.324 E1.73832
G1 X107.996 Y84.671 E1.75129
G1 X107.618 Y84.946 E1.76426
G1 X107.191 Y85.136 E1.77723
G1 X106.734 Y85.233 E1.79020
G1 X106.266 Y85.233 E1.80318
G1 X105.809 Y85.136 E1.81615
G1 X105.382 Y84.946 E1.82912
G1 X105.004 Y84.671 E1.84209
G1 X104.691 Y84.324 E1.85506
G1 X104.458 Y83.919 E1.86804
G1 X104.313 Y83.475 E1.88101
G1 X104.264 Y83.010 E1.89398
G1 X104.313 Y82.545 E1.90695
G1 X104.458 Y82.101 E1.91992
G1 X104.691 Y81.696 E1.93290
G1 X105.004 Y81.349 E1.94587
G1 X105.306 Y81.129 E1.95622
G1 X105.587 Y81.428 F18000.000
;TYPE:External perimeter
G1 F1800.000
G1 X105.936 Y81.273 E1.96682
G1 X106.309 Y81.194 E1.97741
G1 X106.691 Y81.194 E1.98801
G1 X107.064 Y81.273 E1.99861
G1 X107.413 Y81.428 E2.00920
G1 X107.722 Y81.653 E2.01980
G1 X107.977 Y81.937 E2.03040
G1 X108.168 Y82.267 E2.04099
G1 X108.286 Y82.630 E2.05159
G1 X108.326 Y83.010 E2.06219
G1 X108.286 Y83.390 E2.07278
G1 X108.168 Y83.753 E2.08338
G1 X107.977 Y84.083 E2.09398
G1 X107.722 Y84.367 E2.10458
G1 X107.413 Y84.592 E2.11517
G1 X107.064 Y84.747 E2.12577
G1 X106.691 Y84.826 E2.13637
G1 X106.309 Y84.826 E2.14696
G1 X105.936 Y84.747 E2.15756
G1 X105.587 Y84.592 E2.16816
G1 X105.278 Y84.367 E2.17875
G1 X105.023 Y84.083 E2.18935
G1 X104.832 Y83.753 E2.19995
G1 X104.714 Y83.390 E2.21054
G1 X104.674 Y83.010 E2.22114
G1 X104.714 Y82.630 E2.23174
G1 X104.832 Y82.267 E2.24234
G1 X105.023 Y81.937 E2.25293
G1 X105.278 Y81.653 E2.26353
G1 X105.538 Y81.464 E2.27246
G1 X105.587 Y81.047 F18000.000
G1 E1.92246 F3600.000
;WIPE_START
G1 F14400.000
G1 X105.936 Y81.273 E1.81781
G1 X106.092 Y81.240 E1.77996
;WIPE_END
G1 E1.77246 F3600.000
G92 E0
G1 X95.027 Y99.365 F18000.000
G1 E0.58000 F2400.000
;TYPE:Perimeter
G1 F1800.000
G1 X95.544 Y99.740 E0.59772
G1 X95.971 Y100.215 E0.61544
G1 X96.290 Y100.768 E0.63317
G1 X96.487 Y101.375 E0.65089
G1 X96.554 Y102.010 E0.66861
G1 X96.487 Y102.645 E0.68633
G1 X96.290 Y103.252 E0.70406
G1 X95.971 Y103.805 E0.72178
G1 X95.544 Y104.280 E0.73950
G1 X95.027 Y104.655 E0.75722
G1 X94.444 Y104.915 E0.77495
G1 X93.819 Y105.047 E0.79267
G1 X93.181 Y105.047 E0.81039
G1 X92.556 Y104.915 E0.82811
G1 X91.973 Y104.655 E0.84583
G1 X91.456 Y104.280 E0.86356
G1 X91.029 Y103.805 E0.88128
G1 X90.710 Y103.252 E0.89900
G1 X90.513 Y102.645 E0.91672
G1 X90.446 Y102.010 E0.93445
G1 X90.513 Y101.375 E0.95217
G1 X90.710 Y100.768 E0.96989
G1 X91.029 Y100.215 E0.98761
G1 X91.456 Y99.740 E1.00533
G1 X91.973 Y99.365 E1.02306
G1 X92.556 Y99.105 E1.04078
G1 X93.181 Y98.973 E1.05850
G1 X93.819 Y98.973 E1.07622
G1 X94.444 Y99.105 E1.09395
G1 X94.972 Y99.341 E1.11000
G1 X94.807 Y99.712 F18000.000
G1 F1800.000
G1 X95.270 Y100.044 E1.12582
G1 X95.640 Y100.455 E1.14117
G1 X95.916 Y100.934 E1.15651
G1 X96.087 Y101.460 E1.17186
G1 X96.145 Y102.010 E1.18721
G1 X96.087 Y102.560 E1.20255
G1 X95.916 Y103.086 E1.21790
G1 X95.640 Y103.565 E1.23325
G1 X95.270 Y103.976 E1.24860
G1 X94.822 Y104.301 E1.26394
G1 X94.317 Y104.525 E1.27929
G1 X93.776 Y104.640 E1.29464
G1 X93.224 Y104.640 E1.30998
G1 X92.683 Y104.525 E1.32533
G1 X92.178 Y104.301 E1.34068
G1 X91.730 Y103.976 E1.35603
G1 X91.360 Y103.565 E1.37137
G1 X91.084 Y103.086 E1.38672
G1 X90.913 Y102.560 E1.40207
G1 X90.855 Y102.010 E1.41741
G1 X90.913 Y101.460 E1.43276
G1 X91.084 Y100.934 E1.44811
G1 X91.360 Y100.455 E1.46346
G1 X91.730 Y100.044 E1.47880
G1 X92.178 Y99.719 E1.49415
G1 X92.683 Y99.495 E1.50950
G1 X93.224 Y99.380 E1.52484
G1 X93.776 Y99.380 E1.54019
G1 X94.317 Y99.495 E1.55554
G1 X94.752 Y99.688 E1.56874
G1 X94.586 Y100.060 F18000.000
G1 F1800.000
G1 X94.996 Y100.349 E1.58265
G1 X95.309 Y100.696 E1.59562
G1 X95.542 Y101.101 E1.60859
G1 X95.687 Y101.545 E1.62157
G1 X95.736 Y102.010 E1.63454
G1 X95.687 Y102.475 E1.64751
G1 X95.542 Y102.919 E1.66048
G1 X95.309 Y103.324 E1.67345
G1 X94.996 Y103.671 E1.68643
G1 X94.618 Y103.946 E1.69940
G1 X94.191 Y104.136 E1.71237
G1 X93.734 Y104.233 E1.72534
G1 X93.266 Y104.233 E1.73832
G1 X92.809 Y104.136 E1.75129
G1 X92.382 Y103.946 E1.76426
G1 X92.004 Y103.671 E1.77723
G1 X91.691 Y103.324 E1.79020
G1 X91.458 Y102.919 E1.80318
G1 X91.313 Y102.475 E1.81615
G1 X91.264 Y102.010 E1.82912
G1 X91.313 Y101.545 E1.84209
G1 X91.458 Y101.101 E1.85506
G1 X91.691 Y100.696 E1.86804
G1 X92.004 Y100.349 E1.88101
G1 X92.382 Y100.074 E1.89398
G1 X92.809 Y99.884 E1.90695
G1 X93.266 Y99.787 E1.91992
G1 X93.734 Y99.787 E1.93290
G1 X94.191 Y99.884 E1.94587
G1 X94.532 Y100.036 E1.95622
G1 X94.413 Y100.428 F18000.000
;TYPE:External perimeter
G1 F1800.000
G1 X94.722 Y100.653 E1.96682
G1 X94.977 Y100.937 E1.97741
G1 X95.168 Y101.267 E1.98801
G1 X95.286 Y101.630 E1.99861
G1 X95.326 Y102.010 E2.00920
G1 X95.286 Y102.390 E2.01980
G1 X95.168 Y102.753 E2.03040
G1 X94.977 Y103.083 E2.04099
G1 X94.722 Y103.367 E2.05159
G1 X94.413 Y103.592 E2.06219
G1 X94.064 Y103.747 E2.07279
G1 X93.691 Y103.826 E2.08338
G1 X93.309 Y103.826 E2.09398
G1 X92.936 Y103.747 E2.10458
G1 X92.587 Y103.592 E2.11517
G1 X92.278 Y103.367 E2.12577
G1 X92.023 Y103.083 E2.13637
G1 X91.832 Y102.753 E2.14696
G1 X91.714 Y102.390 E2.15756
G1 X91.674 Y102.010 E2.16816
G1 X91.714 Y101.630 E2.17875
G1 X91.832 Y101.267 E2.18935
G1 X92.023 Y100.937 E2.19995
G1 X92.278 Y100.653 E2.21055
G1 X92.587 Y100.428 E2.22114
G1 X92.936 Y100.273 E2.23174
G1 X93.309 Y100.194 E2.24234
G1 X93.691 Y100.194 E2.25293
G1 X94.064 Y100.273 E2.26353
G1 X94.358 Y100.404 E2.27246
G1 X94.744 Y100.238 F18000.000
G1 E1.92246 F3600.000
;WIPE_START
G1 F14400.000
G1 X94.722 Y100.653 E1.81781
G1 X94.829 Y100.771 E1.77996
;WIPE_END
G1 E1.77246 F3600.000
G92 E0
G1 X93.819 Y67.047 F18000.000
G1 E0.58000 F2400.000
;TYPE:Perimeter
G1 F1800.000
G1 X93.181 Y67.047 E0.59772
G1 X92.556 Y66.915 E0.61544
G1 X91.973 Y66.655 E0.63317
G1 X91.456 Y66.280 E0.65089
G1 X91.029 Y65.805 E0.66861
G1 X90.710 Y65.252 E0.68633
G1 X90.513 Y64.645 E0.70406
G1 X90.446 Y64.010 E0.72178
G1 X90.513 Y63.375 E0.73950
G1 X90.710 Y62.768 E0.75722
G1 X91.029 Y62.215 E0.77495
G1 X91.456 Y61.740 E0.79267
G1 X91.973 Y61.365 E0.81039
G1 X92.556 Y61.105 E0.82811
G1 X93.181 Y60.973 E0.84583
G1 X93.819 Y60.973 E0.86356
G1 X94.444 Y61.105 E0.88128
G1 X95.027 Y61.365 E0.89900
G1 X95.544 Y61.740 E0.91672
G1 X95.971 Y62.215 E0.93445
G1 X96.290 Y62.768 E0.95217
G1 X96.487 Y63.375 E0.96989
G1 X96.554 Y64.010 E0.98761
G1 X96.487 Y64.645 E1.00533
G1 X96.290 Y65.252 E1.02306
G1 X95.971 Y65.805 E1.04078
G1 X95.544 Y66.280 E1.05850
G1 X95.027 Y66.655 E1.07622
G1 X94.444 Y66.915 E1.09395
G1 X93.878 Y67.035 E1.11000
G1 X93.793 Y66.637 F18000.000
G1 F1800.000
G1 X93.224 Y66.640 E1.12582
G1 X92.683 Y66.525 E1.14117
G1 X92.178 Y66.301 E1.15651
G1 X91.730 Y65.976 E1.17186
G1 X91.360 Y65.565 E1.18721
G1 X91.084 Y65.086 E1.20255
G1 X90.913 Y64.560 E1.21790
G1 X90.855 Y64.010 E1.23325
G1 X90.913 Y63.460 E1.24860
G1 X91.084 Y62.934 E1.26394
G1 X91.360 Y62.455 E1.27929
G1 X91.730 Y62.044 E1.29464
G1 X92.178 Y61.719 E1.30998
G1 X92.683 Y61.495 E1.32533
G1 X93.224 Y61.380 E1.34068
G1 X93.776 Y61.380 E1.35603
G1 X94.317 Y61.495 E1.37137
G1 X94.822 Y61.719 E1.38672
G1 X95.270 Y62.044 E1.40207
G1 X95.640 Y62.455 E1.41741
G1 X95.916 Y62.934 E1.43276
G1 X96.087 Y63.460 E1.44811
G1 X96.145 Y64.010 E1.46346
G1 X96.087 Y64.560 E1.47880
G1 X95.916 Y65.086 E1.49415
G1 X95.640 Y65.565 E1.50950
G1 X95.270 Y65.976 E1.52484
G1 X94.822 Y66.301 E1.54019
G1 X94.317 Y66.525 E1.55554
G1 X93.852 Y66.624 E1.56874
G1 X93.767 Y66.226 F18000.000
G1 F1800.000
G1 X93.266 Y66.233 E1.58265
G1 X92.809 Y66.136 E1.59562
G1 X92.382 Y65.946 E1.60859
G1 X92.004 Y65.671 E1.62157
G1 X91.691 Y65.324 E1.63454
G1 X91.458 Y64.919 E1.64751
G1 X91.313 Y64.475 E1.66048
G1 X91.264 Y64.010 E1.67346
G1 X91.313 Y63.545 E1.68643
G1 X91.458 Y63.101 E1.69940
G1 X91.691 Y62.696 E1.71237
G1 X92.004 Y62.349 E1.72534
G1 X92.382 Y62.074 E1.73832
G1 X92.809 Y61.884 E1.75129
G1 X93.266 Y61.787 E1.76426
G1 X93.734 Y61.787 E1.77723
G1 X94.191 Y61.884 E1.79020
G1 X94.618 Y62.074 E1.80318
G1 X94.996 Y62.349 E1.81615
G1 X95.309 Y62.696 E1.82912
G1 X95.542 Y63.101 E1.84209
G1 X95.687 Y63.545 E1.85506
G1 X95.736 Y64.010 E1.86804
G1 X95.687 Y64.475 E1.88101
G1 X95.542 Y64.919 E1.89398
G1 X95.309 Y65.324 E1.90695
G1 X94.996 Y65.671 E1.91992
G1 X94.618 Y65.946 E1.93290
G1 X94.191 Y66.136 E1.94587
G1 X93.826 Y66.214 E1.95622
G1 X93.691 Y65.826 F18000.000
;TYPE:External perimeter
G1 F1800.000
G1 X93.309 Y65.826 E1.96682
G1 X92.936 Y65.747 E1.97741
G1 X92.587 Y65.592 E1.98801
G1 X92.278 Y65.367 E1.99861
G1 X92.023 Y65.083 E2.00920
G1 X91.832 Y64.753 E2.01980
G1 X91.714 Y64.390 E2.03040
G1 X91.674 Y64.010 E2.04099
G1 X91.714 Y63.630 E2.05159
G1 X91.832 Y63.267 E2.06219
G1 X92.023 Y62.937 E2.07278
G1 X92.278 Y62.653 E2.08338
G1 X92.587 Y62.428 E2.09398
G1 X92.936 Y62.273 E2.10458
G1 X93.309 Y62.194 E2.11517
G1 X93.691 Y62.194 E2.12577
G1 X94.064 Y62.273 E2.13637
G1 X94.413 Y62.428 E2.14696
G1 X94.722 Y62.653 E2.15756
G1 X94.977 Y62.937 E2.16816
G1 X95.168 Y63.267 E2.17875
G1 X95.286 Y63.630 E2.18935
G1 X95.326 Y64.010 E2.19995
G1 X95.286 Y64.390 E2.21054
G1 X95.168 Y64.753 E2.22114
G1 X94.977 Y65.083 E2.23174
G1 X94.722 Y65.367 E2.24234
G1 X94.413 Y65.592 E2.25293
G1 X94.064 Y65.747 E2.26353
G1 X93.750 Y65.814 E2.27246
G1 X93.536 Y66.175 F18000.000
G1 E1.92246 F3600.000
;WIPE_START
G1 F14400.000
G1 X93.309 Y65.826 E1.81781
G1 X93.153 Y65.793 E1.77996
