; generated by PrusaSlicer 2.3.0+win64 on 2021-02-26 at 19:32:35 UTC

; 

; external perimeters extrusion width = 0.45mm
; perimeters extrusion width = 0.45mm
; infill extrusion width = 0.45mm
; solid infill extrusion width = 0.45mm
; top infill extrusion width = 0.40mm
; support material extrusion width = 0.38mm
; first layer extrusion width = 0.35mm

M73 P0 R47
M73 Q0 S47
M201 X500 Y500 Z100 E5000 ; sets maximum accelerations, mm/sec^2
M203 X500 Y500 Z10 E60 ; sets maximum feedrates, mm/sec
M204 P500 R1000 T500 ; sets acceleration (P, T) and retract acceleration (R), mm/sec^2
M205 X8.00 Y8.00 Z0.40 E5.00 ; sets the jerk limits, mm/sec
M205 S0 T0 ; sets the minimum extruding and travel feed rate, mm/sec
M107
;TYPE:Custom
G90 ; use absolute coordinates
M83 ; extruder relative mode
M104 S215 ; set extruder temp
M140 S60 ; set bed temp
M190 S60 ; wait for bed temp
M109 S215 ; wait for extruder temp
G28 ; home all
G1 Z2 F240
G1 X2 Y10 F3000
G1 Z0.28 F240
G92 E0.0
G1 Y190 E15.0 F1500.0 ; intro line
M73 P0 R46
M73 Q0 S46
G1 X2.3 F5000
G1 Y10 E30 F1200.0 ; intro line
G92 E0.0
G21 ; set units to millimeters
G90 ; use absolute coordinates
M82 ; use absolute distances for extrusion
G92 E0
; Filament gcode
;LAYER_CHANGE
;Z:0.2
;HEIGHT:0.2
;BEFORE_LAYER_CHANGE
M117 INDICATOR-Layer1
;0.2


G1 E-0.50000 F3600.000
G92 E0
G1 Z0.200 F18000.000
;AFTER_LAYER_CHANGE
;0.2
G1 X95.874 Y102.173
G1 E0.60000 F2400.000
;TYPE:Support material
;WIDTH:0.35
G1 F900.000
G1 X95.874 Y115.352 E0.87594
G1 X96.489 Y115.352 E0.88880
G1 X96.489 Y102.311 E1.16185
G1 X97.103 Y102.311 E1.17471
G1 X97.103 Y115.352 E1.44776
G1 X97.717 Y115.352 E1.46062
G1 X97.717 Y102.311 E1.73367
G1 X98.331 Y102.311 E1.74653
G1 X98.331 Y115.352 E2.01958
G1 X98.945 Y115.352 E2.03244
G1 X98.945 Y102.311 E2.30549
G1 X99.559 Y102.311 E2.31835
G1 X99.559 Y115.490 E2.59429
G1 E2.24429 F3600.000
;WIPE_START
G1 F14400.000
G1 X99.559 Y114.890 E2.10179
;WIPE_END
G1 E2.09429 F3600.000
G92 E0
G1 X111.842 Y122.771 F18000.000
G1 E0.60000 F2400.000
G1 F900.000
G1 X111.842 Y118.670 E0.68585
G1 X112.457 Y118.670 E0.69871
G1 X112.457 Y122.666 E0.78237
G1 X113.071 Y122.666 E0.79523
G1 X113.071 Y118.670 E0.87890
G1 X113.685 Y118.670 E0.89176
G1 X113.685 Y122.666 E0.97543
G1 X114.299 Y122.666 E0.98829
G1 X114.299 Y118.670 E1.07195
G1 X114.913 Y118.670 E1.08481
G1 X114.913 Y122.666 E1.16848
G1 X115.527 Y122.666 E1.18134
G1 X115.527 Y118.670 E1.26501
G1 X116.142 Y118.670 E1.27786
G1 X116.142 Y122.805 E1.36443
M73 P1 R46
M73 Q1 S46
G1 E1.01443 F3600.000
;WIPE_START
G1 F14400.000
G1 X116.142 Y122.205 E0.87192
;WIPE_END
G1 E0.86443 F3600.000
G92 E0
G1 X117.370 Y131.123 F18000.000
G1 E0.60000 F2400.000
G1 F900.000
G1 X117.370 Y122.877 E0.77265
G1 X117.519 Y122.860 F18000.000
;TYPE:Support material interface
;WIDTH:0.38
G1 F900.000
G1 X117.519 Y121.685 E0.79964
G1 X118.056 Y121.685 E0.81198
G1 X118.056 Y131.034 E1.02684
G1 X118.593 Y131.034 E1.03918
G1 X118.593 Y121.685 E1.25403
G1 X119.130 Y121.685 E1.26638
G1 X119.130 Y131.185 E1.48472
G1 X122.283 Y134.187 F18000.000
;TYPE:Support material
;WIDTH:0.35
G1 F900.000
G1 X122.283 Y118.670 E1.80960
G1 X121.669 Y118.670 E1.82246
G1 X121.669 Y134.049 E2.14444
G1 X121.055 Y134.049 E2.15730
G1 X121.055 Y118.670 E2.47928
G1 X120.441 Y118.670 E2.49214
G1 X120.441 Y134.049 E2.81412
G1 X120.026 Y134.049 E2.82280
G1 X120.026 Y138.723 E2.92067
G1 X119.827 Y138.723 E2.92485
G1 X119.827 Y118.670 E3.34470
G1 X119.212 Y118.670 E3.35756
G1 X119.212 Y121.363 E3.41394
G1 X118.598 Y121.363 E3.42680
G1 X118.598 Y118.670 E3.48318
G1 X117.984 Y118.670 E3.49604
G1 X117.984 Y121.363 E3.55242
G1 X117.370 Y121.363 E3.56528
G1 X117.370 Y118.670 E3.62166
G1 X116.756 Y118.670 E3.63452
G1 X116.756 Y138.723 E4.05437
G1 X117.370 Y138.723 E4.06723
G1 X117.370 Y131.356 E4.22148
G1 X117.984 Y131.356 E4.23434
G1 X117.984 Y138.723 E4.38858
G1 X118.598 Y138.723 E4.40144
G1 X118.598 Y131.356 E4.55569
G1 X119.212 Y131.356 E4.56855
G1 X119.212 Y138.861 E4.72569
G1 X116.142 Y138.861 F18000.000
G1 F900.000
G1 X116.142 Y131.334 E4.88330
G1 X115.527 Y131.334 E4.89616
G1 X115.527 Y138.723 E5.05087
G1 X114.913 Y138.723 E5.06373
G1 X114.913 Y131.334 E5.21844
G1 X114.299 Y131.334 E5.23130
G1 X114.299 Y138.723 E5.38602
G1 X113.685 Y138.723 E5.39887
G1 X113.685 Y131.334 E5.55359
G1 X113.071 Y131.334 E5.56645
G1 X113.071 Y138.723 E5.72116
G1 X112.457 Y138.723 E5.73402
G1 X112.457 Y131.334 E5.88873
G1 X111.842 Y131.334 E5.90159
G1 X111.842 Y138.723 E6.05631
G1 X111.228 Y138.723 E6.06917
G1 X111.228 Y131.334 E6.22388
G1 X110.614 Y131.334 E6.23674
G1 X110.614 Y138.723 E6.39145
G1 X110.000 Y138.723 E6.40431
G1 X110.000 Y131.334 E6.55902
G1 X109.386 Y131.334 E6.57188
G1 X109.386 Y138.861 E6.72949
G1 E6.37949 F3600.000
;WIPE_START
G1 F14400.000
G1 X109.386 Y138.261 E6.23699
;WIPE_END
G1 E6.22949 F3600.000
G92 E0
G1 X109.386 Y101.468 F18000.000
G1 E0.60000 F2400.000
G1 F900.000
G1 X109.386 Y94.334 E0.74937
G1 X110.000 Y94.334 E0.76223
G1 X110.000 Y101.330 E0.90871
G1 X110.614 Y101.330 E0.92157
G1 X110.614 Y94.334 E1.06805
G1 X111.228 Y94.334 E1.08091
G1 X111.228 Y101.330 E1.22739
G1 X111.842 Y101.330 E1.24025
G1 X111.842 Y94.334 E1.38673
G1 X112.457 Y94.334 E1.39959
G1 X112.457 Y101.330 E1.54607
G1 X113.071 Y101.330 E1.55893
G1 X113.071 Y94.334 E1.70540
G1 X113.685 Y94.334 E1.71826
G1 X113.685 Y101.330 E1.86474
G1 X114.299 Y101.330 E1.87760
G1 X114.299 Y94.334 E2.02408
G1 X114.913 Y94.334 E2.03694
G1 X114.913 Y101.330 E2.18342
G1 X115.527 Y101.330 E2.19628
G1 X115.527 Y94.334 E2.34276
G1 X116.142 Y94.334 E2.35562
G1 X116.142 Y101.468 E2.50499
G1 X119.212 Y101.468 F18000.000
G1 F900.000
G1 X119.212 Y96.300 E2.61320
G1 X118.598 Y96.300 E2.62606
G1 X118.598 Y101.330 E2.73137
M73 P2 R46
M73 Q2 S46
G1 X117.984 Y101.330 E2.74423
G1 X117.984 Y96.300 E2.84955
G1 X117.370 Y96.300 E2.86241
G1 X117.370 Y101.330 E2.96772
G1 X116.756 Y101.330 E2.98058
G1 X116.756 Y81.277 E3.40043
G1 X117.370 Y81.277 E3.41329
G1 X117.370 Y83.970 E3.46967
G1 X117.984 Y83.970 E3.48253
G1 X117.984 Y81.277 E3.53891
G1 X118.598 Y81.277 E3.55177
G1 X118.598 Y83.970 E3.60815
G1 X119.212 Y83.970 E3.62101
G1 X119.212 Y81.277 E3.67739
G1 X119.827 Y81.277 E3.69025
G1 X119.827 Y101.330 E4.11010
G1 X120.026 Y101.330 E4.11428
G1 X120.026 Y98.992 E4.16321
G1 X120.441 Y98.992 E4.17189
G1 X120.441 Y81.277 E4.54281
G1 X121.055 Y81.277 E4.55567
G1 X121.055 Y98.992 E4.92659
G1 X121.669 Y98.992 E4.93944
G1 X121.669 Y81.277 E5.31036
G1 X122.283 Y81.277 E5.32322
G1 X122.283 Y99.131 E5.69703
G1 E5.34703 F3600.000
;WIPE_START
G1 F14400.000
G1 X122.283 Y98.531 E5.20453
;WIPE_END
G1 E5.19703 F3600.000
G92 E0
G1 X119.130 Y96.129 F18000.000
G1 E0.60000 F2400.000
;TYPE:Support material interface
;WIDTH:0.38
G1 F900.000
G1 X119.130 Y84.292 E0.87206
G1 X118.593 Y84.292 E0.88440
G1 X118.593 Y95.978 E1.15297
G1 X118.056 Y95.978 E1.16531
M73 P2 R45
M73 Q2 S45
G1 X118.056 Y84.292 E1.43388
G1 X117.519 Y84.292 E1.44622
G1 X117.519 Y85.693 E1.47843
G1 X117.567 Y85.693 E1.47953
G1 X117.879 Y86.005 E1.48966
G1 X117.879 Y93.995 E1.67331
G1 X117.567 Y94.307 E1.68343
G1 X117.519 Y94.307 E1.68454
G1 X117.519 Y96.129 E1.72642
G1 X117.370 Y94.123 F18000.000
;TYPE:Support material
;WIDTH:0.35
G1 F900.000
G1 X117.370 Y85.877 E1.89907
G1 X116.142 Y85.805 F18000.000
G1 F900.000
G1 X116.142 Y81.277 E1.99387
G1 X115.527 Y81.277 E2.00673
G1 X115.527 Y85.666 E2.09863
G1 X114.913 Y85.666 E2.11149
G1 X114.913 Y81.277 E2.20339
G1 X114.299 Y81.277 E2.21625
G1 X114.299 Y85.666 E2.30815
G1 X113.685 Y85.666 E2.32101
G1 X113.685 Y81.277 E2.41291
G1 X113.071 Y81.277 E2.42577
G1 X113.071 Y85.666 E2.51767
G1 X112.457 Y85.666 E2.53053
G1 X112.457 Y81.277 E2.62243
G1 X111.842 Y81.277 E2.63529
G1 X111.842 Y85.805 E2.73008
G1 E2.38008 F3600.000
;WIPE_START
G1 F14400.000
G1 X111.842 Y85.205 E2.23758
;WIPE_END
G1 E2.23008 F3600.000
G92 E0
G1 X106.304 Y92.904 F18000.000
G1 E0.60000 F2400.000
;TYPE:Perimeter
G1 F2700.000
G1 X106.304 Y118.034 E1.12617
G1 X106.346 Y118.735 E1.14088
G1 X106.479 Y119.459 E1.15629
G1 X106.698 Y120.162 E1.17171
G1 X107.000 Y120.834 E1.18713
G1 X107.381 Y121.464 E1.20255
G1 X107.835 Y122.044 E1.21797
G1 X108.356 Y122.565 E1.23339
G1 X108.936 Y123.019 E1.24881
G1 X109.566 Y123.400 E1.26422
G1 X110.238 Y123.702 E1.27964
G1 X110.941 Y123.921 E1.29506
G1 X111.665 Y124.054 E1.31049
G1 X112.365 Y124.096 E1.32517
G1 X114.970 Y124.096 E1.37970
G1 X114.970 Y129.904 E1.50129
G1 X101.496 Y129.904 E1.78340
G1 X101.496 Y87.096 E2.67969
G1 X114.970 Y87.096 E2.96179
G1 X114.970 Y92.904 E3.08338
G1 X106.364 Y92.904 E3.26357
G1 X106.611 Y93.211 F18000.000
G1 F2700.000
G1 X106.611 Y118.025 E3.78311
G1 X106.652 Y118.698 E3.79724
G1 X106.778 Y119.386 E3.81188
G1 X106.986 Y120.053 E3.82652
G1 X107.273 Y120.691 E3.84116
G1 X107.634 Y121.289 E3.85580
G1 X108.066 Y121.840 E3.87044
G1 X108.560 Y122.334 E3.88508
G1 X109.111 Y122.766 E3.89972
G1 X109.709 Y123.127 E3.91436
G1 X110.347 Y123.414 E3.92900
G1 X111.014 Y123.622 E3.94364
G1 X111.702 Y123.748 E3.95830
G1 X112.374 Y123.789 E3.97239
G1 X115.277 Y123.789 E4.03316
G1 X115.277 Y130.211 E4.16761
G1 X101.189 Y130.211 E4.46257
G1 X101.189 Y86.789 E5.37172
G1 X115.277 Y86.789 E5.66668
G1 X115.277 Y93.211 E5.80114
G1 X106.671 Y93.211 E5.98132
G1 X106.918 Y93.518 F18000.000
G1 F2700.000
G1 X106.918 Y118.015 E6.49424
G1 X106.957 Y118.661 E6.50778
G1 X107.076 Y119.312 E6.52165
G1 X107.273 Y119.944 E6.53551
G1 X107.545 Y120.548 E6.54937
G1 X107.888 Y121.115 E6.56324
G1 X108.296 Y121.636 E6.57710
G1 X108.764 Y122.104 E6.59096
G1 X109.285 Y122.512 E6.60482
G1 X109.852 Y122.855 E6.61869
G1 X110.456 Y123.127 E6.63255
G1 X111.088 Y123.324 E6.64641
G1 X111.740 Y123.443 E6.66029
G1 X112.384 Y123.482 E6.67380
G1 X115.584 Y123.482 E6.74080
G1 X115.584 Y130.518 E6.88811
G1 X100.882 Y130.518 E7.19593
G1 X100.882 Y86.482 E8.11794
G1 X115.584 Y86.482 E8.42576
G1 X115.584 Y93.518 E8.57307
G1 X106.978 Y93.518 E8.75326
G1 X107.225 Y93.825 F18000.000
;TYPE:External perimeter
G1 F6000.000
G1 X107.225 Y118.006 E9.25956
G1 X107.262 Y118.624 E9.27251
G1 X107.375 Y119.239 E9.28560
G1 X107.561 Y119.835 E9.29868
G1 X107.817 Y120.405 E9.31177
G1 X108.141 Y120.940 E9.32485
G1 X108.526 Y121.432 E9.33794
G1 X108.968 Y121.874 E9.35102
G1 X109.460 Y122.259 E9.36411
G1 X109.995 Y122.583 E9.37719
G1 X110.565 Y122.839 E9.39028
G1 X111.161 Y123.025 E9.40336
G1 X111.777 Y123.138 E9.41646
G1 X112.393 Y123.175 E9.42939
G1 X115.891 Y123.175 E9.50262
G1 X115.891 Y130.825 E9.66280
M73 P3 R45
M73 Q3 S45
G1 X100.575 Y130.825 E9.98348
G1 X100.575 Y86.175 E10.91834
G1 X115.891 Y86.175 E11.23902
G1 X115.891 Y93.825 E11.39920
G1 X107.285 Y93.825 E11.57938
G1 X106.837 Y93.920 F18000.000
G1 E11.22938 F3600.000
;WIPE_START
G1 F14400.000
G1 X107.284 Y94.425 E11.08688
;WIPE_END
G1 E11.07938 F3600.000
G92 E0
G1 X114.252 Y87.188 F18000.000
G1 E0.60000 F2400.000
;TYPE:Solid infill
;WIDTH:0.352134
G1 F1800.000
G1 X114.739 Y87.675 E0.61452
G1 X114.739 Y88.113 E0.62374
G1 X113.953 Y87.327 E0.64719
G1 X113.516 Y87.327 E0.65641
G1 X114.739 Y88.550 E0.69289
G1 X114.739 Y88.987 E0.70211
G1 X113.078 Y87.327 E0.75163
G1 X112.641 Y87.327 E0.76084
G1 X114.739 Y89.425 E0.82340
G1 X114.739 Y89.862 E0.83262
G1 X112.204 Y87.327 E0.90822
G1 X111.767 Y87.327 E0.91744
G1 X114.739 Y90.299 E1.00607
G1 X114.739 Y90.737 E1.01529
G1 X111.329 Y87.327 E1.11697
G1 X110.892 Y87.327 E1.12618
G1 X114.739 Y91.174 E1.24090
G1 X114.739 Y91.611 E1.25012
G1 X110.455 Y87.327 E1.37787
G1 X110.017 Y87.327 E1.38709
G1 X114.739 Y92.048 E1.52787
G1 X114.739 Y92.486 E1.53709
G1 X109.580 Y87.327 E1.69092
G1 X109.143 Y87.327 E1.70014
G1 X114.490 Y92.673 E1.85956
G1 X114.052 Y92.673 E1.86878
G1 X108.706 Y87.327 E2.02821
G1 X108.268 Y87.327 E2.03743
G1 X113.615 Y92.673 E2.19685
G1 X113.178 Y92.673 E2.20607
G1 X107.831 Y87.327 E2.36550
G1 X107.394 Y87.327 E2.37472
G1 X112.741 Y92.673 E2.53414
G1 X112.303 Y92.673 E2.54336
G1 X106.956 Y87.327 E2.70279
G1 X106.519 Y87.327 E2.71201
G1 X111.866 Y92.673 E2.87143
G1 X111.429 Y92.673 E2.88065
G1 X106.082 Y87.327 E3.04008
G1 X105.644 Y87.327 E3.04930
G1 X110.991 Y92.673 E3.20872
G1 X110.554 Y92.673 E3.21794
G1 X105.207 Y87.327 E3.37737
G1 X104.770 Y87.327 E3.38659
G1 X110.117 Y92.673 E3.54601
G1 X109.679 Y92.673 E3.55523
G1 X104.333 Y87.327 E3.71466
G1 X103.895 Y87.327 E3.72388
G1 X109.242 Y92.673 E3.88330
G1 X108.805 Y92.673 E3.89252
G1 X103.458 Y87.327 E4.05194
G1 X103.021 Y87.327 E4.06116
G1 X108.368 Y92.673 E4.22059
G1 X107.930 Y92.673 E4.22981
G1 X102.583 Y87.327 E4.38923
G1 X102.146 Y87.327 E4.39845
G1 X107.493 Y92.673 E4.55788
G1 X107.056 Y92.673 E4.56710
G1 X101.727 Y87.344 E4.72599
G1 X101.727 Y87.782 E4.73521
G1 X106.618 Y92.673 E4.88107
G1 X106.181 Y92.673 E4.89029
G1 X101.727 Y88.219 E5.02311
G1 X101.727 Y88.656 E5.03233
G1 X106.073 Y93.003 E5.16194
G1 X106.073 Y93.440 E5.17116
G1 X101.727 Y89.093 E5.30077
G1 X101.727 Y89.531 E5.30999
G1 X106.073 Y93.878 E5.43960
G1 X106.073 Y94.315 E5.44882
G1 X101.727 Y89.968 E5.57842
G1 X101.727 Y90.405 E5.58764
G1 X106.073 Y94.752 E5.71725
G1 X106.073 Y95.190 E5.72647
G1 X101.727 Y90.843 E5.85608
G1 X101.727 Y91.280 E5.86530
G1 X106.073 Y95.627 E5.99491
G1 X106.073 Y96.064 E6.00413
G1 X101.727 Y91.717 E6.13374
G1 X101.727 Y92.155 E6.14296
G1 X106.073 Y96.501 E6.27257
G1 X106.073 Y96.939 E6.28179
G1 X101.727 Y92.592 E6.41139
G1 X101.727 Y93.029 E6.42061
G1 X106.073 Y97.376 E6.55022
G1 X106.073 Y97.813 E6.55944
G1 X101.727 Y93.466 E6.68905
G1 X101.727 Y93.904 E6.69827
G1 X106.073 Y98.251 E6.82788
G1 X106.073 Y98.688 E6.83710
G1 X101.727 Y94.341 E6.96671
G1 X101.727 Y94.778 E6.97593
G1 X106.073 Y99.125 E7.10554
G1 X106.073 Y99.562 E7.11476
G1 X101.727 Y95.216 E7.24437
G1 X101.727 Y95.653 E7.25358
G1 X106.073 Y100.000 E7.38319
G1 X106.073 Y100.437 E7.39241
G1 X101.727 Y96.090 E7.52202
G1 X101.727 Y96.527 E7.53124
G1 X106.073 Y100.874 E7.66085
G1 X106.073 Y101.312 E7.67007
G1 X101.727 Y96.965 E7.79968
G1 X101.727 Y97.402 E7.80890
G1 X106.073 Y101.749 E7.93851
G1 X106.073 Y102.186 E7.94773
G1 X101.727 Y97.839 E8.07734
G1 X101.727 Y98.277 E8.08656
G1 X106.073 Y102.624 E8.21616
G1 X106.073 Y103.061 E8.22538
G1 X101.727 Y98.714 E8.35499
G1 X101.727 Y99.151 E8.36421
G1 X106.073 Y103.498 E8.49382
G1 X106.073 Y103.935 E8.50304
G1 X101.727 Y99.589 E8.63265
G1 X101.727 Y100.026 E8.64187
G1 X106.073 Y104.373 E8.77148
G1 X106.073 Y104.810 E8.78070
G1 X101.727 Y100.463 E8.91031
G1 X101.727 Y100.900 E8.91953
G1 X106.073 Y105.247 E9.04913
G1 X106.073 Y105.685 E9.05835
G1 X101.727 Y101.338 E9.18796
G1 X101.727 Y101.775 E9.19718
G1 X106.073 Y106.122 E9.32679
G1 X106.073 Y106.559 E9.33601
G1 X101.727 Y102.212 E9.46562
G1 X101.727 Y102.650 E9.47484
G1 X106.073 Y106.997 E9.60445
G1 X106.073 Y107.434 E9.61367
G1 X101.727 Y103.087 E9.74328
G1 X101.727 Y103.524 E9.75250
G1 X106.073 Y107.871 E9.88210
G1 X106.073 Y108.308 E9.89132
G1 X101.727 Y103.961 E10.02093
G1 X101.727 Y104.399 E10.03015
G1 X106.073 Y108.746 E10.15976
G1 X106.073 Y109.183 E10.16898
G1 X101.727 Y104.836 E10.29859
G1 X101.727 Y105.273 E10.30781
G1 X106.073 Y109.620 E10.43742
G1 X106.073 Y110.058 E10.44664
G1 X101.727 Y105.711 E10.57625
G1 X101.727 Y106.148 E10.58547
G1 X106.073 Y110.495 E10.71508
G1 X106.073 Y110.932 E10.72429
G1 X101.727 Y106.585 E10.85390
G1 X101.727 Y107.023 E10.86312
G1 X106.073 Y111.369 E10.99273
G1 X106.073 Y111.807 E11.00195
G1 X101.727 Y107.460 E11.13156
G1 X101.727 Y107.897 E11.14078
G1 X106.073 Y112.244 E11.27039
G1 X106.073 Y112.681 E11.27961
G1 X101.727 Y108.334 E11.40922
G1 X101.727 Y108.772 E11.41844
G1 X106.073 Y113.119 E11.54805
G1 X106.073 Y113.556 E11.55727
G1 X101.727 Y109.209 E11.68687
G1 X101.727 Y109.646 E11.69609
G1 X106.073 Y113.993 E11.82570
G1 X106.073 Y114.431 E11.83492
G1 X101.727 Y110.084 E11.96453
G1 X101.727 Y110.521 E11.97375
G1 X106.073 Y114.868 E12.10336
G1 X106.073 Y115.305 E12.11258
G1 X101.727 Y110.958 E12.24219
G1 X101.727 Y111.395 E12.25141
G1 X106.073 Y115.742 E12.38102
G1 X106.073 Y116.180 E12.39024
G1 X101.727 Y111.833 E12.51984
G1 X101.727 Y112.270 E12.52906
G1 X106.073 Y116.617 E12.65867
G1 X106.073 Y117.054 E12.66789
G1 X101.727 Y112.707 E12.79750
