; generated by PrusaSlicer 2.3.0+win64 on 2021-03-14 at 21:50:44 UTC

; 

; external perimeters extrusion width = 0.40mm
; perimeters extrusion width = 0.40mm
; infill extrusion width = 0.40mm
; solid infill extrusion width = 0.40mm
; top infill extrusion width = 0.40mm
; support material extrusion width = 0.38mm

M73 P0 R130
M73 Q0 S130
M201 X500 Y500 Z100 E5000 ; sets maximum accelerations, mm/sec^2
M203 X500 Y500 Z10 E60 ; sets maximum feedrates, mm/sec
M204 P500 R1000 T500 ; sets acceleration (P, T) and retract acceleration (R), mm/sec^2
M205 X8.00 Y8.00 Z0.40 E5.00 ; sets the jerk limits, mm/sec
M205 S0 T0 ; sets the minimum extruding and travel feed rate, mm/sec
M107
;TYPE:Custom
G90 ; use absolute coordinates
M83 ; extruder relative mode
M104 S195 ; set extruder temp
M140 S50 ; set bed temp
M190 S50 ; wait for bed temp
M109 S195 ; wait for extruder temp
M204 S600 ;acceleration
M220 S100 ;Reset Feedrate
M221 S100 ;Reset Flowrate
G28 ; home all
G29
G1 Z2 F240
G1 X2 Y10 F3000
G1 Z0.28 F240
G92 E0.0
G1 Y190 E15.0 F1500.0 ; intro line
G1 X2.3 F5000
G1 Y10 E30 F1200.0 ; intro line
G92 E0.0
G21 ; set units to millimeters
G90 ; use absolute coordinates
M82 ; use absolute distances for extrusion
G92 E0
; Filament gcode
;LAYER_CHANGE
;Z:0.2
;HEIGHT:0.2
;BEFORE_LAYER_CHANGE
M117 INDICATOR-Layer1
;0.2


G1 E-0.50000 F3600.000
G92 E0
G1 Z0.200 F18000.000
;AFTER_LAYER_CHANGE
;0.2
G1 X81.685 Y58.652
G1 E0.54000 F2400.000
;TYPE:Support material
;WIDTH:0.38
G1 F900.000
G1 X81.685 Y66.258 E0.74254
G1 X82.359 Y66.258 E0.76049
G1 X82.359 Y58.030 E0.97958
G1 X82.410 Y57.964 E0.98179
G1 X83.034 Y57.491 E1.00263
G1 X83.034 Y66.410 E1.24012
G1 E0.89012 F3600.000
;WIPE_START
G1 F14400.000
G1 X83.034 Y65.810 E0.74762
;WIPE_END
G1 E0.74012 F3600.000
G92 E0
G1 X81.685 Y71.792 F18000.000
G1 E0.54000 F2400.000
G1 F900.000
G1 X81.685 Y148.056 E2.57067
G1 X82.359 Y148.056 E2.58862
G1 X82.359 Y71.944 E4.61525
G1 X83.034 Y71.944 E4.63320
G1 X83.034 Y148.056 E6.65983
G1 X83.629 Y148.056 E6.67569
G1 X83.629 Y157.404 E6.92461
G1 X83.708 Y157.404 E6.92670
G1 X83.708 Y57.116 E9.59705
G1 X84.382 Y56.844 E9.61642
G1 X84.382 Y157.404 E12.29403
M73 P0 R129
M73 Q0 S129
G1 X85.056 Y157.404 E12.31198
G1 X85.056 Y56.756 E14.99194
G1 X85.534 Y56.694 E15.00478
G1 X85.730 Y56.694 E15.01000
G1 X85.730 Y157.404 E17.69161
G1 X86.404 Y157.404 E17.70956
G1 X86.404 Y56.694 E20.39118
G1 X87.079 Y56.694 E20.40913
G1 X87.079 Y157.404 E23.09075
G1 X87.753 Y157.404 E23.10870
G1 X87.753 Y56.694 E25.79031
M73 P1 R129
M73 Q1 S129
G1 X88.427 Y56.694 E25.80826
G1 X88.427 Y163.306 E28.64703
G1 X89.101 Y163.306 E28.66498
G1 X89.101 Y56.694 E31.50375
G1 X89.775 Y56.694 E31.52170
G1 X89.775 Y163.306 E34.36047
G1 X90.449 Y163.306 E34.37842
G1 X90.449 Y56.694 E37.21719
M73 P1 R128
M73 Q1 S128
G1 X91.124 Y56.694 E37.23514
G1 X91.124 Y163.306 E40.07391
G1 X91.798 Y163.306 E40.09186
G1 X91.798 Y56.694 E42.93063
G1 X92.472 Y56.694 E42.94858
G1 X92.472 Y163.306 E45.78735
G1 X93.146 Y163.306 E45.80530
G1 X93.146 Y56.694 E48.64407
G1 X93.820 Y56.694 E48.66202
G1 X93.820 Y163.458 E51.50482
G1 X125.506 Y163.458 F18000.000
G1 F900.000
G1 X125.506 Y135.045 E52.26138
G1 X124.831 Y135.045 E52.27933
G1 X124.831 Y163.306 E53.03184
G1 X124.157 Y163.306 E53.04979
G1 X124.157 Y135.045 E53.80231
G1 X123.483 Y135.045 E53.82026
G1 X123.483 Y163.306 E54.57277
M73 P2 R128
M73 Q2 S128
G1 X122.809 Y163.306 E54.59072
G1 X122.809 Y135.045 E55.34324
G1 X122.135 Y135.045 E55.36119
G1 X122.135 Y163.306 E56.11370
G1 X121.461 Y163.306 E56.13165
G1 X121.461 Y135.045 E56.88417
G1 X120.787 Y135.045 E56.90212
G1 X120.787 Y163.306 E57.65463
G1 X120.112 Y163.306 E57.67258
G1 X120.112 Y135.045 E58.42510
G1 X119.438 Y135.045 E58.44305
G1 X119.438 Y163.306 E59.19556
M73 P2 R127
M73 Q2 S127
G1 X118.764 Y163.306 E59.21351
G1 X118.764 Y135.045 E59.96603
G1 X118.090 Y135.045 E59.98398
G1 X118.090 Y163.306 E60.73649
G1 X117.416 Y163.306 E60.75444
G1 X117.416 Y135.045 E61.50695
G1 X116.742 Y135.045 E61.52491
G1 X116.742 Y163.306 E62.27742
G1 X116.067 Y163.306 E62.29537
G1 X116.067 Y135.045 E63.04788
G1 X115.393 Y135.045 E63.06584
G1 X115.393 Y163.306 E63.81835
G1 X114.719 Y163.306 E63.83630
G1 X114.719 Y135.045 E64.58881
G1 X114.045 Y135.045 E64.60676
G1 X114.045 Y163.306 E65.35928
G1 X113.371 Y163.306 E65.37723
G1 X113.371 Y135.045 E66.12974
G1 X112.697 Y135.045 E66.14769
G1 X112.697 Y163.306 E66.90021
G1 X112.022 Y163.306 E66.91816
G1 X112.022 Y135.045 E67.67067
G1 X111.348 Y135.045 E67.68862
G1 X111.348 Y163.306 E68.44114
G1 X110.674 Y163.306 E68.45909
G1 X110.674 Y135.045 E69.21160
G1 X110.000 Y135.045 E69.22955
G1 X110.000 Y163.306 E69.98207
G1 X109.326 Y163.306 E70.00002
G1 X109.326 Y135.045 E70.75253
G1 X108.652 Y135.045 E70.77048
G1 X108.652 Y163.306 E71.52300
G1 X107.978 Y163.306 E71.54095
G1 X107.978 Y135.045 E72.29346
G1 X107.303 Y135.045 E72.31141
G1 X107.303 Y163.306 E73.06393
G1 X106.629 Y163.306 E73.08188
G1 X106.629 Y135.045 E73.83439
G1 X105.955 Y135.045 E73.85234
G1 X105.955 Y163.306 E74.60486
G1 X105.281 Y163.306 E74.62281
G1 X105.281 Y135.045 E75.37532
G1 X104.607 Y135.045 E75.39327
G1 X104.607 Y163.306 E76.14579
G1 X103.933 Y163.306 E76.16374
G1 X103.933 Y135.045 E76.91625
G1 X103.258 Y135.045 E76.93420
G1 X103.258 Y163.306 E77.68672
G1 X102.584 Y163.306 E77.70467
G1 X102.584 Y135.045 E78.45718
G1 X101.910 Y135.045 E78.47513
G1 X101.910 Y163.306 E79.22765
G1 X101.236 Y163.306 E79.24560
G1 X101.236 Y135.045 E79.99811
G1 X100.562 Y135.045 E80.01606
G1 X100.562 Y163.306 E80.76857
G1 X99.888 Y163.306 E80.78653
G1 X99.888 Y135.045 E81.53904
G1 X99.213 Y135.045 E81.55699
G1 X99.213 Y163.306 E82.30950
G1 X98.539 Y163.306 E82.32746
G1 X98.539 Y135.045 E83.07997
M73 P2 R126
M73 Q2 S126
G1 X97.865 Y135.045 E83.09792
G1 X97.865 Y163.306 E83.85043
G1 X97.191 Y163.306 E83.86838
G1 X97.191 Y135.045 E84.62090
G1 X96.517 Y135.045 E84.63885
G1 X96.517 Y163.306 E85.39136
G1 X95.843 Y163.306 E85.40931
G1 X95.843 Y135.045 E86.16183
M73 P3 R126
M73 Q3 S126
G1 X95.168 Y135.045 E86.17978
G1 X95.168 Y163.306 E86.93229
G1 X94.494 Y163.306 E86.95024
G1 X94.494 Y135.045 E87.70276
G1 X94.303 Y135.045 E87.70785
G1 X94.303 Y66.258 E89.53942
G1 X94.494 Y66.258 E89.54451
G1 X94.494 Y56.694 E89.79919
G1 X95.169 Y56.694 E89.81714
G1 X95.169 Y66.258 E90.07182
G1 X95.843 Y66.258 E90.08977
G1 X95.843 Y56.694 E90.34445
G1 X96.517 Y56.694 E90.36240
G1 X96.517 Y66.258 E90.61708
G1 X97.191 Y66.258 E90.63503
G1 X97.191 Y56.694 E90.88971
G1 X97.865 Y56.694 E90.90766
G1 X97.865 Y66.258 E91.16234
G1 X98.539 Y66.258 E91.18030
G1 X98.539 Y56.694 E91.43498
G1 X99.213 Y56.694 E91.45293
G1 X99.213 Y66.258 E91.70761
G1 X99.888 Y66.258 E91.72556
G1 X99.888 Y56.694 E91.98024
G1 X100.562 Y56.694 E91.99819
G1 X100.562 Y66.258 E92.25287
G1 X101.236 Y66.258 E92.27082
G1 X101.236 Y56.694 E92.52550
G1 X101.910 Y56.694 E92.54345
G1 X101.910 Y66.258 E92.79813
G1 X102.584 Y66.258 E92.81608
G1 X102.584 Y56.694 E93.07076
G1 X103.258 Y56.694 E93.08871
G1 X103.258 Y66.258 E93.34340
G1 X103.933 Y66.258 E93.36135
G1 X103.933 Y56.694 E93.61603
G1 X104.607 Y56.694 E93.63398
G1 X104.607 Y66.258 E93.88866
G1 X105.281 Y66.258 E93.90661
G1 X105.281 Y56.694 E94.16129
G1 X105.955 Y56.694 E94.17924
G1 X105.955 Y66.258 E94.43392
G1 X106.629 Y66.258 E94.45187
G1 X106.629 Y56.694 E94.70655
G1 X107.303 Y56.694 E94.72450
G1 X107.303 Y66.258 E94.97918
G1 X107.978 Y66.258 E94.99713
G1 X107.978 Y56.694 E95.25181
G1 X108.652 Y56.694 E95.26977
G1 X108.652 Y66.258 E95.52445
G1 X109.326 Y66.258 E95.54240
G1 X109.326 Y56.694 E95.79708
G1 X110.000 Y56.694 E95.81503
G1 X110.000 Y66.258 E96.06971
G1 X110.674 Y66.258 E96.08766
G1 X110.674 Y56.694 E96.34234
G1 X111.348 Y56.694 E96.36029
G1 X111.348 Y66.258 E96.61497
G1 X112.022 Y66.258 E96.63292
G1 X112.022 Y56.694 E96.88760
G1 X112.697 Y56.694 E96.90555
G1 X112.697 Y66.258 E97.16023
G1 X113.371 Y66.258 E97.17819
G1 X113.371 Y56.694 E97.43287
G1 X114.045 Y56.694 E97.45082
G1 X114.045 Y66.258 E97.70550
G1 X114.719 Y66.258 E97.72345
G1 X114.719 Y56.694 E97.97813
G1 X115.393 Y56.694 E97.99608
G1 X115.393 Y66.258 E98.25076
G1 X116.067 Y66.258 E98.26871
G1 X116.067 Y56.694 E98.52339
G1 X116.742 Y56.694 E98.54134
G1 X116.742 Y66.258 E98.79602
G1 X117.416 Y66.258 E98.81397
G1 X117.416 Y56.694 E99.06865
G1 X118.090 Y56.694 E99.08660
G1 X118.090 Y66.258 E99.34129
G1 X118.764 Y66.258 E99.35924
G1 X118.764 Y56.694 E99.61392
G1 X119.438 Y56.694 E99.63187
G1 X119.438 Y66.258 E99.88655
G1 X120.112 Y66.258 E99.90450
G1 X120.112 Y56.694 E100.15918
G1 X120.787 Y56.694 E100.17713
G1 X120.787 Y66.258 E100.43181
G1 X121.461 Y66.258 E100.44976
G1 X121.461 Y56.694 E100.70444
G1 X122.135 Y56.694 E100.72239
G1 X122.135 Y66.258 E100.97707
G1 X122.809 Y66.258 E100.99502
G1 X122.809 Y56.694 E101.24971
G1 X123.483 Y56.694 E101.26766
G1 X123.483 Y66.258 E101.52234
G1 X124.157 Y66.258 E101.54029
G1 X124.157 Y56.694 E101.79497
G1 X124.832 Y56.694 E101.81292
G1 X124.832 Y66.258 E102.06760
G1 X125.506 Y66.258 E102.08555
G1 X125.506 Y56.694 E102.34023
G1 X126.180 Y56.694 E102.35818
G1 X126.180 Y163.306 E105.19695
G1 X126.854 Y163.306 E105.21490
G1 X126.854 Y56.694 E108.05367
M73 P3 R125
M73 Q3 S125
G1 X127.528 Y56.694 E108.07162
G1 X127.528 Y163.306 E110.91039
G1 X128.202 Y163.306 E110.92834
G1 X128.202 Y56.694 E113.76711
G1 X128.876 Y56.694 E113.78506
G1 X128.876 Y163.306 E116.62383
M73 P4 R125
M73 Q4 S125
G1 X129.551 Y163.306 E116.64178
G1 X129.551 Y56.694 E119.48055
G1 X130.225 Y56.694 E119.49850
G1 X130.225 Y163.306 E122.33727
G1 X130.899 Y163.306 E122.35522
G1 X130.899 Y56.694 E125.19399
G1 X131.573 Y56.694 E125.21194
G1 X131.573 Y163.306 E128.05070
G1 X131.697 Y163.306 E128.05399
G1 X131.697 Y157.404 E128.21114
G1 X132.247 Y157.404 E128.22581
G1 X132.247 Y56.694 E130.90742
M73 P4 R124
M73 Q4 S124
G1 X132.921 Y56.694 E130.92537
G1 X132.921 Y157.404 E133.60699
G1 X133.596 Y157.404 E133.62494
G1 X133.596 Y56.694 E136.30656
G1 X134.270 Y56.694 E136.32451
G1 X134.270 Y157.404 E139.00612
G1 X134.944 Y157.404 E139.02407
G1 X134.944 Y56.756 E141.70403
G1 X135.618 Y56.844 E141.72213
G1 X135.618 Y157.404 E144.39975
G1 X136.292 Y157.404 E144.41770
G1 X136.292 Y57.116 E147.08806
G1 X136.685 Y57.278 E147.09937
G1 X136.966 Y57.491 E147.10876
G1 X136.966 Y66.258 E147.34221
G1 X136.371 Y66.258 E147.35807
G1 X136.371 Y71.944 E147.50946
G1 X136.966 Y71.944 E147.52532
G1 X136.966 Y91.966 E148.05845
M73 P5 R124
M73 Q5 S124
G1 X137.641 Y91.966 E148.07640
G1 X137.641 Y71.944 E148.60954
G1 X138.315 Y71.944 E148.62749
G1 X138.315 Y92.118 E149.16466
G1 E148.81466 F3600.000
;WIPE_START
G1 F14400.000
G1 X138.315 Y91.518 E148.67216
;WIPE_END
G1 E148.66466 F3600.000
G92 E0
G1 X138.315 Y102.174 F18000.000
G1 E0.54000 F2400.000
G1 F900.000
G1 X138.315 Y117.674 E0.95271
G1 X137.641 Y117.674 E0.97066
G1 X137.641 Y102.326 E1.37934
G1 X136.966 Y102.326 E1.39729
G1 X136.966 Y117.674 E1.80596
G1 X136.371 Y117.674 E1.82182
G1 X136.371 Y128.034 E2.09767
G1 X136.966 Y128.034 E2.11353
G1 X136.966 Y148.056 E2.64666
G1 X137.641 Y148.056 E2.66461
G1 X137.641 Y128.034 E3.19774
G1 X138.315 Y128.034 E3.21569
G1 X138.315 Y148.208 E3.75286
G1 E3.40286 F3600.000
;WIPE_START
G1 F14400.000
G1 X138.315 Y147.608 E3.26036
;WIPE_END
G1 E3.25286 F3600.000
G92 E0
G1 X138.315 Y66.410 F18000.000
G1 E0.54000 F2400.000
G1 F900.000
G1 X138.315 Y58.934 E0.73906
G1 X138.283 Y58.859 E0.74124
G1 X137.641 Y58.030 E0.76916
G1 X137.641 Y66.410 E0.99229
G1 E0.64229 F3600.000
;WIPE_START
G1 F14400.000
G1 X137.641 Y65.810 E0.49979
;WIPE_END
G1 E0.49229 F3600.000
G92 E0
G1 X140.415 Y59.440 F18000.000
G1 E0.54000 F2400.000
;TYPE:Perimeter
;WIDTH:0.4
G1 F2700.000
G1 X140.614 Y60.935 E0.58253
G1 X140.614 Y159.065 E3.35048
M73 P5 R123
M73 Q5 S123
G1 X140.415 Y160.560 E3.39302
G1 X139.802 Y162.027 E3.43786
G1 X138.826 Y163.285 E3.48276
G1 X137.558 Y164.248 E3.52769
G1 X136.082 Y164.853 E3.57267
G1 X134.579 Y165.049 E3.61544
G1 X85.421 Y165.049 E5.00201
G1 X83.918 Y164.853 E5.04478
G1 X82.442 Y164.248 E5.08976
G1 X81.174 Y163.285 E5.13470
G1 X80.198 Y162.027 E5.17959
G1 X79.585 Y160.560 E5.22444
G1 X79.386 Y159.065 E5.26697
G1 X79.386 Y60.935 E8.03492
G1 X79.585 Y59.440 E8.07745
G1 X80.198 Y57.973 E8.12230
G1 X81.174 Y56.715 E8.16719
G1 X82.442 Y55.752 E8.21213
G1 X83.918 Y55.147 E8.25711
G1 X85.421 Y54.951 E8.29988
G1 X134.579 Y54.951 E9.68645
G1 X136.082 Y55.147 E9.72922
G1 X137.558 Y55.752 E9.77420
G1 X138.826 Y56.715 E9.81914
G1 X139.802 Y57.973 E9.86403
G1 X140.392 Y59.385 E9.90718
G1 E9.55718 F3600.000
;WIPE_START
G1 F14400.000
G1 X140.477 Y59.979 E9.41468
;WIPE_END
G1 E9.40718 F3600.000
G92 E0
G1 X140.063 Y59.522 F18000.000
G1 E0.54000 F2400.000
G1 F2700.000
G1 X140.257 Y60.958 E0.58087
G1 X140.257 Y159.042 E3.34749
G1 X140.068 Y160.466 E3.38802
G1 X139.490 Y161.845 E3.43019
G1 X138.573 Y163.029 E3.47243
G1 X137.379 Y163.936 E3.51472
G1 X135.990 Y164.505 E3.55707
G1 X134.556 Y164.692 E3.59786
G1 X85.444 Y164.692 E4.98313
G1 X84.010 Y164.505 E5.02393
G1 X82.621 Y163.936 E5.06628
G1 X81.427 Y163.029 E5.10857
G1 X80.510 Y161.845 E5.15080
G1 X79.932 Y160.466 E5.19298
G1 X79.743 Y159.042 E5.23351
G1 X79.743 Y60.958 E8.00012
G1 X79.932 Y59.534 E8.04065
G1 X80.510 Y58.155 E8.08283
G1 X81.427 Y56.971 E8.12506
G1 X82.621 Y56.064 E8.16735
G1 X84.010 Y55.495 E8.20971
G1 X85.444 Y55.308 E8.25050
G1 X134.556 Y55.308 E9.63577
G1 X135.990 Y55.495 E9.67657
G1 X137.379 Y56.064 E9.71891
G1 X138.573 Y56.971 E9.76121
G1 X139.490 Y58.155 E9.80344
G1 X140.040 Y59.467 E9.84357
G1 E9.49357 F3600.000
;WIPE_START
G1 F14400.000
G1 X140.126 Y60.061 E9.35107
;WIPE_END
G1 E9.34357 F3600.000
G92 E0
G1 X139.710 Y59.605 F18000.000
G1 E0.54000 F2400.000
;TYPE:External perimeter
G1 F1350.000
G1 X139.900 Y60.982 E0.57921
G1 X139.900 Y159.018 E3.34449
G1 X139.720 Y160.372 E3.38302
G1 X139.179 Y161.664 E3.42252
G1 X138.320 Y162.773 E3.46210
G1 X137.200 Y163.623 E3.50174
G1 X135.898 Y164.157 E3.54146
G1 X134.532 Y164.335 E3.58029
G1 X85.468 Y164.335 E4.96425
G1 X84.103 Y164.157 E5.00308
G1 X82.800 Y163.623 E5.04279
G1 X81.680 Y162.773 E5.08244
G1 X80.821 Y161.664 E5.12202
G1 X80.280 Y160.372 E5.16152
G1 X80.100 Y159.018 E5.20005
G1 X80.100 Y60.982 E7.96533
G1 X80.280 Y59.628 E8.00385
G1 X80.821 Y58.336 E8.04336
G1 X81.680 Y57.227 E8.08293
G1 X82.800 Y56.377 E8.12258
G1 X84.103 Y55.843 E8.16230
G1 X85.468 Y55.665 E8.20113
G1 X134.533 Y55.665 E9.58509
G1 X135.898 Y55.843 E9.62392
G1 X137.200 Y56.377 E9.66363
G1 X138.320 Y57.227 E9.70328
G1 X139.179 Y58.336 E9.74285
G1 X139.687 Y59.549 E9.77995
G1 X140.097 Y59.706 F18000.000
G1 E9.42995 F3600.000
;WIPE_START
G1 F14400.000
G1 X139.775 Y60.143 E9.28745
;WIPE_END
G1 E9.27995 F3600.000
G92 E0
G1 X143.086 Y55.702 F18000.000
G1 E0.54000 F2400.000
;TYPE:Perimeter
G1 F2700.000
G1 X143.086 Y164.298 E3.60316
G1 X138.901 Y168.441 E3.76926
G1 X81.099 Y168.441 E5.39965
G1 X76.914 Y164.298 E5.56574
G1 X76.914 Y55.702 E8.62890
G1 X81.099 Y51.559 E8.79500
G1 X138.901 Y51.559 E10.42539
G1 X143.043 Y55.659 E10.58979
G1 E10.23979 F3600.000
;WIPE_START
G1 F14400.000
G1 X143.043 Y56.259 E10.09729
;WIPE_END
G1 E10.08979 F3600.000
G92 E0
G1 X143.443 Y55.553 F18000.000
G1 E0.54000 F2400.000
G1 F2700.000
G1 X143.443 Y164.447 E3.61157
G1 X139.048 Y168.798 E3.78601
G1 X80.952 Y168.798 E5.42468
G1 X76.557 Y164.447 E5.59912
G1 X76.557 Y55.553 E8.67069
G1 X80.952 Y51.202 E8.84513
G1 X139.048 Y51.202 E10.48380
G1 X143.400 Y55.510 E10.65655
G1 E10.30655 F3600.000
;WIPE_START
G1 F14400.000
G1 X143.400 Y56.110 E10.16405
;WIPE_END
G1 E10.15655 F3600.000
G92 E0
G1 X143.800 Y55.404 F18000.000
G1 E0.54000 F2400.000
;TYPE:External perimeter
G1 F1350.000
G1 X143.800 Y164.596 E3.61997
G1 X139.194 Y169.155 E3.80276
G1 X80.806 Y169.155 E5.44971
G1 X76.200 Y164.596 E5.63250
G1 X76.200 Y55.404 E8.71247
G1 X80.806 Y50.845 E8.89525
G1 X139.194 Y50.845 E10.54221
M73 P6 R122
M73 Q6 S122
G1 X143.757 Y55.361 E10.72330
G1 X143.592 Y55.745 F18000.000
G1 E10.37330 F3600.000
;WIPE_START
G1 F14400.000
G1 X143.758 Y55.961 E10.23080
;WIPE_END
G1 E10.22330 F3600.000
G92 E0
G1 X138.165 Y51.666 F18000.000
G1 E0.54000 F2400.000
;TYPE:Solid infill
;WIDTH:0.400604
