; generated by PrusaSlicer 2.3.0+win64 on 2021-03-14 at 09:52:35 UTC

; 

; external perimeters extrusion width = 0.45mm
; perimeters extrusion width = 0.45mm
; infill extrusion width = 0.45mm
; solid infill extrusion width = 0.45mm
; top infill extrusion width = 0.40mm

M73 P0 R28
M73 Q0 S28
M201 X500 Y500 Z100 E5000 ; sets maximum accelerations, mm/sec^2
M203 X500 Y500 Z10 E60 ; sets maximum feedrates, mm/sec
M204 P500 R1000 T500 ; sets acceleration (P, T) and retract acceleration (R), mm/sec^2
M205 X8.00 Y8.00 Z0.40 E5.00 ; sets the jerk limits, mm/sec
M205 S0 T0 ; sets the minimum extruding and travel feed rate, mm/sec
M107
;TYPE:Custom
G90 ; use absolute coordinates
M83 ; extruder relative mode
M104 S205 ; set extruder temp
M140 S50 ; set bed temp
M190 S50 ; wait for bed temp
M109 S205 ; wait for extruder temp
M204 S600 ;acceleration
M220 S100 ;Reset Feedrate
M221 S100 ;Reset Flowrate
G28 ; home all
G29
G1 Z2 F240
G1 X2 Y10 F3000
G1 Z0.28 F240
G92 E0.0
G1 Y190 E15.0 F1500.0 ; intro line
G1 X2.3 F5000
G1 Y10 E30 F1200.0 ; intro line
G92 E0.0
G21 ; set units to millimeters
G90 ; use absolute coordinates
M82 ; use absolute distances for extrusion
G92 E0
; Filament gcode
;LAYER_CHANGE
;Z:0.2
;HEIGHT:0.2
;BEFORE_LAYER_CHANGE
M117 INDICATOR-Layer1
;0.2


M73 P1 R28
M73 Q1 S28
G1 E-0.50000 F3600.000
G92 E0
G1 Z0.200 F18000.000
;AFTER_LAYER_CHANGE
;0.2
G1 X107.751 Y101.847
G1 E0.54000 F2400.000
;TYPE:Perimeter
;WIDTH:0.45
G1 F270.000
G1 X107.873 Y102.142 E0.55081
G1 X108.070 Y102.398 E0.56175
G1 X108.367 Y102.626 E0.57444
G1 X108.155 Y102.731 E0.58244
G1 X107.725 Y103.104 E0.60171
G1 X107.615 Y102.921 E0.60893
G1 X107.220 Y102.594 E0.62628
G1 X107.386 Y102.461 E0.63348
G1 X107.594 Y102.201 E0.64474
G1 X107.726 Y101.902 E0.65582
G1 E0.30582 F3600.000
;WIPE_START
G1 F14400.000
G1 X107.873 Y102.142 E0.23898
G1 X108.067 Y102.394 E0.16332
;WIPE_END
G1 E0.15582 F3600.000
G92 E0
G1 X105.678 Y102.599 F18000.000
G1 E0.54000 F2400.000
G1 F270.000
G1 X105.234 Y103.064 E0.56178
G1 X105.145 Y102.907 E0.56790
G1 X104.813 Y102.628 E0.58256
G1 X105.141 Y102.265 E0.59909
G1 X105.221 Y102.103 E0.60522
G1 X105.506 Y102.461 E0.62071
G1 X105.632 Y102.561 E0.62615
G1 E0.27615 F3600.000
;WIPE_START
G1 F14400.000
G1 X105.259 Y103.032 E0.13365
;WIPE_END
G1 E0.12615 F3600.000
G92 E0
G1 X111.439 Y117.178 F18000.000
G1 E0.54000 F2400.000
G1 F270.000
G1 X111.846 Y117.069 E0.55426
G1 X112.179 Y117.185 E0.56620
G1 X112.179 Y117.359 E0.57208
G1 X111.846 Y117.475 E0.58401
G1 X111.439 Y117.366 E0.59827
G1 X111.439 Y117.238 E0.60259
G1 E0.25259 F3600.000
;WIPE_START
G1 F14400.000
G1 X111.846 Y117.069 E0.14794
G1 X111.996 Y117.122 E0.11009
;WIPE_END
G1 E0.10259 F3600.000
G92 E0
G1 X122.109 Y107.255 F18000.000
G1 E0.54000 F2400.000
G1 F270.000
G1 X121.994 Y106.922 E0.55194
G1 X122.102 Y106.515 E0.56620
G1 X122.290 Y106.515 E0.57254
G1 X122.399 Y106.922 E0.58681
G1 X122.283 Y107.255 E0.59874
G1 X122.169 Y107.255 E0.60259
G1 E0.25259 F3600.000
;WIPE_START
G1 F14400.000
G1 X121.994 Y106.922 E0.16315
G1 X122.051 Y106.706 E0.11009
;WIPE_END
G1 E0.10259 F3600.000
G92 E0
G1 X108.129 Y100.087 F18000.000
G1 E0.54000 F2400.000
G1 F270.000
G1 X107.753 Y100.376 E0.55605
G1 X107.684 Y100.285 E0.55992
G1 X107.435 Y100.094 E0.57052
G1 X107.740 Y99.697 E0.58746
G1 X108.087 Y100.044 E0.60407
G1 E0.25407 F3600.000
;WIPE_START
G1 F14400.000
G1 X107.753 Y100.376 E0.14244
G1 X107.684 Y100.285 E0.11525
G1 X107.671 Y100.275 E0.11157
;WIPE_END
G1 E0.10407 F3600.000
G92 E0
G1 X105.457 Y100.094 F18000.000
G1 E0.54000 F2400.000
G1 F270.000
G1 X105.277 Y100.232 E0.54769
G1 X105.074 Y100.076 E0.55636
G1 X105.259 Y99.836 E0.56662
G1 X105.421 Y100.047 E0.57562
G1 E0.22562 F3600.000
;WIPE_START
G1 F14400.000
G1 X105.277 Y100.232 E0.16984
G1 X105.074 Y100.076 E0.10901
G1 X105.140 Y99.990 E0.08312
;WIPE_END
G1 E0.07562 F3600.000
G92 E0
G1 X105.248 Y105.641 F18000.000
G1 E0.54000 F2400.000
G1 F270.000
G1 X105.649 Y105.852 E0.55534
G1 X105.603 Y106.038 E0.56182
G1 X105.029 Y106.037 E0.58125
G1 X104.984 Y105.851 E0.58775
G1 X105.102 Y105.789 E0.59227
G1 X105.206 Y105.684 E0.59729
G1 E0.24729 F3600.000
;WIPE_START
G1 F14400.000
G1 X105.649 Y105.852 E0.13474
G1 X105.618 Y105.975 E0.10479
;WIPE_END
G1 E0.09729 F3600.000
G92 E0
G1 X107.306 Y105.848 F18000.000
G1 E0.54000 F2400.000
G1 F270.000
G1 X107.507 Y105.756 E0.54748
G1 X107.775 Y105.522 E0.55951
G1 X107.928 Y105.655 E0.56634
G1 X108.329 Y105.852 E0.58147
G1 X108.285 Y106.041 E0.58804
G1 X107.348 Y106.040 E0.61973
G1 X107.319 Y105.906 E0.62436
G1 E0.27436 F3600.000
;WIPE_START
G1 F14400.000
G1 X107.507 Y105.756 E0.21714
G1 X107.775 Y105.522 E0.13271
G1 X107.778 Y105.525 E0.13186
;WIPE_END
G1 E0.12436 F3600.000
G92 E0
G1 X109.591 Y105.846 F18000.000
G1 E0.54000 F2400.000
G1 F270.000
G1 X109.918 Y105.712 E0.55195
G1 X110.324 Y105.401 E0.56926
G1 X110.635 Y104.997 E0.58652
G1 X110.770 Y104.669 E0.59851
G1 X110.967 Y104.708 E0.60529
G1 X110.968 Y105.580 E0.63480
G1 X111.026 Y106.102 E0.65256
G1 X110.504 Y106.044 E0.67032
G1 X109.630 Y106.043 E0.69991
G1 X109.603 Y105.904 E0.70468
G1 E0.35468 F3600.000
;WIPE_START
G1 F14400.000
G1 X109.918 Y105.712 E0.26698
G1 X110.101 Y105.572 E0.21218
;WIPE_END
G1 E0.20468 F3600.000
G92 E0
G1 X116.419 Y106.905 F18000.000
G1 E0.54000 F2400.000
G1 F270.000
G1 X116.477 Y106.688 E0.54760
G1 X116.665 Y106.688 E0.55395
G1 X116.723 Y106.906 E0.56158
G1 X116.658 Y107.097 E0.56841
G1 X116.482 Y107.096 E0.57435
G1 X116.438 Y106.962 E0.57911
G1 E0.22911 F3600.000
;WIPE_START
G1 F14400.000
G1 X116.477 Y106.688 E0.16337
G1 X116.665 Y106.688 E0.11883
G1 X116.700 Y106.819 E0.08661
;WIPE_END
G1 E0.07911 F3600.000
G92 E0
G1 X113.973 Y106.905 F18000.000
G1 E0.54000 F2400.000
G1 F270.000
G1 X113.756 Y107.563 E0.56345
G1 X113.570 Y107.553 E0.56977
G1 X113.425 Y106.883 E0.59298
G1 X113.602 Y106.220 E0.61619
G1 X113.790 Y106.220 E0.62254
G1 X113.957 Y106.847 E0.64450
G1 E0.29450 F3600.000
;WIPE_START
G1 F14400.000
G1 X113.795 Y107.425 E0.15200
;WIPE_END
G1 E0.14450 F3600.000
G92 E0
G1 X112.477 Y108.645 F18000.000
G1 E0.54000 F2400.000
G1 F270.000
G1 X112.487 Y108.832 E0.54632
G1 X111.829 Y109.049 E0.56977
G1 X111.145 Y108.866 E0.59376
G1 X111.145 Y108.678 E0.60011
G1 X111.807 Y108.501 E0.62332
G1 X112.419 Y108.633 E0.64450
G1 E0.29450 F3600.000
;WIPE_START
G1 F14400.000
G1 X112.487 Y108.832 E0.24448
G1 X112.117 Y108.954 E0.15200
;WIPE_END
G1 E0.14450 F3600.000
G92 E0
G1 X111.829 Y111.495 F18000.000
G1 E0.54000 F2400.000
G1 F270.000
G1 X112.020 Y111.558 E0.54679
G1 X112.021 Y111.734 E0.55273
G1 X111.830 Y111.799 E0.55956
G1 X111.612 Y111.741 E0.56719
G1 X111.612 Y111.553 E0.57354
G1 X111.771 Y111.511 E0.57911
G1 E0.22911 F3600.000
;WIPE_START
G1 F14400.000
G1 X112.020 Y111.558 E0.16904
G1 X112.021 Y111.734 E0.12734
G1 X111.859 Y111.789 E0.08661
;WIPE_END
G1 E0.07911 F3600.000
G92 E0
G1 X113.591 Y119.442 F18000.000
G1 E0.54000 F2400.000
G1 F270.000
G1 X113.801 Y119.442 E0.54712
G1 X113.888 Y120.022 E0.56696
G1 X113.801 Y120.601 E0.58677
G1 X113.591 Y120.601 E0.59389
G1 X113.504 Y120.023 E0.61366
G1 X113.582 Y119.502 E0.63150
G1 E0.28150 F3600.000
;WIPE_START
G1 F14400.000
G1 X113.801 Y119.442 E0.22754
G1 X113.857 Y119.811 E0.13900
;WIPE_END
G1 E0.13150 F3600.000
G92 E0
G1 X124.367 Y108.877 F18000.000
G1 E0.54000 F2400.000
G1 F270.000
G1 X124.367 Y108.667 E0.54712
G1 X124.947 Y108.580 E0.56699
G1 X125.525 Y108.667 E0.58676
G1 X125.525 Y108.877 E0.59388
G1 X124.946 Y108.964 E0.61369
G1 X124.426 Y108.886 E0.63150
G1 E0.28150 F3600.000
;WIPE_START
G1 F14400.000
G1 X124.367 Y108.667 E0.22754
G1 X124.735 Y108.612 E0.13900
;WIPE_END
G1 E0.13150 F3600.000
G92 E0
G1 X128.685 Y95.282 F18000.000
G1 E0.54000 F2400.000
G1 F2700.000
G1 X128.673 Y105.590 E0.88891
G1 X128.604 Y106.215 E0.91018
G1 X128.419 Y106.906 E0.93441
G1 X129.000 Y108.575 E0.99423
G1 X128.685 Y108.602 E1.00494
G1 X128.695 Y116.783 E1.28185
M73 P1 R27
M73 Q1 S27
G1 X128.678 Y118.564 E1.34212
G1 X128.637 Y119.136 E1.36155
G1 X128.504 Y120.022 E1.39186
G1 X128.637 Y120.908 E1.42217
G1 X128.678 Y121.482 E1.44166
G1 X128.691 Y123.767 E1.51902
G1 X126.406 Y123.754 E1.59638
G1 X125.832 Y123.713 E1.61587
G1 X124.946 Y123.580 E1.64618
G1 X124.061 Y123.713 E1.67649
G1 X123.488 Y123.754 E1.69592
G1 X121.702 Y123.770 E1.75639
G1 X113.527 Y123.761 E2.03310
G1 X113.499 Y124.076 E2.04381
G1 X111.830 Y123.495 E2.10363
G1 X111.139 Y123.680 E2.12786
G1 X110.514 Y123.749 E2.14913
G1 X100.201 Y123.761 E2.49822
G1 X100.214 Y121.482 E2.57538
G1 X100.255 Y120.908 E2.59487
G1 X100.388 Y120.022 E2.62518
G1 X100.255 Y119.136 E2.65549
G1 X100.214 Y118.564 E2.67492
G1 X100.198 Y116.784 E2.73517
G1 X100.207 Y106.032 E3.09912
G1 X102.796 Y106.035 E3.18675
G1 X102.852 Y105.869 E3.19268
G1 X102.426 Y105.542 E3.21085
G1 X102.084 Y105.097 E3.22987
G1 X101.869 Y104.576 E3.24892
G1 X101.797 Y104.015 E3.26806
G1 X101.877 Y103.447 E3.28751
G1 X102.117 Y102.912 E3.30733
M73 P2 R27
M73 Q2 S27
G1 X102.436 Y102.544 E3.32380
G1 X102.193 Y102.054 E3.34231
G1 X102.103 Y101.558 E3.35939
G1 X102.159 Y101.059 E3.37636
G1 X102.341 Y100.606 E3.39292
G1 X102.635 Y100.217 E3.40941
G1 X102.818 Y100.076 E3.41724
G1 X102.604 Y99.797 E3.42914
G1 X102.449 Y99.423 E3.44285
G1 X102.396 Y99.022 E3.45654
G1 X102.449 Y98.621 E3.47024
G1 X102.604 Y98.247 E3.48395
G1 X102.850 Y97.926 E3.49763
G1 X103.201 Y97.657 E3.51257
G1 X103.630 Y97.514 E3.52789
G1 X103.946 Y97.472 E3.53870
G1 X104.347 Y97.525 E3.55239
G1 X104.721 Y97.680 E3.56610
G1 X105.042 Y97.926 E3.57978
G1 X105.259 Y98.208 E3.59182
G1 X105.421 Y97.997 E3.60084
G1 X105.752 Y97.743 E3.61495
G1 X106.232 Y97.584 E3.63206
G1 X106.773 Y97.601 E3.65041
G1 X107.172 Y97.767 E3.66501
G1 X107.471 Y97.997 E3.67780
G1 X107.740 Y98.346 E3.69272
G1 X108.206 Y97.880 E3.71505
G1 X108.661 Y97.691 E3.73171
G1 X109.231 Y97.691 E3.75102
G1 X109.686 Y97.880 E3.76768
G1 X110.088 Y98.282 E3.78693
G1 X110.277 Y98.737 E3.80359
G1 X110.277 Y99.307 E3.82290
G1 X110.088 Y99.762 E3.83956
G1 X109.763 Y100.087 E3.85512
G1 X110.113 Y100.355 E3.87005
G1 X110.375 Y100.697 E3.88461
G1 X110.540 Y101.095 E3.89920
G1 X110.596 Y101.522 E3.91378
G1 X110.540 Y101.949 E3.92836
G1 X110.375 Y102.347 E3.94295
G1 X110.213 Y102.558 E3.95193
G1 X110.325 Y102.643 E3.95667
G1 X110.635 Y103.047 E3.97392
G1 X110.769 Y103.370 E3.98576
G1 X110.965 Y103.331 E3.99255
G1 X110.956 Y95.283 E4.26496
G1 X121.708 Y95.274 E4.62891
G1 X123.488 Y95.290 E4.68917
G1 X124.061 Y95.331 E4.70860
G1 X124.946 Y95.464 E4.73891
G1 X125.832 Y95.331 E4.76922
G1 X126.402 Y95.290 E4.78858
G1 X128.625 Y95.282 E4.86383
G1 E4.51383 F3600.000
;WIPE_START
G1 F14400.000
G1 X128.628 Y95.882 E4.37133
;WIPE_END
G1 E4.36383 F3600.000
G92 E0
G1 X109.870 Y98.818 F18000.000
G1 E0.54000 F2400.000
G1 F270.000
G1 X109.870 Y99.226 E0.55382
G1 X109.743 Y99.531 E0.56500
G1 X109.455 Y99.819 E0.57877
G1 X109.150 Y99.945 E0.58995
G1 X108.742 Y99.945 E0.60377
G1 X108.437 Y99.819 E0.61495
G1 X108.149 Y99.531 E0.62872
G1 X108.023 Y99.226 E0.63990
G1 X108.023 Y98.818 E0.65372
G1 X108.149 Y98.513 E0.66490
G1 X108.437 Y98.225 E0.67868
G1 X108.742 Y98.098 E0.68986
G1 X109.150 Y98.098 E0.70367
G1 X109.455 Y98.225 E0.71485
G1 X109.743 Y98.513 E0.72863
G1 X109.847 Y98.762 E0.73778
G1 X109.463 Y98.899 F18000.000
;TYPE:External perimeter
G1 F270.000
G1 X109.463 Y99.145 E0.74610
G1 X109.398 Y99.300 E0.75180
G1 X109.225 Y99.474 E0.76010
G1 X109.069 Y99.538 E0.76580
G1 X108.823 Y99.538 E0.77413
G1 X108.668 Y99.474 E0.77983
G1 X108.494 Y99.300 E0.78813
G1 X108.430 Y99.145 E0.79383
G1 X108.430 Y98.899 E0.80215
G1 X108.494 Y98.743 E0.80785
G1 X108.668 Y98.570 E0.81616
G1 X108.823 Y98.505 E0.82186
G1 X109.069 Y98.505 E0.83018
G1 X109.225 Y98.570 E0.83588
G1 X109.398 Y98.743 E0.84418
G1 X109.440 Y98.844 E0.84785
G1 X109.697 Y98.975 F18000.000
G1 E0.49785 F3600.000
;WIPE_START
G1 F14400.000
G1 X109.463 Y99.145 E0.42606
G1 X109.398 Y99.300 E0.38608
G1 X109.307 Y99.392 E0.35535
;WIPE_END
G1 E0.34785 F3600.000
G92 E0
G1 X111.363 Y95.690 F18000.000
G1 E0.54000 F2400.000
;TYPE:Perimeter
G1 F2700.000
G1 X113.278 Y95.690 E0.60482
G1 X113.267 Y105.563 E0.93902
G1 X113.203 Y106.139 E0.95863
G1 X113.007 Y106.873 E0.98433
G1 X113.339 Y108.415 E1.03772
G1 X111.797 Y108.083 E1.09111
G1 X111.063 Y108.279 E1.11681
G1 X110.488 Y108.343 E1.13642
G1 X100.614 Y108.354 E1.47062
G1 X100.614 Y106.439 E1.53544
G1 X110.482 Y106.451 E1.86944
G1 X111.063 Y106.515 E1.88926
G1 X111.577 Y106.653 E1.90725
G1 X111.440 Y106.139 E1.92524
G1 X111.375 Y105.557 E1.94505
G1 X111.363 Y95.750 E2.27703
G1 E1.92703 F3600.000
;WIPE_START
G1 F14400.000
G1 X111.963 Y95.731 E1.78453
;WIPE_END
G1 E1.77703 F3600.000
G92 E0
G1 X111.971 Y107.047 F18000.000
G1 E0.54000 F2400.000
;TYPE:External perimeter
G1 F270.000
G1 X112.628 Y107.047 E0.56223
G1 X112.808 Y107.884 E0.59121
G1 X111.971 Y107.704 E0.62018
G1 X111.971 Y107.107 E0.64038
G1 X111.868 Y106.661 F18000.000
G1 X112.023 Y106.747
G1 F270.000
G1 X111.841 Y106.064 E0.66432
G1 X111.782 Y105.535 E0.68234
G1 X111.771 Y96.097 E1.00179
G1 X112.871 Y96.097 E1.03904
G1 X112.860 Y105.537 E1.35856
G1 X112.802 Y106.064 E1.37651
G1 X112.619 Y106.747 E1.40045
G1 X112.083 Y106.747 E1.41858
G1 X111.657 Y106.908 F18000.000
G1 X111.671 Y107.099
G1 F270.000
G1 X111.671 Y107.695 E1.43873
G1 X110.988 Y107.877 E1.46267
G1 X110.461 Y107.936 E1.48062
G1 X101.021 Y107.947 E1.80015
G1 X101.021 Y106.847 E1.83739
G1 X110.459 Y106.858 E2.15684
M73 P3 R27
M73 Q3 S27
G1 X110.988 Y106.917 E2.17486
G1 X111.613 Y107.084 E2.19677
G1 X112.070 Y107.125 F18000.000
G1 E1.84677 F3600.000
;WIPE_START
G1 F14400.000
G1 X111.670 Y107.681 E1.70427
;WIPE_END
G1 E1.69677 F3600.000
G92 E0
G1 X114.113 Y95.690 F18000.000
G1 E0.54000 F2400.000
;TYPE:Perimeter
G1 F270.000
G1 X116.278 Y95.690 E0.61328
G1 X116.267 Y105.563 E0.94749
G1 X116.203 Y106.139 E0.96710
G1 X115.995 Y106.917 E0.99436
G1 X116.443 Y108.277 E1.04281
G1 X113.950 Y108.277 E1.12720
G1 X114.398 Y106.917 E1.17566
G1 X114.190 Y106.139 E1.20292
G1 X114.125 Y105.557 E1.22273
G1 X114.113 Y95.750 E1.55470
G1 E1.20470 F3600.000
;WIPE_START
G1 F14400.000
G1 X114.713 Y95.733 E1.06220
;WIPE_END
G1 E1.05470 F3600.000
G92 E0
G1 X114.783 Y107.047 F18000.000
G1 E0.54000 F2400.000
;TYPE:External perimeter
G1 F270.000
G1 X115.609 Y107.047 E0.56794
G1 X115.880 Y107.870 E0.59727
G1 X114.512 Y107.870 E0.64356
G1 X114.765 Y107.104 E0.67086
G1 X114.662 Y106.666 F18000.000
G1 X114.773 Y106.747
G1 F270.000
G1 X114.591 Y106.064 E0.69480
G1 X114.532 Y105.535 E0.71282
G1 X114.521 Y96.097 E1.03227
G1 X115.871 Y96.097 E1.07797
G1 X115.860 Y105.537 E1.39750
G1 X115.802 Y106.064 E1.41544
G1 X115.619 Y106.747 E1.43938
G1 X114.833 Y106.747 E1.46597
G1 X114.400 Y106.891 F18000.000
G1 E1.11597 F3600.000
;WIPE_START
G1 F14400.000
G1 X114.633 Y106.182 E0.97347
;WIPE_END
G1 E0.96597 F3600.000
G92 E0
G1 X128.278 Y95.689 F18000.000
G1 E0.54000 F2400.000
;TYPE:Perimeter
G1 F2700.000
G1 X128.267 Y105.563 E0.87422
G1 X128.203 Y106.139 E0.89383
G1 X127.994 Y106.922 E0.92125
G1 X128.444 Y108.215 E0.96760
G1 X126.976 Y108.343 E1.01748
G1 X126.426 Y108.347 E1.03608
G1 X125.877 Y108.308 E1.05472
G1 X124.948 Y108.168 E1.08654
G1 X124.009 Y108.308 E1.11865
G1 X123.438 Y108.338 E1.13801
G1 X122.216 Y108.243 E1.17949
G1 X120.946 Y108.334 E1.22259
G1 X119.423 Y108.225 E1.27428
G1 X118.071 Y108.323 E1.32015
G1 X116.702 Y108.223 E1.36663
G1 X117.148 Y106.921 E1.41325
G1 X116.940 Y106.139 E1.44063
G1 X116.875 Y105.557 E1.46044
G1 X116.863 Y95.690 E1.79444
G1 X119.278 Y95.690 E1.87619
G1 X119.267 Y105.563 E2.21039
G1 X119.203 Y106.139 E2.23000
G1 X118.994 Y106.921 E2.25738
G1 X119.357 Y107.980 E2.29529
G1 X119.531 Y107.980 E2.30118
G1 X119.899 Y106.922 E2.33911
G1 X119.690 Y106.139 E2.36653
G1 X119.626 Y105.563 E2.38614
G1 X119.614 Y95.690 E2.72034
G1 X123.472 Y95.697 E2.85092
G1 X124.016 Y95.736 E2.86938
G1 X124.946 Y95.876 E2.90123
G1 X125.877 Y95.736 E2.93308
G1 X126.420 Y95.697 E2.95150
G1 X128.218 Y95.690 E3.01239
G1 E2.66239 F3600.000
;WIPE_START
G1 F14400.000
G1 X128.221 Y96.289 E2.51989
;WIPE_END
G1 E2.51239 F3600.000
G92 E0
G1 X118.607 Y107.047 F18000.000
M73 P4 R27
M73 Q4 S27
G1 E0.54000 F2400.000
