; generated by PrusaSlicer 2.3.0+win64 on 2021-03-14 at 09:42:34 UTC

; 

; external perimeters extrusion width = 0.45mm
; perimeters extrusion width = 0.45mm
; infill extrusion width = 0.45mm
; solid infill extrusion width = 0.45mm
; top infill extrusion width = 0.40mm

M73 P0 R48
M73 Q0 S48
M201 X500 Y500 Z100 E5000 ; sets maximum accelerations, mm/sec^2
M203 X500 Y500 Z10 E60 ; sets maximum feedrates, mm/sec
M204 P500 R1000 T500 ; sets acceleration (P, T) and retract acceleration (R), mm/sec^2
M205 X8.00 Y8.00 Z0.40 E5.00 ; sets the jerk limits, mm/sec
M205 S0 T0 ; sets the minimum extruding and travel feed rate, mm/sec
M107
;TYPE:Custom
G90 ; use absolute coordinates
M83 ; extruder relative mode
M104 S205 ; set extruder temp
M140 S50 ; set bed temp
M190 S50 ; wait for bed temp
M109 S205 ; wait for extruder temp
M204 S600 ;acceleration
M220 S100 ;Reset Feedrate
M221 S100 ;Reset Flowrate
G28 ; home all
G29
G1 Z2 F240
G1 X2 Y10 F3000
G1 Z0.28 F240
G92 E0.0
G1 Y190 E15.0 F1500.0 ; intro line
G1 X2.3 F5000
G1 Y10 E30 F1200.0 ; intro line
G92 E0.0
G21 ; set units to millimeters
G90 ; use absolute coordinates
M82 ; use absolute distances for extrusion
G92 E0
; Filament gcode
;LAYER_CHANGE
;Z:0.2
;HEIGHT:0.2
;BEFORE_LAYER_CHANGE
M117 INDICATOR-Layer1
;0.2


G1 E-0.50000 F3600.000
G92 E0
G1 Z0.200 F18000.000
;AFTER_LAYER_CHANGE
;0.2
G1 X102.662 Y88.612
G1 E0.54000 F2400.000
;TYPE:External perimeter
;WIDTH:0.45
G1 F270.000
G1 X102.998 Y88.612 E0.55135
G1 X102.974 Y88.874 E0.56027
G1 X102.991 Y89.100 E0.56793
G1 X102.666 Y89.183 E0.57929
G1 X102.662 Y88.672 E0.59661
G1 E0.24661 F3600.000
;WIPE_START
G1 F14400.000
G1 X102.998 Y88.612 E0.16574
G1 X102.974 Y88.870 E0.10411
;WIPE_END
G1 E0.09661 F3600.000
G92 E0
G1 X118.872 Y88.827 F18000.000
G1 E0.54000 F2400.000
G1 F270.000
G1 X119.916 Y88.687 E0.57564
G1 X119.913 Y88.975 E0.58538
G1 X118.918 Y88.861 E0.61928
G1 X118.781 Y89.139 E0.62976
G1 X118.730 Y89.183 E0.63206
G1 X118.639 Y89.163 E0.63521
G1 X118.554 Y89.042 E0.64023
G1 X118.545 Y88.743 E0.65034
G1 X118.616 Y88.568 E0.65674
G1 X118.725 Y88.539 E0.66055
G1 X118.758 Y88.560 E0.66188
G1 X118.850 Y88.771 E0.66968
G1 E0.31968 F3600.000
;WIPE_START
G1 F14400.000
G1 X119.449 Y88.724 E0.17718
;WIPE_END
G1 E0.16968 F3600.000
G92 E0
G1 X109.510 Y103.044 F18000.000
G1 E0.54000 F2400.000
G1 F270.000
G1 X109.744 Y103.224 E0.54999
G1 X109.924 Y103.458 E0.55997
G1 X110.036 Y103.730 E0.56994
G1 X110.075 Y104.022 E0.57992
G1 X110.036 Y104.314 E0.58989
G1 X109.924 Y104.586 E0.59986
G1 X109.744 Y104.820 E0.60984
G1 X109.510 Y104.999 E0.61983
G1 X109.236 Y105.111 E0.62983
G1 X108.943 Y105.146 E0.63984
G1 X108.647 Y105.101 E0.64997
G1 X108.382 Y104.971 E0.65996
G1 X108.160 Y104.778 E0.66992
G1 X108.010 Y104.520 E0.68003
G1 X107.957 Y104.253 E0.68924
G1 X107.949 Y104.022 E0.69706
G1 X107.957 Y103.791 E0.70487
G1 X108.010 Y103.524 E0.71408
G1 X108.160 Y103.266 E0.72420
G1 X108.382 Y103.073 E0.73415
G1 X108.647 Y102.943 E0.74415
G1 X108.943 Y102.898 E0.75427
G1 X109.236 Y102.933 E0.76428
G1 X109.454 Y103.022 E0.77225
G1 X109.164 Y102.321 F18000.000
G1 F270.000
G1 X108.946 Y102.351 E0.77968
G1 X108.732 Y102.322 E0.78700
G1 X108.532 Y102.239 E0.79433
G1 X108.360 Y102.108 E0.80165
G1 X108.229 Y101.936 E0.80897
G1 X108.146 Y101.736 E0.81630
G1 X108.118 Y101.522 E0.82362
G1 X108.146 Y101.307 E0.83094
G1 X108.229 Y101.107 E0.83827
G1 X108.360 Y100.936 E0.84558
G1 X108.532 Y100.804 E0.85290
G1 X108.732 Y100.721 E0.86023
G1 X108.946 Y100.693 E0.86755
G1 X109.161 Y100.721 E0.87487
G1 X109.361 Y100.804 E0.88220
G1 X109.532 Y100.936 E0.88952
G1 X109.664 Y101.107 E0.89683
G1 X109.747 Y101.307 E0.90416
G1 X109.775 Y101.522 E0.91148
G1 X109.747 Y101.736 E0.91881
G1 X109.664 Y101.936 E0.92613
G1 X109.532 Y102.108 E0.93345
G1 X109.361 Y102.239 E0.94077
G1 X109.219 Y102.298 E0.94595
G1 E0.59595 F3600.000
;WIPE_START
G1 F14400.000
G1 X108.946 Y102.351 E0.52994
G1 X108.732 Y102.322 E0.47857
G1 X108.634 Y102.282 E0.45345
;WIPE_END
G1 E0.44595 F3600.000
G92 E0
G1 X109.069 Y99.538 F18000.000
G1 E0.54000 F2400.000
G1 F270.000
G1 X108.823 Y99.538 E0.54832
G1 X108.668 Y99.474 E0.55402
G1 X108.494 Y99.300 E0.56233
G1 X108.430 Y99.145 E0.56803
G1 X108.430 Y98.899 E0.57635
G1 X108.494 Y98.743 E0.58205
G1 X108.668 Y98.570 E0.59035
G1 X108.823 Y98.505 E0.59605
G1 X109.069 Y98.505 E0.60438
G1 X109.225 Y98.570 E0.61007
G1 X109.398 Y98.743 E0.61838
G1 X109.463 Y98.899 E0.62408
G1 X109.463 Y99.145 E0.63240
G1 X109.398 Y99.300 E0.63810
G1 X109.225 Y99.474 E0.64640
G1 X109.125 Y99.515 E0.65007
G1 E0.30007 F3600.000
;WIPE_START
G1 F14400.000
G1 X108.823 Y99.538 E0.22829
G1 X108.668 Y99.474 E0.18831
G1 X108.576 Y99.382 E0.15757
;WIPE_END
G1 E0.15007 F3600.000
G92 E0
G1 X107.053 Y99.185 F18000.000
G1 E0.54000 F2400.000
G1 F270.000
G1 X106.991 Y99.336 E0.54556
G1 X106.891 Y99.466 E0.55111
G1 X106.761 Y99.566 E0.55665
G1 X106.609 Y99.629 E0.56221
G1 X106.446 Y99.651 E0.56777
G1 X106.283 Y99.629 E0.57333
G1 X106.132 Y99.566 E0.57889
G1 X106.002 Y99.466 E0.58444
G1 X105.902 Y99.336 E0.58998
G1 X105.839 Y99.185 E0.59555
G1 X105.818 Y99.022 E0.60110
G1 X105.839 Y98.859 E0.60666
G1 X105.902 Y98.707 E0.61222
G1 X106.002 Y98.577 E0.61777
G1 X106.132 Y98.478 E0.62332
G1 X106.283 Y98.415 E0.62888
G1 X106.446 Y98.393 E0.63443
G1 X106.609 Y98.415 E0.63999
G1 X106.761 Y98.478 E0.64555
G1 X106.891 Y98.577 E0.65110
G1 X106.991 Y98.707 E0.65665
G1 X107.053 Y98.859 E0.66221
G1 X107.075 Y99.022 E0.66776
G1 X107.061 Y99.125 E0.67129
G1 X106.687 Y100.625 F18000.000
G1 F270.000
G1 X106.910 Y100.718 E0.67950
G1 X107.103 Y100.865 E0.68770
G1 X107.251 Y101.058 E0.69593
G1 X107.343 Y101.283 E0.70414
G1 X107.373 Y101.522 E0.71231
G1 X107.342 Y101.765 E0.72059
G1 X107.243 Y101.988 E0.72885
G1 X107.096 Y102.171 E0.73681
G1 X106.904 Y102.325 E0.74512
G1 X106.661 Y102.409 E0.75384
G1 X106.231 Y102.409 E0.76837
G1 X105.988 Y102.325 E0.77709
G1 X105.796 Y102.171 E0.78540
G1 X105.650 Y101.988 E0.79336
G1 X105.551 Y101.765 E0.80162
G1 X105.519 Y101.522 E0.80990
G1 X105.550 Y101.283 E0.81807
G1 X105.642 Y101.058 E0.82628
G1 X105.789 Y100.865 E0.83451
G1 X105.982 Y100.718 E0.84271
G1 X106.206 Y100.625 E0.85092
G1 X106.446 Y100.593 E0.85913
G1 X106.627 Y100.617 E0.86530
G1 E0.51530 F3600.000
;WIPE_START
G1 F14400.000
G1 X106.910 Y100.718 E0.44388
G1 X107.103 Y100.865 E0.38629
G1 X107.137 Y100.910 E0.37280
;WIPE_END
G1 E0.36530 F3600.000
G92 E0
G1 X106.760 Y102.847 F18000.000
G1 E0.54000 F2400.000
G1 F270.000
G1 X107.055 Y102.986 E0.55106
G1 X107.302 Y103.191 E0.56189
G1 X107.470 Y103.468 E0.57288
G1 X107.535 Y103.762 E0.58306
G1 X107.535 Y104.281 E0.60064
G1 X107.471 Y104.575 E0.61082
G1 X107.305 Y104.852 E0.62176
G1 X107.061 Y105.065 E0.63270
G1 X106.766 Y105.200 E0.64370
G1 X106.439 Y105.241 E0.65485
G1 X106.118 Y105.179 E0.66591
G1 X105.830 Y105.027 E0.67693
G1 X105.612 Y104.787 E0.68792
G1 X105.494 Y104.508 E0.69818
G1 X105.419 Y104.022 E0.71483
G1 X105.494 Y103.535 E0.73150
G1 X105.615 Y103.255 E0.74184
G1 X105.836 Y103.023 E0.75267
G1 X106.123 Y102.867 E0.76375
G1 X106.439 Y102.823 E0.77453
G1 X106.700 Y102.843 E0.78339
G1 X104.995 Y103.468 F18000.000
G1 F270.000
G1 X105.073 Y104.022 E0.80233
G1 X104.997 Y104.565 E0.82091
G1 X104.859 Y104.874 E0.83237
M73 P1 R48
M73 Q1 S48
G1 X104.613 Y105.126 E0.84428
G1 X104.299 Y105.287 E0.85621
G1 X103.952 Y105.346 E0.86814
G1 X103.604 Y105.304 E0.87998
G1 X103.282 Y105.173 E0.89176
G1 X103.007 Y104.961 E0.90351
G1 X102.796 Y104.686 E0.91526
G1 X102.663 Y104.365 E0.92701
G1 X102.619 Y104.021 E0.93878
G1 X102.667 Y103.675 E0.95060
G1 X102.811 Y103.355 E0.96246
G1 X103.040 Y103.091 E0.97430
G1 X103.337 Y102.905 E0.98615
G1 X103.663 Y102.833 E0.99746
G1 X104.245 Y102.833 E1.01715
G1 X104.565 Y102.951 E1.02872
G1 X104.827 Y103.171 E1.04028
G1 X104.965 Y103.416 E1.04980
G1 X104.389 Y102.366 F18000.000
G1 F270.000
G1 X104.150 Y102.411 E1.05804
G1 X103.946 Y102.419 E1.06493
G1 X103.743 Y102.411 E1.07182
G1 X103.503 Y102.366 E1.08006
G1 X103.270 Y102.232 E1.08917
G1 X103.092 Y102.034 E1.09818
G1 X102.974 Y101.796 E1.10719
G1 X102.926 Y101.530 E1.11635
G1 X102.956 Y101.260 E1.12553
G1 X103.056 Y101.010 E1.13465
G1 X103.218 Y100.796 E1.14376
G1 X103.432 Y100.631 E1.15287
G1 X103.680 Y100.528 E1.16196
G1 X103.946 Y100.493 E1.17106
G1 X104.213 Y100.528 E1.18015
G1 X104.461 Y100.631 E1.18924
G1 X104.674 Y100.796 E1.19835
G1 X104.836 Y101.010 E1.20746
G1 X104.937 Y101.260 E1.21658
G1 X104.967 Y101.530 E1.22577
G1 X104.919 Y101.796 E1.23493
G1 X104.801 Y102.034 E1.24393
G1 X104.622 Y102.232 E1.25294
G1 X104.441 Y102.336 E1.26002
G1 E0.91002 F3600.000
;WIPE_START
G1 F14400.000
G1 X104.150 Y102.411 E0.83861
G1 X103.946 Y102.419 E0.79025
G1 X103.851 Y102.415 E0.76752
;WIPE_END
G1 E0.76002 F3600.000
G92 E0
G1 X104.135 Y99.726 F18000.000
G1 E0.54000 F2400.000
G1 F270.000
G1 X103.946 Y99.751 E0.54644
G1 X103.758 Y99.726 E0.55287
G1 X103.582 Y99.653 E0.55932
G1 X103.431 Y99.537 E0.56575
G1 X103.315 Y99.386 E0.57219
G1 X103.242 Y99.210 E0.57863
G1 X103.218 Y99.022 E0.58507
G1 X103.242 Y98.833 E0.59150
G1 X103.315 Y98.657 E0.59795
G1 X103.431 Y98.507 E0.60438
G1 X103.582 Y98.391 E0.61082
G1 X103.758 Y98.318 E0.61726
G1 X103.946 Y98.293 E0.62370
G1 X104.135 Y98.318 E0.63014
G1 X104.311 Y98.391 E0.63658
G1 X104.461 Y98.507 E0.64302
G1 X104.577 Y98.657 E0.64945
G1 X104.650 Y98.833 E0.65590
G1 X104.675 Y99.022 E0.66233
G1 X104.650 Y99.210 E0.66877
G1 X104.577 Y99.386 E0.67521
G1 X104.461 Y99.537 E0.68165
G1 X104.311 Y99.653 E0.68808
G1 X104.190 Y99.703 E0.69250
G1 E0.34250 F3600.000
;WIPE_START
G1 F14400.000
G1 X103.946 Y99.751 E0.28346
G1 X103.758 Y99.726 E0.23830
G1 X103.609 Y99.664 E0.20000
;WIPE_END
G1 E0.19250 F3600.000
G92 E0
G1 X102.867 Y86.235 F18000.000
G1 E0.54000 F2400.000
G1 F540.000
G1 X102.827 Y87.375 E0.57860
G1 X102.802 Y87.520 E0.58360
G1 X103.124 Y87.585 E0.59475
G1 X103.124 Y88.225 E0.61641
G1 X103.235 Y88.047 E0.62348
G1 X103.382 Y87.882 E0.63097
G1 X103.890 Y87.468 E0.65316
G1 X104.199 Y87.365 E0.66419
G1 X104.446 Y87.329 E0.67261
G1 X104.772 Y87.358 E0.68369
G1 X105.062 Y87.460 E0.69411
G1 X105.309 Y87.619 E0.70404
G1 X105.736 Y88.108 E0.72602
G1 X105.890 Y88.454 E0.73882
G1 X105.906 Y88.533 E0.74156
G1 X105.906 Y87.580 E0.77382
G1 X106.524 Y87.472 E0.79506
G1 X107.143 Y87.580 E0.81631
G1 X107.143 Y87.619 E0.81762
G1 X107.241 Y87.577 E0.82125
G1 X107.323 Y87.405 E0.82770
G1 X107.709 Y87.359 E0.84087
G1 X107.817 Y87.404 E0.84482
G1 X107.885 Y87.397 E0.84716
G1 X108.413 Y87.448 E0.86511
G1 X108.413 Y87.482 E0.86625
G1 X108.525 Y87.415 E0.87067
G1 X108.747 Y87.344 E0.87854
G1 X109.001 Y87.298 E0.88730
G1 X109.301 Y87.306 E0.89743
G1 X109.651 Y87.408 E0.90980
G1 X109.824 Y87.512 E0.91663
G1 X109.968 Y87.642 E0.92319
G1 X110.088 Y87.798 E0.92987
G1 X110.178 Y87.978 E0.93666
G1 X110.238 Y88.176 E0.94367
G1 X110.278 Y88.569 E0.95702
G1 X110.265 Y90.399 E1.01898
G1 X109.386 Y90.319 E1.04885
G1 X108.785 Y90.128 E1.07022
G1 X108.785 Y89.146 E1.10345
G1 X108.740 Y88.867 E1.11302
G1 X108.729 Y88.907 E1.11440
G1 X108.638 Y88.960 E1.11794
G1 X108.638 Y90.155 E1.15840
G1 X107.992 Y90.260 E1.18057
G1 X107.345 Y90.155 E1.20274
G1 X107.345 Y88.902 E1.24514
G1 X107.301 Y88.882 E1.24677
G1 X107.292 Y88.915 E1.24793
G1 X107.199 Y88.972 E1.25159
G1 X107.199 Y90.155 E1.29165
G1 X106.553 Y90.260 E1.31382
G1 X105.906 Y90.155 E1.33599
G1 X105.906 Y89.186 E1.36880
G1 X105.880 Y89.303 E1.37286
G1 X105.798 Y89.504 E1.38019
G1 X105.684 Y89.688 E1.38754
G1 X105.255 Y90.162 E1.40917
G1 X105.012 Y90.298 E1.41860
G1 X104.744 Y90.381 E1.42811
G1 X104.448 Y90.403 E1.43815
G1 X104.182 Y90.364 E1.44724
G1 X103.938 Y90.279 E1.45599
G1 X103.737 Y90.145 E1.46415
G1 X103.289 Y89.756 E1.48425
G1 X103.149 Y89.559 E1.49242
G1 X103.105 Y89.465 E1.49594
G1 X103.170 Y90.058 E1.51615
G1 X102.777 Y90.317 E1.53207
G1 X102.341 Y90.346 E1.54688
G1 X102.048 Y90.305 E1.55687
G1 X101.896 Y90.236 E1.56252
G1 X101.554 Y89.948 E1.57765
G1 X101.424 Y89.686 E1.58757
G1 X101.381 Y89.440 E1.59601
G1 X101.372 Y88.612 E1.62405
G1 X100.782 Y88.612 E1.64401
G1 X100.822 Y89.171 E1.66300
G1 X101.184 Y89.087 E1.67557
G1 X101.297 Y90.125 E1.71091
G1 X101.034 Y90.179 E1.72000
G1 X100.940 Y90.265 E1.72429
G1 X100.758 Y90.337 E1.73092
G1 X100.478 Y90.372 E1.74047
G1 X100.184 Y90.361 E1.75045
G1 X99.926 Y90.274 E1.75964
G1 X99.719 Y90.120 E1.76840
G1 X99.615 Y89.913 E1.77622
G1 X99.540 Y89.667 E1.78494
G1 X99.501 Y89.440 E1.79274
G1 X99.491 Y88.612 E1.82077
G1 X99.337 Y88.612 E1.82599
G1 X99.347 Y89.081 E1.84186
G1 X99.297 Y89.303 E1.84958
G1 X99.217 Y89.499 E1.85673
G1 X99.025 Y89.842 E1.87005
G1 X98.884 Y90.048 E1.87848
G1 X98.674 Y90.223 E1.88777
G1 X98.427 Y90.340 E1.89698
G1 X98.157 Y90.412 E1.90644
G1 X97.868 Y90.427 E1.91626
G1 X97.606 Y90.402 E1.92518
G1 X97.364 Y90.329 E1.93373
G1 X97.145 Y90.222 E1.94196
G1 X96.941 Y90.062 E1.95074
G1 X96.839 Y89.884 E1.95768
G1 X96.702 Y89.750 E1.96415
G1 X96.566 Y89.559 E1.97211
G1 X96.476 Y89.365 E1.97936
G1 X96.368 Y89.646 E1.98956
G1 X95.945 Y90.152 E2.01189
G1 X95.812 Y90.230 E2.01712
G1 X95.364 Y90.357 E2.03288
G1 X95.173 Y90.377 E2.03937
G1 X93.059 Y90.390 E2.11093
G1 X93.059 Y86.507 E2.24238
G1 X95.449 Y86.522 E2.32329
G1 X95.662 Y86.563 E2.33063
G1 X95.863 Y86.635 E2.33784
G1 X96.039 Y86.749 E2.34495
G1 X96.185 Y86.885 E2.35171
G1 X96.309 Y87.052 E2.35875
G1 X96.419 Y87.403 E2.37118
G1 X96.335 Y87.955 E2.39009
G1 X96.232 Y88.183 E2.39854
G1 X96.127 Y88.316 E2.40428
G1 X96.306 Y88.476 E2.41240
G1 X96.407 Y88.649 E2.41918
G1 X96.455 Y88.432 E2.42670
G1 X96.538 Y88.231 E2.43404
G1 X96.648 Y88.054 E2.44113
G1 X96.901 Y87.728 E2.45508
G1 X97.084 Y87.557 E2.46356
G1 X97.321 Y87.419 E2.47284
G1 X97.633 Y87.340 E2.48373
G1 X97.882 Y87.326 E2.49218
G1 X98.199 Y87.381 E2.50306
G1 X98.496 Y87.497 E2.51384
G1 X98.684 Y87.678 E2.52268
G1 X98.855 Y87.784 E2.52951
G1 X99.038 Y87.956 E2.53799
G1 X99.178 Y88.175 E2.54680
G1 X99.178 Y87.553 E2.56785
G1 X99.424 Y87.543 E2.57618
G1 X99.355 Y87.208 E2.58776
G1 X99.634 Y86.992 E2.59968
G1 X100.018 Y86.770 E2.61469
G1 X100.957 Y86.400 E2.64889
G1 X100.782 Y87.371 E2.68230
G1 X100.782 Y87.544 E2.68815
G1 X101.369 Y87.544 E2.70802
G1 X101.369 Y87.325 E2.71543
G1 X101.469 Y87.066 E2.72482
G1 X101.871 Y86.773 E2.74166
G1 X102.815 Y86.263 E2.77797
G1 E2.42797 F3600.000
;WIPE_START
G1 F14400.000
G1 X102.821 Y86.863 E2.28547
;WIPE_END
G1 E2.27797 F3600.000
G92 E0
G1 X111.403 Y86.507 F18000.000
G1 E0.54000 F2400.000
G1 F270.000
G1 X113.689 Y86.517 E0.61736
G1 X114.561 Y86.583 E0.64697
G1 X114.410 Y87.298 E0.67173
G1 X114.338 Y87.811 E0.68925
G1 X113.258 Y87.811 E0.72582
G1 X113.126 Y87.847 E0.73046
G1 X113.126 Y87.868 E0.73116
G1 X113.196 Y87.890 E0.73365
G1 X114.166 Y87.890 E0.76651
G1 X114.166 Y88.902 E0.80076
G1 X113.598 Y89.042 E0.82058
G1 X113.192 Y89.115 E0.83453
G1 X113.196 Y90.389 E0.87765
G1 X111.403 Y90.389 E0.93833
G1 X111.403 Y86.567 E1.06767
G1 E0.71767 F3600.000
;WIPE_START
G1 F14400.000
G1 X112.003 Y86.554 E0.57517
;WIPE_END
G1 E0.56767 F3600.000
G92 E0
G1 X123.031 Y89.087 F18000.000
G1 E0.54000 F2400.000
G1 F270.000
G1 X122.831 Y89.237 E0.54847
G1 X122.894 Y89.659 E0.56290
G1 X122.536 Y90.126 E0.58283
G1 X122.360 Y90.237 E0.58985
G1 X122.020 Y90.374 E0.60227
G1 X121.611 Y90.429 E0.61623
G1 X121.188 Y90.415 E0.63056
G1 X120.988 Y90.371 E0.63749
G1 X120.673 Y90.248 E0.64893
G1 X120.507 Y90.138 E0.65567
G1 X120.348 Y89.912 E0.66504
G1 X120.184 Y89.739 E0.67309
G1 X120.010 Y89.422 E0.68534
G1 X119.873 Y89.685 E0.69537
G1 X119.675 Y89.901 E0.70530
G1 X119.539 Y90.097 E0.71336
G1 X119.290 Y90.280 E0.72382
G1 X118.837 Y90.409 E0.73978
G1 X118.642 Y90.417 E0.74638
G1 X118.325 Y90.376 E0.75718
G1 X117.925 Y90.238 E0.77151
G1 X117.745 Y90.071 E0.77984
G1 X117.519 Y89.909 E0.78922
G1 X117.369 Y89.754 E0.79652
G1 X117.198 Y89.489 E0.80719
G1 X117.135 Y89.266 E0.81504
G1 X117.137 Y89.592 E0.82606
G1 X117.156 Y89.718 E0.83036
G1 X117.309 Y90.103 E0.84438
G1 X116.662 Y90.315 E0.86742
G1 X115.962 Y90.370 E0.89120
G1 X115.945 Y90.314 E0.89318
G1 X115.800 Y90.365 E0.89839
G1 X115.702 Y90.358 E0.90171
G1 X115.607 Y90.415 E0.90547
G1 X115.281 Y90.433 E0.91650
