; generated by PrusaSlicer 2.3.0+win64 on 2021-03-14 at 18:04:33 UTC

; 

; external perimeters extrusion width = 0.40mm
; perimeters extrusion width = 0.40mm
; infill extrusion width = 0.40mm
; solid infill extrusion width = 0.40mm
; top infill extrusion width = 0.40mm

M73 P0 R31
M73 Q0 S31
M201 X500 Y500 Z100 E5000 ; sets maximum accelerations, mm/sec^2
M203 X500 Y500 Z10 E60 ; sets maximum feedrates, mm/sec
M204 P500 R1000 T500 ; sets acceleration (P, T) and retract acceleration (R), mm/sec^2
M205 X8.00 Y8.00 Z0.40 E5.00 ; sets the jerk limits, mm/sec
M205 S0 T0 ; sets the minimum extruding and travel feed rate, mm/sec
M107
;TYPE:Custom
G90 ; use absolute coordinates
M83 ; extruder relative mode
M104 S200 ; set extruder temp
M140 S50 ; set bed temp
M190 S50 ; wait for bed temp
M109 S200 ; wait for extruder temp
M204 S600 ;acceleration
M220 S100 ;Reset Feedrate
M221 S100 ;Reset Flowrate
G28 ; home all
G29
G1 Z2 F240
G1 X2 Y10 F3000
G1 Z0.28 F240
G92 E0.0
G1 Y190 E15.0 F1500.0 ; intro line
G1 X2.3 F5000
G1 Y10 E30 F1200.0 ; intro line
G92 E0.0
G21 ; set units to millimeters
G90 ; use absolute coordinates
M82 ; use absolute distances for extrusion
G92 E0
; Filament gcode
;LAYER_CHANGE
;Z:0.2
;HEIGHT:0.2
;BEFORE_LAYER_CHANGE
M117 INDICATOR-Layer1
;0.2


G1 E-0.50000 F3600.000
G92 E0
G1 Z0.200 F18000.000
;AFTER_LAYER_CHANGE
;0.2
G1 X36.925 Y102.040
G1 E0.54000 F2400.000
;TYPE:Perimeter
;WIDTH:0.4
G1 F2700.000
G1 X36.919 Y104.262 E0.60268
G1 X38.191 Y102.040 E0.67490
G1 X40.658 Y102.040 E0.74448
M73 P1 R31
M73 Q1 S31
G1 X41.930 Y104.262 E0.81669
G1 X41.924 Y102.040 E0.87937
G1 X45.355 Y102.040 E0.97614
G1 X45.355 Y103.051 E1.00464
G1 X47.376 Y102.040 E1.06837
G1 X54.135 Y102.040 E1.25901
G1 X54.121 Y108.859 E1.45133
G1 X55.014 Y108.812 E1.47655
G1 X59.331 Y108.810 E1.59832
G1 X59.331 Y108.389 E1.61019
G1 X54.286 Y108.389 E1.75250
G1 X54.286 Y105.572 E1.83196
G1 X59.331 Y105.572 E1.97426
G1 X59.331 Y102.040 E2.07387
G1 X62.737 Y102.040 E2.16993
G1 X62.737 Y111.626 E2.44033
G1 X54.976 Y111.623 E2.65923
G1 X53.542 Y111.546 E2.69973
G1 X52.066 Y111.623 E2.74143
G1 X47.376 Y111.626 E2.87372
G1 X45.355 Y110.616 E2.93745
G1 X45.355 Y111.626 E2.96596
G1 X42.348 Y111.626 E3.05078
G1 X39.425 Y106.540 E3.21624
G1 X36.501 Y111.626 E3.38170
G1 X33.494 Y111.626 E3.46653
G1 X33.494 Y102.040 E3.73692
G1 X33.701 Y102.040 E3.74276
G1 X33.203 Y101.909 E3.75730
G1 X32.718 Y101.677 E3.77246
G1 X32.285 Y101.359 E3.78761
G1 X31.918 Y100.966 E3.80276
G1 X31.632 Y100.512 E3.81792
G1 X31.443 Y100.032 E3.83246
G1 X31.371 Y99.729 E3.84125
G1 X31.322 Y99.216 E3.85580
G1 X31.373 Y98.681 E3.87095
G1 X31.522 Y98.165 E3.88610
G1 X31.764 Y97.686 E3.90125
G1 X32.092 Y97.260 E3.91641
G1 X32.494 Y96.903 E3.93156
G1 X32.955 Y96.627 E3.94671
G1 X33.461 Y96.441 E3.96193
G1 X34.006 Y96.354 E3.97750
G1 X34.505 Y96.367 E3.99158
G1 X34.812 Y96.417 E4.00034
G1 X35.304 Y96.572 E4.01489
G1 X35.777 Y96.826 E4.03004
G1 X36.195 Y97.164 E4.04520
G1 X36.543 Y97.574 E4.06035
G1 X36.808 Y98.041 E4.07550
G1 X36.981 Y98.549 E4.09065
G1 X37.056 Y99.078 E4.10573
G1 X37.031 Y99.618 E4.12095
G1 X36.906 Y100.140 E4.13611
G1 X36.686 Y100.631 E4.15126
G1 X36.378 Y101.071 E4.16642
G1 X36.010 Y101.431 E4.18096
G1 X35.758 Y101.616 E4.18975
G1 X35.304 Y101.859 E4.20430
G1 X34.792 Y102.021 E4.21945
G1 X34.625 Y102.040 E4.22417
G1 X36.865 Y102.040 E4.28734
G1 E3.93734 F3600.000
;WIPE_START
G1 F14400.000
G1 X36.879 Y102.640 E3.79484
;WIPE_END
G1 E3.78734 F3600.000
G92 E0
G1 X36.567 Y102.397 F18000.000
G1 E0.54000 F2400.000
G1 F2700.000
G1 X36.556 Y105.615 E0.63077
G1 X38.398 Y102.397 E0.73536
G1 X40.451 Y102.397 E0.79326
G1 X42.293 Y105.615 E0.89785
G1 X42.282 Y102.397 E0.98862
G1 X44.998 Y102.397 E1.06522
G1 X44.998 Y103.628 E1.09994
G1 X47.460 Y102.397 E1.17759
G1 X53.778 Y102.397 E1.35578
G1 X53.776 Y108.561 E1.52965
G1 X53.749 Y109.235 E1.54868
G1 X55.023 Y109.169 E1.58468
G1 X59.688 Y109.167 E1.71626
G1 X59.688 Y108.032 E1.74827
G1 X54.643 Y108.032 E1.89058
G1 X54.643 Y105.929 E1.94989
G1 X59.688 Y105.929 E2.09220
G1 X59.688 Y102.397 E2.19181
G1 X62.380 Y102.397 E2.26773
G1 X62.380 Y111.269 E2.51797
G1 X54.986 Y111.266 E2.72653
G1 X53.543 Y111.189 E2.76729
G1 X52.056 Y111.266 E2.80927
G1 X47.460 Y111.269 E2.93891
G1 X44.998 Y110.038 E3.01657
G1 X44.998 Y111.269 E3.05129
G1 X42.554 Y111.269 E3.12022
G1 X39.425 Y105.824 E3.29738
G1 X36.295 Y111.269 E3.47453
G1 X33.851 Y111.269 E3.54346
G1 X33.851 Y102.397 E3.79370
G1 X36.507 Y102.397 E3.86861
G1 E3.51861 F3600.000
;WIPE_START
G1 F14400.000
G1 X36.516 Y102.997 E3.37611
;WIPE_END
G1 E3.36861 F3600.000
G92 E0
G1 X45.053 Y104.000 F18000.000
G1 E0.54000 F2400.000
;TYPE:External perimeter
G1 F1350.000
G1 X47.544 Y102.754 E0.61858
G1 X53.420 Y102.754 E0.78432
G1 X53.419 Y108.554 E0.94791
G1 X53.359 Y110.025 E0.98945
G1 X53.359 Y110.840 E1.01244
G1 X52.047 Y110.909 E1.04949
G1 X47.544 Y110.912 E1.17650
G1 X45.053 Y109.666 E1.25508
G1 X45.053 Y104.060 E1.41320
G1 X44.888 Y103.636 F18000.000
G1 E1.06320 F3600.000
;WIPE_START
G1 F14400.000
G1 X45.584 Y103.782 E0.92070
;WIPE_END
G1 E0.91320 F3600.000
G92 E0
G1 X55.000 Y106.286 F18000.000
G1 E0.54000 F2400.000
G1 F1350.000
G1 X60.045 Y106.286 E0.68231
G1 X60.045 Y102.754 E0.78192
G1 X62.023 Y102.754 E0.83769
G1 X62.023 Y110.912 E1.06779
G1 X54.995 Y110.909 E1.26600
G1 X53.716 Y110.840 E1.30214
G1 X53.716 Y109.595 E1.33727
G1 X55.033 Y109.527 E1.37446
G1 X60.045 Y109.523 E1.51585
G1 X60.045 Y107.675 E1.56800
G1 X55.000 Y107.675 E1.71030
G1 X55.000 Y106.346 E1.74778
G1 X54.832 Y105.923 F18000.000
G1 E1.39778 F3600.000
;WIPE_START
G1 F14400.000
G1 X55.600 Y106.339 E1.25528
;WIPE_END
G1 E1.24778 F3600.000
G92 E0
G1 X34.208 Y102.754 F18000.000
G1 E0.54000 F2400.000
G1 F1350.000
G1 X36.209 Y102.754 E0.59643
G1 X36.202 Y105.557 E0.67549
G1 X36.172 Y106.053 E0.68951
G1 X36.007 Y107.006 E0.71678
G1 X36.007 Y107.677 E0.73571
G1 X36.324 Y107.125 E0.75366
G1 X36.647 Y106.239 E0.78025
G1 X36.860 Y105.803 E0.79396
G1 X38.605 Y102.754 E0.89304
G1 X40.244 Y102.754 E0.93926
G1 X41.989 Y105.803 E1.03834
G1 X42.202 Y106.239 E1.05205
G1 X42.525 Y107.125 E1.07864
G1 X42.842 Y107.677 E1.09659
G1 X42.842 Y107.006 E1.11551
G1 X42.677 Y106.053 E1.14279
G1 X42.647 Y105.557 E1.15681
G1 X42.640 Y102.754 E1.23587
G1 X44.641 Y102.754 E1.29230
G1 X44.641 Y110.912 E1.52239
G1 X42.761 Y110.912 E1.57542
G1 X39.425 Y105.107 E1.76427
G1 X36.088 Y110.912 E1.95312
G1 X34.208 Y110.912 E2.00615
G1 X34.208 Y102.814 E2.23456
G1 X34.178 Y102.356 F18000.000
G1 E1.88456 F3600.000
;WIPE_START
G1 F14400.000
G1 X34.808 Y102.796 E1.74206
;WIPE_END
G1 E1.73456 F3600.000
G92 E0
G1 X34.250 Y101.725 F18000.000
G1 E0.54000 F2400.000
;TYPE:Perimeter
G1 F1350.000
G1 X33.781 Y101.692 E0.55326
G1 X33.326 Y101.572 E0.56652
G1 X32.902 Y101.370 E0.57977
G1 X32.523 Y101.091 E0.59303
G1 X32.203 Y100.748 E0.60629
G1 X31.952 Y100.350 E0.61955
G1 X31.784 Y99.925 E0.63244
G1 X31.724 Y99.671 E0.63981
G1 X31.681 Y99.216 E0.65270
G1 X31.725 Y98.748 E0.66595
G1 X31.856 Y98.296 E0.67921
G1 X32.068 Y97.877 E0.69247
G1 X32.355 Y97.505 E0.70573
G1 X32.706 Y97.192 E0.71899
G1 X33.109 Y96.951 E0.73225
G1 X33.552 Y96.789 E0.74555
G1 X34.030 Y96.712 E0.75921
G1 X34.472 Y96.723 E0.77166
G1 X34.729 Y96.766 E0.77901
G1 X35.165 Y96.903 E0.79190
G1 X35.579 Y97.125 E0.80516
G1 X35.944 Y97.421 E0.81842
G1 X36.249 Y97.779 E0.83168
G1 X36.480 Y98.188 E0.84494
G1 X36.632 Y98.633 E0.85819
G1 X36.697 Y99.096 E0.87138
G1 X36.676 Y99.568 E0.88470
G1 X36.566 Y100.025 E0.89797
G1 X36.374 Y100.454 E0.91122
G1 X36.105 Y100.839 E0.92448
G1 X35.778 Y101.158 E0.93737
G1 X35.567 Y101.313 E0.94474
G1 X35.165 Y101.529 E0.95763
G1 X34.716 Y101.670 E0.97089
G1 X34.309 Y101.718 E0.98245
G1 E0.63245 F3600.000
;WIPE_START
G1 F14400.000
G1 X33.781 Y101.692 E0.50678
G1 X33.712 Y101.674 E0.48995
;WIPE_END
G1 E0.48245 F3600.000
G92 E0
G1 X34.267 Y101.363 F18000.000
G1 E0.54000 F2400.000
;TYPE:External perimeter
G1 F1350.000
G1 X33.839 Y101.338 E0.55210
G1 X33.450 Y101.235 E0.56346
G1 X33.086 Y101.062 E0.57482
G1 X32.761 Y100.823 E0.58619
G1 X32.487 Y100.529 E0.59755
G1 X32.272 Y100.188 E0.60892
G1 X32.126 Y99.818 E0.62014
G1 X32.077 Y99.612 E0.62610
G1 X32.040 Y99.216 E0.63733
G1 X32.077 Y98.815 E0.64869
G1 X32.189 Y98.428 E0.66005
G1 X32.371 Y98.068 E0.67142
G1 X32.617 Y97.749 E0.68278
G1 X32.918 Y97.482 E0.69414
G1 X33.264 Y97.275 E0.70551
G1 X33.643 Y97.136 E0.71689
G1 X34.054 Y97.070 E0.72865
G1 X34.438 Y97.079 E0.73947
G1 X34.646 Y97.114 E0.74541
G1 X35.026 Y97.233 E0.75664
G1 X35.381 Y97.424 E0.76801
G1 X35.694 Y97.677 E0.77937
G1 X35.954 Y97.984 E0.79074
G1 X36.153 Y98.335 E0.80210
G1 X36.283 Y98.716 E0.81346
G1 X36.339 Y99.113 E0.82475
G1 X36.321 Y99.517 E0.83619
G1 X36.227 Y99.909 E0.84755
G1 X36.062 Y100.277 E0.85891
G1 X35.831 Y100.607 E0.87028
G1 X35.547 Y100.885 E0.88151
G1 X35.376 Y101.010 E0.88746
G1 X35.026 Y101.198 E0.89869
G1 X34.641 Y101.319 E0.91005
G1 X34.327 Y101.356 E0.91898
G1 X34.079 Y101.716 F18000.000
G1 E0.56898 F3600.000
;WIPE_START
G1 F14400.000
G1 X33.839 Y101.338 E0.45308
G1 X33.731 Y101.309 E0.42648
;WIPE_END
G1 E0.41898 F3600.000
G92 E0
G1 X30.754 Y101.356 F18000.000
G1 E0.54000 F2400.000
;TYPE:Perimeter
G1 F2700.000
G1 X30.757 Y84.454 E1.01675
M73 P2 R31
M73 Q2 S31
G1 X30.791 Y84.119 E1.02624
G1 X30.857 Y83.801 E1.03540
G1 X31.024 Y83.313 E1.04994
G1 X31.257 Y82.867 E1.06415
G1 X31.562 Y82.451 E1.07869
G1 X31.786 Y82.216 E1.08785
G1 X32.041 Y81.997 E1.09733
G1 X32.317 Y81.805 E1.10682
G1 X32.611 Y81.641 E1.11630
G1 X32.920 Y81.509 E1.12578
G1 X33.241 Y81.408 E1.13527
G1 X33.570 Y81.340 E1.14475
G1 X33.905 Y81.306 E1.15424
G1 X61.669 Y81.302 E1.93738
G1 X62.004 Y81.319 E1.94685
G1 X62.337 Y81.370 E1.95635
G1 X62.663 Y81.454 E1.96584
G1 X62.978 Y81.571 E1.97532
G1 X63.280 Y81.719 E1.98481
G1 X63.555 Y81.891 E1.99396
G1 X63.954 Y82.216 E2.00846
G1 X64.313 Y82.616 E2.02364
G1 X64.486 Y82.865 E2.03218
G1 X64.649 Y83.160 E2.04169
G1 X64.782 Y83.469 E2.05117
G1 X64.879 Y83.778 E2.06033
G1 X64.972 Y84.297 E2.07519
G1 X64.990 Y84.647 E2.08507
G1 X64.984 Y113.967 E2.91208
G1 X64.919 Y114.478 E2.92662
G1 X64.780 Y114.963 E2.94084
G1 X64.565 Y115.431 E2.95537
G1 X64.393 Y115.706 E2.96453
G1 X64.188 Y115.972 E2.97402
G1 X63.956 Y116.216 E2.98350
G1 X63.710 Y116.427 E2.99266
G1 X63.269 Y116.718 E3.00753
G1 X62.978 Y116.861 E3.01669
G1 X62.663 Y116.977 E3.02617
G1 X62.337 Y117.062 E3.03565
G1 X62.005 Y117.112 E3.04514
G1 X61.643 Y117.131 E3.05534
G1 X33.916 Y117.125 E3.83744
G1 X33.406 Y117.060 E3.85194
G1 X32.889 Y116.910 E3.86712
G1 X32.611 Y116.791 E3.87566
G1 X32.327 Y116.633 E3.88484
G1 X31.911 Y116.328 E3.89938
G1 X31.547 Y115.963 E3.91392
G1 X31.348 Y115.706 E3.92307
G1 X31.170 Y115.421 E3.93256
G1 X31.022 Y115.119 E3.94204
G1 X30.905 Y114.804 E3.95153
G1 X30.821 Y114.478 E3.96101
G1 X30.770 Y114.146 E3.97049
G1 X30.752 Y113.785 E3.98070
G1 X30.754 Y101.416 E4.32959
G1 E3.97959 F3600.000
;WIPE_START
G1 F14400.000
G1 X30.754 Y100.816 E3.83709
;WIPE_END
G1 E3.82959 F3600.000
G92 E0
G1 X30.397 Y101.416 F18000.000
G1 E0.54000 F2400.000
G1 F2700.000
G1 X30.400 Y84.435 E1.01896
G1 X30.438 Y84.065 E1.02946
G1 X30.512 Y83.707 E1.03977
G1 X30.694 Y83.172 E1.05572
G1 X30.953 Y82.677 E1.07146
G1 X31.288 Y82.221 E1.08741
G1 X31.539 Y81.957 E1.09772
G1 X31.822 Y81.714 E1.10822
G1 X32.128 Y81.501 E1.11873
G1 X32.453 Y81.320 E1.12923
G1 X32.796 Y81.174 E1.13974
G1 X33.151 Y81.062 E1.15024
G1 X33.516 Y80.987 E1.16075
G1 X33.886 Y80.949 E1.17126
G1 X61.678 Y80.945 E1.95517
G1 X62.040 Y80.963 E1.96541
G1 X62.409 Y81.020 E1.97593
G1 X62.770 Y81.113 E1.98643
G1 X63.119 Y81.243 E1.99694
G1 X63.453 Y81.407 E2.00744
G1 X63.763 Y81.600 E2.01775
G1 X64.201 Y81.957 E2.03367
G1 X64.594 Y82.395 E2.05027
G1 X64.789 Y82.676 E2.05994
G1 X64.970 Y83.002 E2.07046
G1 X65.117 Y83.345 E2.08096
G1 X65.226 Y83.693 E2.09127
G1 X65.327 Y84.257 E2.10741
G1 X65.347 Y84.638 E2.11819
G1 X65.341 Y113.989 E2.94609
G1 X65.270 Y114.550 E2.96204
G1 X65.116 Y115.087 E2.97778
G1 X64.880 Y115.601 E2.99373
G1 X64.687 Y115.911 E3.00404
G1 X64.459 Y116.205 E3.01454
G1 X64.202 Y116.475 E3.02505
G1 X63.925 Y116.713 E3.03535
G1 X63.447 Y117.028 E3.05150
G1 X63.119 Y117.189 E3.06181
G1 X62.770 Y117.319 E3.07231
G1 X62.409 Y117.412 E3.08282
G1 X62.041 Y117.468 E3.09333
G1 X61.652 Y117.488 E3.10430
G1 X33.893 Y117.482 E3.88729
G1 X33.334 Y117.411 E3.90321
G1 X32.768 Y117.247 E3.91981
G1 X32.454 Y117.112 E3.92947
G1 X32.134 Y116.934 E3.93979
G1 X31.678 Y116.599 E3.95574
G1 X31.278 Y116.200 E3.97169
G1 X31.055 Y115.911 E3.98199
G1 X30.858 Y115.595 E3.99250
G1 X30.694 Y115.260 E4.00300
G1 X30.564 Y114.911 E4.01351
G1 X30.471 Y114.550 E4.02402
G1 X30.414 Y114.182 E4.03452
G1 X30.395 Y113.794 E4.04550
G1 X30.397 Y101.476 E4.39295
G1 E4.04295 F3600.000
;WIPE_START
G1 F14400.000
G1 X30.397 Y100.876 E3.90045
;WIPE_END
G1 E3.89295 F3600.000
G92 E0
G1 X30.040 Y101.475 F18000.000
G1 E0.54000 F2400.000
;TYPE:External perimeter
M73 P2 R30
M73 Q2 S30
G1 F1350.000
G1 X30.043 Y84.417 E1.02116
G1 X30.085 Y84.011 E1.03268
G1 X30.166 Y83.613 E1.04414
G1 X30.365 Y83.031 E1.06149
G1 X30.649 Y82.488 E1.07877
G1 X31.013 Y81.992 E1.09613
G1 X31.293 Y81.697 E1.10758
G1 X31.603 Y81.431 E1.11911
G1 X31.938 Y81.198 E1.13064
G1 X32.296 Y80.999 E1.14217
G1 X32.671 Y80.838 E1.15369
G1 X33.061 Y80.716 E1.16522
G1 X33.462 Y80.634 E1.17675
G1 X33.868 Y80.592 E1.18828
G1 X61.687 Y80.587 E1.97296
G1 X62.077 Y80.608 E1.98397
G1 X62.481 Y80.670 E1.99550
G1 X62.877 Y80.772 E2.00703
G1 X63.260 Y80.914 E2.01855
G1 X63.627 Y81.094 E2.03008
G1 X63.972 Y81.309 E2.04154
G1 X64.448 Y81.697 E2.05888
G1 X64.874 Y82.173 E2.07689
G1 X65.093 Y82.487 E2.08769
G1 X65.291 Y82.845 E2.09922
G1 X65.452 Y83.220 E2.11075
G1 X65.574 Y83.608 E2.12221
G1 X65.683 Y84.216 E2.13963
G1 X65.704 Y84.629 E2.15130
G1 X65.698 Y114.012 E2.98010
G1 X65.621 Y114.622 E2.99745
G1 X65.452 Y115.211 E3.01473
G1 X65.195 Y115.770 E3.03208
G1 X64.980 Y116.115 E3.04354
G1 X64.730 Y116.438 E3.05507
G1 X64.449 Y116.734 E3.06659
G1 X64.140 Y116.999 E3.07805
G1 X63.625 Y117.339 E3.09547
G1 X63.260 Y117.518 E3.10693
G1 X62.877 Y117.660 E3.11846
G1 X62.481 Y117.762 E3.12998
G1 X62.077 Y117.824 E3.14151
G1 X61.661 Y117.845 E3.15325
G1 X33.871 Y117.839 E3.93713
G1 X33.261 Y117.762 E3.95448
G1 X32.648 Y117.584 E3.97249
G1 X32.296 Y117.432 E3.98329
G1 X31.941 Y117.235 E3.99475
G1 X31.445 Y116.871 E4.01210
G1 X31.010 Y116.436 E4.02945
G1 X30.761 Y116.115 E4.04091
G1 X30.545 Y115.768 E4.05244
G1 X30.365 Y115.401 E4.06397
G1 X30.223 Y115.018 E4.07549
G1 X30.121 Y114.622 E4.08702
G1 X30.059 Y114.218 E4.09855
G1 X30.038 Y113.803 E4.11029
G1 X30.040 Y101.535 E4.45631
G1 X30.386 Y101.275 F18000.000
G1 E4.10631 F3600.000
;WIPE_START
G1 F14400.000
G1 X30.040 Y100.935 E3.96381
;WIPE_END
G1 E3.95631 F3600.000
G92 E0
G1 X31.089 Y99.988 F18000.000
G1 E0.54000 F2400.000
;TYPE:Gap fill
;WIDTH:0.2532
G1 F900.000
G1 X31.038 Y99.206 E0.55301
;WIDTH:0.279911
G1 X31.052 Y98.921 E0.55836
;WIDTH:0.312221
G1 X31.087 Y98.474 E0.56789
G1 E0.21789 F3600.000
;WIPE_START
G1 F14400.000
G1 X31.052 Y98.921 E0.11146
;WIPE_END
G1 E0.06789 F3600.000
G92 E0
G1 X35.750 Y101.844 F18000.000
G1 E0.54000 F2400.000
;WIDTH:0.10995
G1 F900.000
G1 X35.811 Y101.828 E0.54033
G1 X35.885 Y101.774 E0.54082
G1 E0.19082 F3600.000
;WIPE_START
G1 F14400.000
G1 X35.811 Y101.828 E0.16900
G1 X35.750 Y101.844 E0.15403
;WIPE_END
G1 E0.04082 F3600.000
G92 E0
G1 X36.518 Y105.790 F18000.000
G1 E0.54000 F2400.000
;WIDTH:0.210064
G1 F900.000
G1 X36.415 Y106.137 E0.54477
;WIDTH:0.192473
G1 X36.337 Y106.427 E0.54833
;WIDTH:0.140791
G1 X36.262 Y106.711 E0.55059
G1 E0.20059 F3600.000
;WIPE_START
G1 F14400.000
G1 X36.337 Y106.427 E0.13097
;WIPE_END
G1 E0.05059 F3600.000
G92 E0
G1 X42.331 Y105.790 F18000.000
G1 E0.54000 F2400.000
;WIDTH:0.140796
G1 F900.000
G1 X42.587 Y106.711 E0.54739
G1 E0.19739 F3600.000
;WIPE_START
G1 F14400.000
G1 X42.426 Y106.133 E0.05489
;WIPE_END
G1 E0.04739 F3600.000
G92 E0
G1 X44.847 Y103.904 F18000.000
G1 E0.54000 F2400.000
;WIDTH:0.0976024
G1 F900.000
G1 X44.847 Y109.763 E0.56531
G1 E0.21531 F3600.000
;WIPE_START
G1 F14400.000
