; generated by PrusaSlicer 2.3.0+win64 on 2021-03-14 at 18:58:43 UTC

; 

; external perimeters extrusion width = 0.40mm
; perimeters extrusion width = 0.40mm
; infill extrusion width = 0.40mm
; solid infill extrusion width = 0.40mm
; top infill extrusion width = 0.40mm
; support material extrusion width = 0.38mm

M73 P0 R126
M73 Q0 S126
M201 X500 Y500 Z100 E5000 ; sets maximum accelerations, mm/sec^2
M203 X500 Y500 Z10 E60 ; sets maximum feedrates, mm/sec
M204 P500 R1000 T500 ; sets acceleration (P, T) and retract acceleration (R), mm/sec^2
M205 X8.00 Y8.00 Z0.40 E5.00 ; sets the jerk limits, mm/sec
M205 S0 T0 ; sets the minimum extruding and travel feed rate, mm/sec
M107
;TYPE:Custom
G90 ; use absolute coordinates
M83 ; extruder relative mode
M104 S200 ; set extruder temp
M140 S50 ; set bed temp
M190 S50 ; wait for bed temp
M109 S200 ; wait for extruder temp
M204 S600 ;acceleration
M220 S100 ;Reset Feedrate
M221 S100 ;Reset Flowrate
G28 ; home all
G29
G1 Z2 F240
G1 X2 Y10 F3000
G1 Z0.28 F240
G92 E0.0
G1 Y190 E15.0 F1500.0 ; intro line
G1 X2.3 F5000
G1 Y10 E30 F1200.0 ; intro line
G92 E0.0
G21 ; set units to millimeters
G90 ; use absolute coordinates
M82 ; use absolute distances for extrusion
G92 E0
; Filament gcode
;LAYER_CHANGE
;Z:0.2
;HEIGHT:0.2
;BEFORE_LAYER_CHANGE
M117 INDICATOR-Layer1
;0.2


G1 E-0.50000 F3600.000
G92 E0
G1 Z0.200 F18000.000
;AFTER_LAYER_CHANGE
;0.2
G1 X148.237 Y81.988
G1 E0.54000 F2400.000
;TYPE:Support material
;WIDTH:0.38
G1 F900.000
G1 X148.237 Y61.814 E1.07717
G1 X148.912 Y61.814 E1.09512
G1 X148.912 Y81.836 E1.62825
G1 X149.586 Y81.836 E1.64620
G1 X149.586 Y61.814 E2.17934
M73 P0 R125
M73 Q0 S125
G1 X150.260 Y61.814 E2.19729
G1 X150.260 Y81.988 E2.73446
G1 E2.38446 F3600.000
;WIPE_START
G1 F14400.000
G1 X150.260 Y81.388 E2.24196
;WIPE_END
G1 E2.23446 F3600.000
G92 E0
G1 X150.260 Y107.696 F18000.000
G1 E0.54000 F2400.000
G1 F900.000
G1 X150.260 Y92.196 E0.95271
G1 X149.586 Y92.196 E0.97066
G1 X149.586 Y107.544 E1.37934
G1 X148.912 Y107.544 E1.39729
G1 X148.912 Y92.196 E1.80596
G1 X148.237 Y92.196 E1.82391
G1 X148.237 Y107.696 E2.23662
G1 E1.88662 F3600.000
;WIPE_START
G1 F14400.000
G1 X148.237 Y107.096 E1.74412
;WIPE_END
G1 E1.73662 F3600.000
G92 E0
G1 X150.260 Y138.078 F18000.000
G1 E0.54000 F2400.000
G1 F900.000
G1 X150.260 Y117.904 E1.07717
G1 X149.586 Y117.904 E1.09512
G1 X149.586 Y137.926 E1.62825
G1 X148.912 Y137.926 E1.64620
G1 X148.912 Y117.904 E2.17934
G1 X148.237 Y117.904 E2.19729
G1 X148.237 Y138.078 E2.73446
G1 E2.38446 F3600.000
;WIPE_START
G1 F14400.000
G1 X148.237 Y137.478 E2.24196
;WIPE_END
G1 E2.23446 F3600.000
G92 E0
G1 X148.237 Y149.997 F18000.000
G1 E0.54000 F2400.000
G1 F900.000
G1 X148.237 Y143.611 E0.71004
G1 X148.912 Y143.611 E0.72799
G1 X148.912 Y151.166 E0.92915
G1 X149.586 Y152.017 E0.95806
G1 X149.586 Y143.611 E1.18189
G1 X150.260 Y143.611 E1.19984
G1 X150.260 Y152.530 E1.43730
G1 X150.481 Y152.697 E1.44468
G1 X150.934 Y152.883 E1.45773
G1 X150.934 Y52.465 E4.13154
G1 X151.608 Y52.465 E4.14949
G1 X151.608 Y153.147 E6.83033
G1 X152.282 Y153.235 E6.84843
G1 X152.282 Y52.465 E9.53161
G1 X152.957 Y52.465 E9.54956
G1 X152.957 Y153.296 E12.23437
G1 X153.631 Y153.296 E12.25232
G1 X153.631 Y52.465 E14.93714
G1 X154.305 Y52.465 E14.95509
G1 X154.305 Y153.296 E17.63990
M73 P1 R125
M73 Q1 S125
G1 X154.979 Y153.296 E17.65785
G1 X154.979 Y52.465 E20.34266
M73 P1 R124
M73 Q1 S124
G1 X155.530 Y52.465 E20.35732
G1 X155.530 Y46.443 E20.51767
G1 X155.653 Y46.443 E20.52096
G1 X155.653 Y153.296 E23.36612
G1 X156.327 Y153.296 E23.38407
G1 X156.327 Y46.443 E26.22923
G1 X157.002 Y46.443 E26.24718
G1 X157.002 Y153.296 E29.09234
G1 X157.676 Y153.296 E29.11029
G1 X157.676 Y46.443 E31.95545
G1 X158.350 Y46.443 E31.97340
G1 X158.350 Y153.296 E34.81856
G1 X159.024 Y153.296 E34.83651
G1 X159.024 Y46.443 E37.68167
G1 X159.698 Y46.443 E37.69962
G1 X159.698 Y153.296 E40.54478
G1 X160.372 Y153.296 E40.56273
G1 X160.372 Y46.443 E43.40789
M73 P1 R123
M73 Q1 S123
G1 X161.046 Y46.443 E43.42584
G1 X161.046 Y153.448 E46.27504
G1 E45.92504 F3600.000
;WIPE_START
G1 F14400.000
G1 X161.046 Y152.848 E45.78254
;WIPE_END
G1 E45.77504 F3600.000
G92 E0
G1 X204.193 Y138.078 F18000.000
M73 P2 R123
M73 Q2 S123
G1 E0.54000 F2400.000
G1 F900.000
G1 X204.193 Y61.814 E2.57067
G1 X204.867 Y61.814 E2.58862
G1 X204.867 Y137.926 E4.61525
G1 X205.541 Y137.926 E4.63320
G1 X205.541 Y61.814 E6.65983
G1 X206.215 Y61.814 E6.67778
G1 X206.215 Y88.847 E7.39760
G1 X205.934 Y88.847 E7.40508
G1 X205.934 Y110.892 E7.99208
G1 X206.215 Y110.892 E7.99956
G1 X206.215 Y138.078 E8.72342
G1 E8.37342 F3600.000
;WIPE_START
G1 F14400.000
G1 X206.215 Y137.478 E8.23092
;WIPE_END
G1 E8.22342 F3600.000
G92 E0
G1 X206.215 Y149.997 F18000.000
G1 E0.54000 F2400.000
G1 F900.000
G1 X206.215 Y143.611 E0.71004
G1 X205.541 Y143.611 E0.72799
G1 X205.541 Y151.166 E0.92915
G1 X204.867 Y152.017 E0.95806
G1 X204.867 Y143.611 E1.18189
G1 X204.193 Y143.611 E1.19984
G1 X204.193 Y152.530 E1.43730
G1 X203.972 Y152.697 E1.44469
G1 X203.518 Y152.883 E1.45773
G1 X203.519 Y52.465 E4.13154
G1 X202.844 Y52.465 E4.14949
G1 X202.844 Y153.147 E6.83033
G1 X202.170 Y153.235 E6.84843
G1 X202.170 Y52.465 E9.53161
G1 X201.496 Y52.465 E9.54956
G1 X201.496 Y153.296 E12.23437
G1 X200.822 Y153.296 E12.25233
G1 X200.822 Y52.465 E14.93714
M73 P2 R122
M73 Q2 S122
G1 X200.148 Y52.465 E14.95509
G1 X200.148 Y153.296 E17.63990
G1 X199.474 Y153.296 E17.65785
G1 X199.474 Y52.465 E20.34266
G1 X198.923 Y52.465 E20.35733
G1 X198.923 Y46.443 E20.51767
G1 X198.799 Y46.443 E20.52096
G1 X198.799 Y153.296 E23.36612
M73 P3 R122
M73 Q3 S122
G1 X198.125 Y153.296 E23.38407
G1 X198.125 Y46.443 E26.22923
G1 X197.451 Y46.443 E26.24718
G1 X197.451 Y153.296 E29.09234
G1 X196.777 Y153.296 E29.11029
G1 X196.777 Y46.443 E31.95545
G1 X196.103 Y46.443 E31.97340
G1 X196.103 Y153.296 E34.81856
G1 X195.429 Y153.296 E34.83651
G1 X195.429 Y46.443 E37.68167
M73 P3 R121
M73 Q3 S121
G1 X194.754 Y46.443 E37.69962
G1 X194.754 Y153.296 E40.54478
G1 X194.080 Y153.296 E40.56273
G1 X194.080 Y46.443 E43.40789
G1 X193.406 Y46.443 E43.42584
G1 X193.406 Y153.296 E46.27100
G1 X192.732 Y153.296 E46.28895
G1 X192.732 Y143.611 E46.54682
G1 X192.058 Y143.611 E46.56478
G1 X192.058 Y153.296 E46.82265
G1 X191.384 Y153.296 E46.84060
G1 X191.384 Y143.611 E47.09848
G1 X190.709 Y143.611 E47.11643
G1 X190.709 Y153.296 E47.37431
G1 X190.035 Y153.296 E47.39226
G1 X190.035 Y143.611 E47.65013
G1 X189.361 Y143.611 E47.66809
G1 X189.361 Y153.296 E47.92596
G1 X188.687 Y153.296 E47.94391
G1 X188.687 Y143.611 E48.20179
G1 X188.013 Y143.611 E48.21974
G1 X188.013 Y153.296 E48.47762
G1 X187.339 Y153.296 E48.49557
G1 X187.339 Y143.611 E48.75344
G1 X186.665 Y143.611 E48.77140
G1 X186.665 Y153.296 E49.02927
G1 X185.990 Y153.296 E49.04722
G1 X185.990 Y143.611 E49.30510
G1 X185.316 Y143.611 E49.32305
G1 X185.316 Y153.296 E49.58093
G1 X184.642 Y153.296 E49.59888
G1 X184.642 Y143.611 E49.85675
G1 X183.968 Y143.611 E49.87470
G1 X183.968 Y153.296 E50.13258
G1 X183.294 Y153.296 E50.15053
G1 X183.294 Y143.611 E50.40841
G1 X182.620 Y143.611 E50.42636
G1 X182.620 Y153.296 E50.68424
G1 X181.945 Y153.296 E50.70219
G1 X181.945 Y143.611 E50.96006
G1 X181.271 Y143.611 E50.97801
G1 X181.271 Y153.296 E51.23589
G1 X180.597 Y153.296 E51.25384
G1 X180.597 Y143.611 E51.51172
G1 X179.923 Y143.611 E51.52967
G1 X179.923 Y153.296 E51.78755
G1 X179.249 Y153.296 E51.80550
G1 X179.249 Y143.611 E52.06337
G1 X178.575 Y143.611 E52.08132
G1 X178.575 Y153.296 E52.33920
M73 P4 R121
M73 Q4 S121
G1 X177.900 Y153.296 E52.35715
G1 X177.900 Y143.611 E52.61503
G1 X177.226 Y143.611 E52.63298
G1 X177.226 Y153.296 E52.89086
G1 X176.552 Y153.296 E52.90881
G1 X176.552 Y143.611 E53.16668
G1 X175.878 Y143.611 E53.18463
G1 X175.878 Y153.296 E53.44251
G1 X175.204 Y153.296 E53.46046
G1 X175.204 Y143.611 E53.71834
G1 X174.530 Y143.611 E53.73629
G1 X174.530 Y153.296 E53.99417
G1 X173.855 Y153.296 E54.01212
G1 X173.855 Y143.611 E54.26999
G1 X173.181 Y143.611 E54.28794
G1 X173.181 Y153.296 E54.54582
G1 X172.507 Y153.296 E54.56377
G1 X172.507 Y143.611 E54.82165
G1 X171.833 Y143.611 E54.83960
G1 X171.833 Y153.296 E55.09748
G1 X171.159 Y153.296 E55.11543
G1 X171.159 Y143.611 E55.37330
G1 X170.485 Y143.611 E55.39125
G1 X170.485 Y153.296 E55.64913
G1 X169.811 Y153.296 E55.66708
G1 X169.811 Y143.611 E55.92496
G1 X169.136 Y143.611 E55.94291
G1 X169.136 Y153.296 E56.20079
G1 X168.462 Y153.296 E56.21874
G1 X168.462 Y143.611 E56.47661
G1 X167.788 Y143.611 E56.49456
G1 X167.788 Y153.296 E56.75244
G1 X167.114 Y153.296 E56.77039
G1 X167.114 Y143.611 E57.02827
G1 X166.440 Y143.611 E57.04622
G1 X166.440 Y153.296 E57.30410
G1 X165.766 Y153.296 E57.32205
G1 X165.766 Y143.611 E57.57992
G1 X165.091 Y143.611 E57.59787
G1 X165.091 Y153.296 E57.85575
G1 X164.417 Y153.296 E57.87370
G1 X164.417 Y143.611 E58.13158
G1 X163.743 Y143.611 E58.14953
G1 X163.743 Y153.296 E58.40741
G1 X163.069 Y153.296 E58.42536
G1 X163.069 Y143.611 E58.68323
G1 X162.395 Y143.611 E58.70118
G1 X162.395 Y153.296 E58.95906
G1 X161.721 Y153.296 E58.97701
G1 X161.721 Y143.611 E59.23489
G1 X161.530 Y143.611 E59.23997
G1 X161.530 Y74.825 E61.07155
M73 P4 R120
M73 Q4 S120
G1 X161.721 Y74.825 E61.07664
G1 X161.721 Y46.443 E61.83234
G1 X162.395 Y46.443 E61.85030
G1 X162.395 Y74.825 E62.60600
G1 X163.069 Y74.825 E62.62395
G1 X163.069 Y46.443 E63.37966
G1 X163.743 Y46.443 E63.39761
G1 X163.743 Y74.825 E64.15332
G1 X164.417 Y74.825 E64.17127
G1 X164.417 Y46.443 E64.92698
G1 X165.091 Y46.443 E64.94493
G1 X165.091 Y74.825 E65.70064
G1 X165.766 Y74.825 E65.71859
G1 X165.766 Y46.443 E66.47430
G1 X166.440 Y46.443 E66.49225
G1 X166.440 Y74.825 E67.24796
G1 X167.114 Y74.825 E67.26591
G1 X167.114 Y46.443 E68.02162
G1 X167.788 Y46.443 E68.03957
G1 X167.788 Y74.825 E68.79528
G1 X168.462 Y74.825 E68.81323
G1 X168.462 Y46.443 E69.56894
G1 X169.136 Y46.443 E69.58689
G1 X169.136 Y74.825 E70.34260
G1 X169.811 Y74.825 E70.36055
G1 X169.811 Y46.443 E71.11625
G1 X170.485 Y46.443 E71.13421
G1 X170.485 Y74.825 E71.88991
G1 X171.159 Y74.825 E71.90786
G1 X171.159 Y46.443 E72.66357
G1 X171.833 Y46.443 E72.68152
G1 X171.833 Y74.825 E73.43723
G1 X172.507 Y74.825 E73.45518
G1 X172.507 Y46.443 E74.21089
G1 X173.181 Y46.443 E74.22884
G1 X173.181 Y74.825 E74.98455
G1 X173.856 Y74.825 E75.00250
G1 X173.856 Y46.443 E75.75821
G1 X174.530 Y46.443 E75.77616
G1 X174.530 Y74.825 E76.53187
G1 X175.204 Y74.825 E76.54982
G1 X175.204 Y46.443 E77.30553
G1 X175.878 Y46.443 E77.32348
G1 X175.878 Y74.825 E78.07919
G1 X176.552 Y74.825 E78.09714
G1 X176.552 Y46.443 E78.85285
G1 X177.226 Y46.443 E78.87080
G1 X177.226 Y74.825 E79.62651
G1 X177.900 Y74.825 E79.64446
G1 X177.900 Y46.443 E80.40016
G1 X178.575 Y46.443 E80.41812
G1 X178.575 Y74.825 E81.17382
G1 X179.249 Y74.825 E81.19177
G1 X179.249 Y46.443 E81.94748
G1 X179.923 Y46.443 E81.96543
G1 X179.923 Y74.825 E82.72114
M73 P5 R120
M73 Q5 S120
G1 X180.597 Y74.825 E82.73909
G1 X180.597 Y46.443 E83.49480
G1 X181.271 Y46.443 E83.51275
G1 X181.271 Y74.825 E84.26846
M73 P5 R119
M73 Q5 S119
G1 X181.945 Y74.825 E84.28641
G1 X181.945 Y46.443 E85.04212
G1 X182.620 Y46.443 E85.06007
G1 X182.620 Y74.825 E85.81578
G1 X183.294 Y74.825 E85.83373
G1 X183.294 Y46.443 E86.58944
G1 X183.968 Y46.443 E86.60739
G1 X183.968 Y74.825 E87.36310
G1 X184.642 Y74.825 E87.38105
G1 X184.642 Y46.443 E88.13676
G1 X185.316 Y46.443 E88.15471
G1 X185.316 Y74.825 E88.91042
G1 X185.990 Y74.825 E88.92837
G1 X185.990 Y46.443 E89.68407
G1 X186.665 Y46.443 E89.70203
G1 X186.665 Y74.825 E90.45773
G1 X187.339 Y74.825 E90.47568
G1 X187.339 Y46.443 E91.23139
G1 X188.013 Y46.443 E91.24934
G1 X188.013 Y74.825 E92.00505
G1 X188.687 Y74.825 E92.02300
G1 X188.687 Y46.443 E92.77871
G1 X189.361 Y46.443 E92.79666
G1 X189.361 Y74.825 E93.55237
G1 X190.035 Y74.825 E93.57032
G1 X190.035 Y46.443 E94.32603
G1 X190.709 Y46.443 E94.34398
G1 X190.709 Y74.825 E95.09969
G1 X191.384 Y74.825 E95.11764
G1 X191.384 Y46.443 E95.87335
G1 X192.058 Y46.443 E95.89130
G1 X192.058 Y74.825 E96.64701
G1 X192.732 Y74.825 E96.66496
G1 X192.732 Y46.292 E97.42471
G1 E97.07471 F3600.000
;WIPE_START
G1 F14400.000
G1 X192.732 Y46.892 E96.93220
;WIPE_END
G1 E96.92471 F3600.000
G92 E0
G1 X203.283 Y45.114 F18000.000
G1 E0.54000 F2400.000
;TYPE:Perimeter
;WIDTH:0.4
G1 F2700.000
G1 X204.734 Y45.709 E0.58425
G1 X205.982 Y46.657 E0.62844
G1 X206.941 Y47.894 E0.67259
G1 X207.544 Y49.336 E0.71669
G1 X207.740 Y50.811 E0.75866
G1 X207.740 Y148.929 E3.52624
G1 X207.544 Y150.404 E3.56821
G1 X206.941 Y151.846 E3.61231
G1 X205.982 Y153.083 E3.65646
G1 X204.734 Y154.031 E3.70065
G1 X203.283 Y154.626 E3.74490
G1 X201.799 Y154.819 E3.78711
G1 X152.654 Y154.819 E5.17332
G1 X151.170 Y154.626 E5.21554
G1 X149.719 Y154.031 E5.25978
G1 X148.471 Y153.083 E5.30398
G1 X147.512 Y151.846 E5.34812
G1 X146.908 Y150.404 E5.39222
G1 X146.712 Y148.929 E5.43419
G1 X146.712 Y50.811 E8.20177
G1 X146.908 Y49.336 E8.24374
G1 X147.512 Y47.894 E8.28784
G1 X148.471 Y46.657 E8.33199
G1 X149.719 Y45.709 E8.37618
G1 X151.170 Y45.114 E8.42043
G1 X152.654 Y44.921 E8.46264
G1 X201.799 Y44.921 E9.84885
G1 X203.223 Y45.106 E9.88937
G1 E9.53937 F3600.000
;WIPE_START
G1 F14400.000
G1 X203.780 Y45.329 E9.39687
;WIPE_END
G1 E9.38937 F3600.000
G92 E0
G1 X203.177 Y45.460 F18000.000
G1 E0.54000 F2400.000
G1 F2700.000
G1 X204.555 Y46.022 E0.58198
G1 X205.728 Y46.913 E0.62353
G1 X206.630 Y48.075 E0.66502
G1 X207.196 Y49.430 E0.70645
G1 X207.383 Y50.835 E0.74642
G1 X207.383 Y148.905 E3.51266
G1 X207.196 Y150.309 E3.55262
G1 X206.630 Y151.664 E3.59405
G1 X205.728 Y152.827 E3.63554
G1 X204.555 Y153.718 E3.67709
G1 X203.190 Y154.277 E3.71871
G1 X201.775 Y154.462 E3.75895
G1 X152.677 Y154.462 E5.14385
G1 X151.262 Y154.277 E5.18410
G1 X149.897 Y153.718 E5.22571
G1 X148.724 Y152.827 E5.26726
G1 X147.823 Y151.664 E5.30875
G1 X147.256 Y150.309 E5.35018
G1 X147.069 Y148.905 E5.39015
G1 X147.069 Y50.835 E8.15639
G1 X147.256 Y49.430 E8.19636
G1 X147.823 Y48.075 E8.23778
G1 X148.724 Y46.913 E8.27927
G1 X149.897 Y46.022 E8.32082
G1 X151.262 Y45.462 E8.36243
G1 X152.677 Y45.278 E8.40268
G1 X201.775 Y45.278 E9.78758
G1 X203.117 Y45.453 E9.82576
G1 E9.47576 F3600.000
;WIPE_START
G1 F14400.000
G1 X203.675 Y45.673 E9.33326
;WIPE_END
G1 E9.32576 F3600.000
G92 E0
G1 X203.071 Y45.807 F18000.000
G1 E0.54000 F2400.000
;TYPE:External perimeter
G1 F1350.000
G1 X204.377 Y46.334 E0.57971
G1 X205.475 Y47.169 E0.61862
G1 X206.318 Y48.257 E0.65745
G1 X206.849 Y49.524 E0.69620
G1 X207.026 Y50.858 E0.73417
G1 X207.026 Y148.881 E3.49908
G1 X206.849 Y150.215 E3.53704
G1 X206.318 Y151.483 E3.57580
G1 X205.475 Y152.571 E3.61463
G1 X204.377 Y153.405 E3.65353
G1 X203.098 Y153.929 E3.69251
G1 X201.752 Y154.105 E3.73079
G1 X152.700 Y154.105 E5.11439
G1 X151.355 Y153.929 E5.15266
G1 X150.076 Y153.405 E5.19164
G1 X148.978 Y152.571 E5.23055
G1 X148.134 Y151.483 E5.26938
G1 X147.604 Y150.215 E5.30814
G1 X147.426 Y148.881 E5.34610
G1 X147.426 Y50.858 E8.11100
M73 P5 R118
M73 Q5 S118
G1 X147.604 Y49.524 E8.14897
G1 X148.134 Y48.257 E8.18773
G1 X148.978 Y47.169 E8.22656
G1 X150.076 Y46.334 E8.26546
G1 X151.355 Y45.810 E8.30444
G1 X152.700 Y45.635 E8.34272
G1 X201.752 Y45.635 E9.72631
G1 X203.012 Y45.799 E9.76214
G1 X203.353 Y45.523 F18000.000
G1 E9.41214 F3600.000
;WIPE_START
G1 F14400.000
G1 X203.570 Y46.018 E9.26964
;WIPE_END
G1 E9.26214 F3600.000
G92 E0
G1 X206.168 Y41.329 F18000.000
G1 E0.54000 F2400.000
;TYPE:Perimeter
G1 F2700.000
G1 X210.412 Y45.530 E0.70843
G1 X210.412 Y154.210 E3.77395
G1 X206.168 Y158.411 E3.94238
G1 X148.284 Y158.411 E5.57509
G1 X144.040 Y154.210 E5.74352
G1 X144.040 Y45.530 E8.80904
M73 P6 R118
M73 Q6 S118
G1 X148.284 Y41.329 E8.97747
G1 X206.108 Y41.329 E10.60849
G1 E10.25849 F3600.000
;WIPE_START
G1 F14400.000
G1 X206.537 Y41.748 E10.11599
;WIPE_END
G1 E10.10849 F3600.000
G92 E0
G1 X206.315 Y40.972 F18000.000
G1 E0.54000 F2400.000
G1 F2700.000
G1 X210.769 Y45.381 E0.71678
G1 X210.769 Y154.359 E3.79070
G1 X206.315 Y158.768 E3.96748
G1 X148.138 Y158.768 E5.60847
G1 X143.683 Y154.359 E5.78524
G1 X143.683 Y45.381 E8.85916
G1 X148.138 Y40.972 E9.03594
G1 X206.255 Y40.972 E10.67524
