; generated by PrusaSlicer 2.3.0+win64 on 2021-03-14 at 11:37:01 UTC

; 

; external perimeters extrusion width = 0.40mm
; perimeters extrusion width = 0.40mm
; infill extrusion width = 0.40mm
; solid infill extrusion width = 0.40mm
; top infill extrusion width = 0.40mm

M73 P0 R36
M73 Q0 S36
M201 X500 Y500 Z100 E5000 ; sets maximum accelerations, mm/sec^2
M203 X500 Y500 Z10 E60 ; sets maximum feedrates, mm/sec
M204 P500 R1000 T500 ; sets acceleration (P, T) and retract acceleration (R), mm/sec^2
M205 X8.00 Y8.00 Z0.40 E5.00 ; sets the jerk limits, mm/sec
M205 S0 T0 ; sets the minimum extruding and travel feed rate, mm/sec
M107
;TYPE:Custom
G90 ; use absolute coordinates
M83 ; extruder relative mode
M104 S200 ; set extruder temp
M140 S50 ; set bed temp
M190 S50 ; wait for bed temp
M109 S200 ; wait for extruder temp
M204 S600 ;acceleration
M220 S100 ;Reset Feedrate
M221 S100 ;Reset Flowrate
G28 ; home all
G29
G1 Z2 F240
G1 X2 Y10 F3000
G1 Z0.28 F240
G92 E0.0
G1 Y190 E15.0 F1500.0 ; intro line
G1 X2.3 F5000
G1 Y10 E30 F1200.0 ; intro line
G92 E0.0
G21 ; set units to millimeters
G90 ; use absolute coordinates
M82 ; use absolute distances for extrusion
G92 E0
; Filament gcode
;LAYER_CHANGE
;Z:0.2
;HEIGHT:0.2
;BEFORE_LAYER_CHANGE
M117 INDICATOR-Layer1
;0.2


G1 E-0.50000 F3600.000
G92 E0
G1 Z0.200 F18000.000
;AFTER_LAYER_CHANGE
;0.2
G1 X108.611 Y101.597
G1 E0.54000 F2400.000
;TYPE:Perimeter
;WIDTH:0.4
G1 F180.000
G1 X108.800 Y102.053 E0.55464
G1 X108.985 Y102.293 E0.56365
G1 X109.367 Y102.587 E0.57795
G1 X109.063 Y102.721 E0.58781
G1 X108.770 Y102.969 E0.59921
G1 X108.621 Y103.181 E0.60691
G1 X108.417 Y102.895 E0.61736
G1 X108.101 Y102.627 E0.62967
G1 X107.944 Y102.561 E0.63471
G1 X108.201 Y102.364 E0.64432
G1 X108.402 Y102.102 E0.65412
G1 X108.588 Y101.653 E0.66857
G1 E0.31857 F3600.000
;WIPE_START
G1 F14400.000
G1 X108.800 Y102.053 E0.21110
G1 X108.890 Y102.170 E0.17607
;WIPE_END
G1 E0.16857 F3600.000
G92 E0
G1 X106.689 Y102.575 F18000.000
G1 E0.54000 F2400.000
G1 F180.000
G1 X106.499 Y102.671 E0.54633
G1 X106.088 Y103.060 E0.56313
G1 X105.980 Y102.870 E0.56962
G1 X105.586 Y102.541 E0.58487
G1 X105.738 Y102.434 E0.59040
G1 X105.963 Y102.165 E0.60081
G1 X106.109 Y101.850 E0.61110
G1 X106.213 Y102.102 E0.61920
G1 X106.414 Y102.364 E0.62899
G1 X106.641 Y102.538 E0.63748
G1 E0.28748 F3600.000
;WIPE_START
G1 F14400.000
G1 X106.499 Y102.671 E0.24120
G1 X106.205 Y102.950 E0.14498
;WIPE_END
G1 E0.13748 F3600.000
G92 E0
G1 X111.967 Y117.138 F18000.000
G1 E0.54000 F2400.000
G1 F180.000
G1 X112.710 Y116.940 E0.56285
M73 P1 R36
M73 Q1 S36
G1 X113.300 Y117.144 E0.58137
G1 X113.300 Y117.297 E0.58590
G1 X112.710 Y117.502 E0.60442
G1 X111.967 Y117.303 E0.62727
G1 X111.967 Y117.198 E0.63038
G1 E0.28038 F3600.000
;WIPE_START
G1 F14400.000
G1 X112.533 Y117.001 E0.13788
;WIPE_END
G1 E0.13038 F3600.000
G92 E0
G1 X122.981 Y107.462 F18000.000
G1 E0.54000 F2400.000
G1 F180.000
G1 X122.777 Y106.873 E0.55852
G1 X122.975 Y106.130 E0.58137
G1 X123.140 Y106.130 E0.58626
G1 X123.339 Y106.873 E0.60911
G1 X123.134 Y107.462 E0.62763
G1 X123.041 Y107.462 E0.63038
G1 E0.28038 F3600.000
;WIPE_START
G1 F14400.000
G1 X122.796 Y106.915 E0.13788
;WIPE_END
G1 E0.13038 F3600.000
G92 E0
G1 X109.214 Y100.081 F18000.000
G1 E0.54000 F2400.000
G1 F180.000
G1 X109.045 Y100.151 E0.54540
G1 X108.730 Y100.393 E0.55720
G1 X108.620 Y100.537 E0.56257
G1 X108.456 Y100.322 E0.57058
G1 X108.079 Y100.033 E0.58469
G1 X108.244 Y99.907 E0.59087
G1 X108.454 Y99.633 E0.60111
G1 X108.611 Y99.253 E0.61332
G1 X108.772 Y99.640 E0.62574
G1 X109.171 Y100.039 E0.64251
G1 E0.29251 F3600.000
;WIPE_START
G1 F14400.000
G1 X109.045 Y100.151 E0.25251
G1 X108.730 Y100.393 E0.15813
G1 X108.710 Y100.420 E0.15001
;WIPE_END
G1 E0.14251 F3600.000
G92 E0
G1 X106.537 Y100.033 F18000.000
G1 E0.54000 F2400.000
G1 F180.000
G1 X106.110 Y100.360 E0.55597
G1 X106.027 Y100.252 E0.56000
G1 X105.760 Y100.048 E0.56999
G1 X106.120 Y99.579 E0.58753
G1 X106.372 Y99.907 E0.59979
G1 X106.489 Y99.997 E0.60418
G1 E0.25418 F3600.000
;WIPE_START
G1 F14400.000
G1 X106.110 Y100.360 E0.12939
G1 X106.065 Y100.301 E0.11168
;WIPE_END
G1 E0.10418 F3600.000
G92 E0
G1 X125.624 Y111.495 F18000.000
G1 E0.54000 F2400.000
G1 F180.000
G1 X125.808 Y111.483 E0.54548
G1 X126.018 Y111.497 E0.55174
G1 X126.020 Y111.696 E0.55764
G1 X125.845 Y111.711 E0.56284
G1 X125.624 Y111.696 E0.56943
G1 X125.624 Y111.555 E0.57361
G1 E0.22361 F3600.000
;WIPE_START
G1 F14400.000
G1 X125.808 Y111.483 E0.17664
G1 X126.018 Y111.497 E0.12658
G1 X126.020 Y111.689 E0.08111
;WIPE_END
G1 E0.07361 F3600.000
G92 E0
G1 X120.384 Y107.095 F18000.000
G1 E0.54000 F2400.000
G1 F180.000
G1 X120.231 Y107.095 E0.54453
G1 X120.150 Y106.859 E0.55193
G1 X120.225 Y106.577 E0.56059
G1 X120.390 Y106.577 E0.56548
G1 X120.465 Y106.859 E0.57415
G1 X120.403 Y107.038 E0.57977
G1 E0.22977 F3600.000
;WIPE_START
G1 F14400.000
G1 X120.231 Y107.095 E0.18669
G1 X120.150 Y106.859 E0.12753
G1 X120.194 Y106.695 E0.08727
;WIPE_END
G1 E0.07977 F3600.000
G92 E0
G1 X117.715 Y106.859 F18000.000
G1 E0.54000 F2400.000
G1 F180.000
G1 X117.506 Y107.470 E0.55917
G1 X117.352 Y107.469 E0.56374
G1 X117.151 Y106.857 E0.58285
G1 X117.350 Y106.109 E0.60583
G1 X117.515 Y106.109 E0.61072
G1 X117.700 Y106.801 E0.63197
G1 E0.28197 F3600.000
;WIPE_START
G1 F14400.000
G1 X117.533 Y107.377 E0.13947
;WIPE_END
G1 E0.13197 F3600.000
G92 E0
G1 X113.306 Y111.515 F18000.000
G1 E0.54000 F2400.000
G1 F180.000
G1 X113.307 Y111.669 E0.54457
G1 X112.696 Y111.878 E0.56374
G1 X111.947 Y111.678 E0.58677
G1 X111.947 Y111.513 E0.59166
G1 X112.695 Y111.313 E0.61465
G1 X113.249 Y111.496 E0.63197
G1 E0.28197 F3600.000
;WIPE_START
G1 F14400.000
G1 X113.307 Y111.669 E0.23869
G1 X112.912 Y111.804 E0.13947
;WIPE_END
G1 E0.13197 F3600.000
G92 E0
G1 X112.696 Y114.313 F18000.000
G1 E0.54000 F2400.000
G1 F180.000
G1 X112.932 Y114.394 E0.54740
G1 X112.932 Y114.547 E0.55193
G1 X112.697 Y114.628 E0.55933
G1 X112.414 Y114.553 E0.56801
G1 X112.414 Y114.388 E0.57289
G1 X112.638 Y114.328 E0.57977
G1 E0.22977 F3600.000
;WIPE_START
G1 F14400.000
G1 X112.932 Y114.394 E0.15834
G1 X112.932 Y114.547 E0.12207
G1 X112.794 Y114.595 E0.08727
;WIPE_END
G1 E0.07977 F3600.000
G92 E0
G1 X117.332 Y119.786 F18000.000
G1 E0.54000 F2400.000
G1 F180.000
G1 X117.533 Y119.786 E0.54595
G1 X117.533 Y120.155 E0.55689
G1 X117.332 Y120.155 E0.56284
G1 X117.329 Y119.846 E0.57200
G1 E0.22200 F3600.000
;WIPE_START
G1 F14400.000
G1 X117.533 Y119.786 E0.17139
G1 X117.533 Y120.155 E0.08394
G1 X117.514 Y120.155 E0.07949
;WIPE_END
G1 E0.07200 F3600.000
G92 E0
G1 X129.422 Y108.856 F18000.000
G1 E0.54000 F2400.000
G1 F2700.000
G1 X129.417 Y118.503 E0.82644
G1 X129.320 Y119.971 E0.87010
G1 X129.418 Y121.439 E0.91379
G1 X129.425 Y123.588 E0.97760
G1 X127.276 Y123.580 E1.04142
G1 X125.808 Y123.483 E1.08510
G1 X124.341 Y123.580 E1.12876
G1 X114.690 Y123.585 E1.41529
G1 X114.698 Y121.439 E1.47901
G1 X114.795 Y119.971 E1.52269
G1 X114.698 Y118.503 E1.56635
G1 X114.694 Y108.856 E1.85278
G1 X124.341 Y108.861 E2.13921
G1 X125.845 Y108.961 E2.18398
G1 X126.757 Y108.883 E2.21117
G1 X127.796 Y108.857 E2.24201
G1 X129.362 Y108.856 E2.28851
G1 E1.93851 F3600.000
;WIPE_START
G1 F14400.000
G1 X129.365 Y109.456 E1.79601
;WIPE_END
G1 E1.78851 F3600.000
G92 E0
G1 X117.065 Y109.213 F18000.000
G1 E0.54000 F2400.000
G1 F180.000
G1 X117.065 Y111.228 E0.59980
G1 X115.051 Y111.228 E0.65961
G1 X115.051 Y109.213 E0.71941
G1 X117.005 Y109.213 E0.77743
G1 E0.42743 F3600.000
;WIPE_START
G1 F14400.000
G1 X117.023 Y109.813 E0.28493
;WIPE_END
G1 E0.27743 F3600.000
G92 E0
G1 X116.708 Y109.571 F18000.000
G1 E0.54000 F2400.000
;TYPE:External perimeter
G1 F180.000
G1 X116.708 Y110.871 E0.57860
G1 X115.408 Y110.871 E0.61720
G1 X115.408 Y109.571 E0.65580
G1 X116.648 Y109.571 E0.69261
G1 X117.094 Y109.467 F18000.000
G1 E0.34261 F3600.000
;WIPE_START
G1 F14400.000
G1 X116.675 Y110.170 E0.20011
;WIPE_END
G1 E0.19261 F3600.000
G92 E0
G1 X117.801 Y109.213 F18000.000
G1 E0.54000 F2400.000
;TYPE:Perimeter
G1 F180.000
G1 X120.065 Y109.213 E0.60723
G1 X120.065 Y111.228 E0.66703
G1 X117.801 Y111.228 E0.73425
G1 X117.801 Y109.273 E0.79228
G1 E0.44228 F3600.000
;WIPE_START
G1 F14400.000
G1 X118.400 Y109.258 E0.29978
;WIPE_END
G1 E0.29228 F3600.000
G92 E0
G1 X118.158 Y109.571 F18000.000
G1 E0.54000 F2400.000
;TYPE:External perimeter
G1 F180.000
G1 X119.708 Y109.571 E0.58602
G1 X119.708 Y110.871 E0.62462
G1 X118.158 Y110.871 E0.67064
M73 P2 R36
M73 Q2 S36
G1 X118.158 Y109.631 E0.70746
G1 X118.043 Y109.187 F18000.000
G1 E0.35746 F3600.000
;WIPE_START
G1 F14400.000
G1 X118.757 Y109.607 E0.21496
;WIPE_END
G1 E0.20746 F3600.000
G92 E0
G1 X117.801 Y111.963 F18000.000
G1 E0.54000 F2400.000
;TYPE:Perimeter
G1 F180.000
G1 X120.065 Y111.963 E0.60723
G1 X120.065 Y114.228 E0.67445
G1 X117.801 Y114.228 E0.74168
G1 X117.801 Y112.023 E0.80712
G1 E0.45712 F3600.000
;WIPE_START
G1 F14400.000
G1 X118.400 Y112.008 E0.31462
;WIPE_END
G1 E0.30712 F3600.000
G92 E0
G1 X118.158 Y112.321 F18000.000
G1 E0.54000 F2400.000
;TYPE:External perimeter
G1 F180.000
G1 X119.708 Y112.321 E0.58602
G1 X119.708 Y113.871 E0.63204
G1 X118.158 Y113.871 E0.67806
G1 X118.158 Y112.381 E0.72230
G1 X118.054 Y111.934 F18000.000
G1 E0.37230 F3600.000
;WIPE_START
G1 F14400.000
G1 X118.757 Y112.357 E0.22980
;WIPE_END
G1 E0.22230 F3600.000
G92 E0
G1 X115.051 Y111.963 F18000.000
G1 E0.54000 F2400.000
;TYPE:Perimeter
G1 F180.000
G1 X117.065 Y111.963 E0.59980
G1 X117.065 Y114.228 E0.66703
G1 X115.051 Y114.228 E0.72683
G1 X115.051 Y112.023 E0.79228
G1 E0.44228 F3600.000
;WIPE_START
G1 F14400.000
G1 X115.650 Y112.006 E0.29978
;WIPE_END
G1 E0.29228 F3600.000
G92 E0
G1 X115.408 Y112.321 F18000.000
G1 E0.54000 F2400.000
;TYPE:External perimeter
G1 F180.000
G1 X116.708 Y112.321 E0.57860
G1 X116.708 Y113.871 E0.62462
G1 X115.408 Y113.871 E0.66322
G1 X115.408 Y112.381 E0.70746
G1 X115.316 Y111.931 F18000.000
G1 E0.35746 F3600.000
;WIPE_START
G1 F14400.000
G1 X116.007 Y112.353 E0.21496
;WIPE_END
G1 E0.20746 F3600.000
G92 E0
G1 X115.051 Y114.713 F18000.000
G1 E0.54000 F2400.000
;TYPE:Perimeter
G1 F180.000
G1 X117.065 Y114.713 E0.59980
G1 X117.060 Y118.491 E0.71195
G1 X116.962 Y119.971 E0.75599
G1 X117.061 Y121.451 E0.80005
M73 P2 R35
M73 Q2 S35
G1 X117.067 Y123.228 E0.85279
G1 X115.049 Y123.228 E0.91271
G1 X115.055 Y121.451 E0.96546
G1 X115.153 Y119.971 E1.00952
G1 X115.055 Y118.491 E1.05356
G1 X115.051 Y114.773 E1.16392
G1 E0.81392 F3600.000
;WIPE_START
G1 F14400.000
G1 X115.650 Y114.756 E0.67142
;WIPE_END
G1 E0.66392 F3600.000
G92 E0
G1 X115.408 Y115.071 F18000.000
G1 E0.54000 F2400.000
;TYPE:External perimeter
G1 F180.000
G1 X116.708 Y115.071 E0.57860
G1 X116.708 Y116.871 E0.63204
G1 X115.408 Y116.871 E0.67064
G1 X115.408 Y115.131 E0.72230
G1 X115.325 Y114.679 F18000.000
G1 E0.37230 F3600.000
;WIPE_START
G1 F14400.000
G1 X116.007 Y115.103 E0.22980
;WIPE_END
G1 E0.22230 F3600.000
G92 E0
G1 X115.407 Y117.571 F18000.000
G1 E0.54000 F2400.000
G1 F180.000
G1 X116.709 Y117.571 E0.57865
G1 X116.703 Y118.478 E0.60558
M73 P3 R35
M73 Q3 S35
G1 X116.616 Y119.792 E0.64469
G1 X115.499 Y119.792 E0.67786
G1 X115.412 Y118.478 E0.71697
G1 X115.407 Y117.631 E0.74212
G1 X115.401 Y117.171 F18000.000
G1 E0.39212 F3600.000
;WIPE_START
G1 F14400.000
G1 X116.007 Y117.603 E0.24962
;WIPE_END
G1 E0.24212 F3600.000
G92 E0
G1 X115.499 Y120.149 F18000.000
G1 E0.54000 F2400.000
G1 F180.000
G1 X116.616 Y120.149 E0.57317
G1 X116.703 Y121.464 E0.61229
G1 X116.708 Y122.871 E0.65406
G1 X115.407 Y122.871 E0.69270
G1 X115.412 Y121.464 E0.73448
G1 X115.495 Y120.209 E0.77181
G1 X115.504 Y119.749 F18000.000
G1 E0.42181 F3600.000
;WIPE_START
G1 F14400.000
G1 X116.094 Y120.177 E0.27931
;WIPE_END
G1 E0.27181 F3600.000
G92 E0
G1 X117.801 Y114.713 F18000.000
G1 E0.54000 F2400.000
;TYPE:Perimeter
G1 F180.000
G1 X120.065 Y114.713 E0.60723
G1 X120.060 Y118.491 E0.71937
G1 X119.962 Y119.971 E0.76341
G1 X120.061 Y121.451 E0.80747
G1 X120.067 Y123.228 E0.86022
G1 X117.799 Y123.228 E0.92756
G1 X117.805 Y121.451 E0.98030
G1 X117.903 Y119.971 E1.02436
G1 X117.805 Y118.491 E1.06840
G1 X117.801 Y114.773 E1.17877
G1 E0.82877 F3600.000
;WIPE_START
G1 F14400.000
G1 X118.400 Y114.758 E0.68627
;WIPE_END
G1 E0.67877 F3600.000
G92 E0
G1 X118.158 Y115.071 F18000.000
G1 E0.54000 F2400.000
;TYPE:External perimeter
G1 F180.000
G1 X119.708 Y115.071 E0.58602
G1 X119.708 Y116.871 E0.63947
G1 X118.158 Y116.871 E0.68549
G1 X118.158 Y115.131 E0.73715
G1 X118.064 Y114.682 F18000.000
G1 E0.38715 F3600.000
;WIPE_START
G1 F14400.000
G1 X118.757 Y115.107 E0.24465
;WIPE_END
G1 E0.23715 F3600.000
G92 E0
G1 X118.157 Y117.571 F18000.000
G1 E0.54000 F2400.000
G1 F180.000
G1 X119.709 Y117.571 E0.58607
G1 X119.703 Y118.478 E0.61300
G1 X119.616 Y119.792 E0.65211
G1 X118.249 Y119.792 E0.69271
G1 X118.162 Y118.478 E0.73181
G1 X118.157 Y117.631 E0.75696
G1 X118.151 Y117.171 F18000.000
G1 E0.40696 F3600.000
;WIPE_START
G1 F14400.000
G1 X118.757 Y117.608 E0.26446
;WIPE_END
G1 E0.25696 F3600.000
G92 E0
G1 X118.249 Y120.149 F18000.000
G1 E0.54000 F2400.000
G1 F180.000
G1 X119.616 Y120.149 E0.58060
G1 X119.703 Y121.464 E0.61971
G1 X119.708 Y122.871 E0.66149
G1 X118.157 Y122.871 E0.70755
G1 X118.162 Y121.464 E0.74932
G1 X118.245 Y120.209 E0.78666
G1 X118.254 Y119.749 F18000.000
G1 E0.43666 F3600.000
;WIPE_START
G1 F14400.000
G1 X118.845 Y120.183 E0.29416
;WIPE_END
G1 E0.28666 F3600.000
G92 E0
G1 X129.065 Y114.713 F18000.000
G1 E0.54000 F2400.000
;TYPE:Perimeter
G1 F180.000
G1 X129.060 Y118.491 E0.65215
M73 P4 R35
M73 Q4 S35
G1 X128.962 Y119.971 E0.69619
G1 X129.061 Y121.451 E0.74025
G1 X129.067 Y123.230 E0.79305
G1 X127.288 Y123.223 E0.84586
G1 X125.808 Y123.125 E0.88992
G1 X124.328 Y123.223 E0.93396
G1 X120.549 Y123.228 E1.04616
G1 X120.555 Y121.451 E1.09891
G1 X120.653 Y119.971 E1.14296
G1 X120.555 Y118.491 E1.18700
G1 X120.551 Y114.713 E1.29915
G1 X124.328 Y114.718 E1.41130
G1 X125.848 Y114.819 E1.45655
G1 X126.777 Y114.740 E1.48422
G1 X127.800 Y114.714 E1.51461
G1 X129.005 Y114.713 E1.55037
G1 E1.20037 F3600.000
;WIPE_START
G1 F14400.000
G1 X129.014 Y115.313 E1.05787
;WIPE_END
G1 E1.05037 F3600.000
G92 E0
G1 X122.708 Y115.071 F18000.000
G1 E0.54000 F2400.000
;TYPE:External perimeter
G1 F180.000
G1 X122.708 Y116.871 E0.59344
G1 X120.908 Y116.871 E0.64689
G1 X120.908 Y115.071 E0.70033
G1 X122.648 Y115.071 E0.75200
G1 X123.094 Y114.967 F18000.000
G1 E0.40200 F3600.000
;WIPE_START
G1 F14400.000
G1 X122.668 Y115.670 E0.25950
;WIPE_END
G1 E0.25200 F3600.000
G92 E0
G1 X122.648 Y117.571 F18000.000
G1 E0.54000 F2400.000
G1 F180.000
G1 X122.709 Y117.571 E0.54181
G1 X122.703 Y118.478 E0.56874
G1 X122.616 Y119.792 E0.60784
G1 X120.999 Y119.792 E0.65586
G1 X120.912 Y118.478 E0.69497
G1 X120.907 Y117.571 E0.72190
G1 X122.588 Y117.571 E0.77181
G1 X122.669 Y117.514 F18000.000
G1 E0.42181 F3600.000
;WIPE_START
G1 F14400.000
G1 X122.709 Y117.571 E0.39310
G1 X122.706 Y118.050 E0.27931
;WIPE_END
G1 E0.27181 F3600.000
G92 E0
G1 X122.588 Y120.149 F18000.000
G1 E0.54000 F2400.000
G1 F180.000
G1 X122.616 Y120.149 E0.54085
G1 X122.703 Y121.464 E0.57997
G1 X122.708 Y122.871 E0.62174
G1 X120.907 Y122.871 E0.67523
G1 X120.912 Y121.464 E0.71700
G1 X120.999 Y120.149 E0.75612
G1 X122.528 Y120.149 E0.80150
G1 X122.596 Y120.122 F18000.000
G1 E0.45150 F3600.000
;WIPE_START
G1 F14400.000
G1 X122.616 Y120.149 E0.43045
G1 X122.650 Y120.659 E0.30900
;WIPE_END
G1 E0.30150 F3600.000
G92 E0
G1 X123.408 Y116.871 F18000.000
G1 E0.54000 F2400.000
G1 F180.000
G1 X123.408 Y115.070 E0.59350
G1 X124.315 Y115.075 E0.62042
G1 X125.629 Y115.162 E0.65953
G1 X125.629 Y116.779 E0.70755
G1 X124.315 Y116.866 E0.74666
G1 X123.468 Y116.871 E0.77180
G1 X123.008 Y116.877 F18000.000
G1 E0.42180 F3600.000
;WIPE_START
M73 P5 R35
M73 Q5 S35
G1 F14400.000
G1 X123.448 Y116.271 E0.27930
;WIPE_END
G1 E0.27180 F3600.000
G92 E0
G1 X123.464 Y117.570 F18000.000
G1 E0.54000 F2400.000
G1 F180.000
G1 X124.315 Y117.575 E0.56525
G1 X125.629 Y117.662 E0.60436
G1 X125.629 Y119.792 E0.66761
G1 X123.499 Y119.792 E0.73085
G1 X123.412 Y118.478 E0.76996
G1 X123.407 Y117.573 E0.79683
G1 X123.464 Y117.170 F18000.000
G1 E0.44683 F3600.000
