; generated by PrusaSlicer 2.3.0+win64 on 2021-03-14 at 14:24:21 UTC

; 

; external perimeters extrusion width = 0.40mm
; perimeters extrusion width = 0.40mm
; infill extrusion width = 0.40mm
; solid infill extrusion width = 0.40mm
; top infill extrusion width = 0.40mm

M73 P0 R27
M73 Q0 S27
M201 X500 Y500 Z100 E5000 ; sets maximum accelerations, mm/sec^2
M203 X500 Y500 Z10 E60 ; sets maximum feedrates, mm/sec
M204 P500 R1000 T500 ; sets acceleration (P, T) and retract acceleration (R), mm/sec^2
M205 X8.00 Y8.00 Z0.40 E5.00 ; sets the jerk limits, mm/sec
M205 S0 T0 ; sets the minimum extruding and travel feed rate, mm/sec
M107
;TYPE:Custom
G90 ; use absolute coordinates
M83 ; extruder relative mode
M104 S200 ; set extruder temp
M140 S50 ; set bed temp
M190 S50 ; wait for bed temp
M109 S200 ; wait for extruder temp
M204 S600 ;acceleration
M220 S100 ;Reset Feedrate
M221 S100 ;Reset Flowrate
G28 ; home all
G29
G1 Z2 F240
G1 X2 Y10 F3000
G1 Z0.28 F240
G92 E0.0
G1 Y190 E15.0 F1500.0 ; intro line
G1 X2.3 F5000
G1 Y10 E30 F1200.0 ; intro line
G92 E0.0
G21 ; set units to millimeters
G90 ; use absolute coordinates
M82 ; use absolute distances for extrusion
G92 E0
; Filament gcode
;LAYER_CHANGE
;Z:0.2
;HEIGHT:0.2
;BEFORE_LAYER_CHANGE
M117 INDICATOR-Layer1
;0.2


M73 P1 R26
M73 Q1 S26
G1 E-0.50000 F3600.000
G92 E0
G1 Z0.200 F18000.000
;AFTER_LAYER_CHANGE
;0.2
G1 X105.247 Y101.902
G1 E0.54000 F2400.000
;TYPE:Perimeter
;WIDTH:0.4
G1 F180.000
G1 X105.352 Y102.154 E0.54769
G1 X105.553 Y102.416 E0.55700
G1 X105.832 Y102.624 E0.56682
G1 X105.637 Y102.723 E0.57299
G1 X105.327 Y103.016 E0.58503
G1 X105.254 Y103.160 E0.58958
G1 X105.118 Y102.921 E0.59731
G1 X104.761 Y102.623 E0.61045
G1 X104.709 Y102.603 E0.61200
G1 X104.877 Y102.485 E0.61777
G1 X105.101 Y102.216 E0.62766
G1 X105.222 Y101.956 E0.63575
G1 E0.28575 F3600.000
;WIPE_START
G1 F14400.000
G1 X105.352 Y102.154 E0.22964
G1 X105.553 Y102.416 E0.15127
G1 X105.580 Y102.436 E0.14325
;WIPE_END
G1 E0.13575 F3600.000
G92 E0
G1 X122.196 Y105.344 F18000.000
G1 E0.54000 F2400.000
G1 F180.000
G1 X122.201 Y105.558 E0.54605
G1 X122.264 Y106.125 E0.56214
G1 X122.477 Y106.925 E0.58548
G1 X122.196 Y107.733 E0.60962
G1 X121.915 Y106.924 E0.63377
G1 X122.129 Y106.125 E0.65710
G1 X122.195 Y105.404 E0.67753
G1 E0.32753 F3600.000
;WIPE_START
G1 F14400.000
G1 X122.201 Y105.558 E0.29079
G1 X122.250 Y106.001 E0.18503
;WIPE_END
G1 E0.17753 F3600.000
G92 E0
G1 X124.946 Y106.919 F18000.000
G1 E0.54000 F2400.000
G1 F180.000
G1 X124.946 Y106.997 E0.54220
G1 X124.941 Y106.978 E0.54277
G1 E0.19277 F3600.000
;WIPE_START
G1 F14400.000
G1 X124.946 Y106.997 E0.18803
G1 X124.941 Y106.978 E0.18328
;WIPE_END
G1 E0.04277 F3600.000
G92 E0
G1 X126.427 Y117.275 F18000.000
G1 E0.54000 F2400.000
G1 F180.000
G1 X126.550 Y117.275 E0.54349
G1 X125.916 Y117.292 E0.56140
G1 X124.987 Y117.370 E0.58769
G1 X123.507 Y117.272 E0.62951
G1 X124.946 Y117.177 E0.67018
G1 X126.367 Y117.271 E0.71035
G1 E0.36035 F3600.000
;WIPE_START
G1 F14400.000
G1 X126.550 Y117.275 E0.31674
G1 X126.134 Y117.286 E0.21784
;WIPE_END
G1 E0.21035 F3600.000
G92 E0
G1 X122.196 Y118.583 F18000.000
G1 E0.54000 F2400.000
G1 F180.000
G1 X122.292 Y120.022 E0.58067
G1 X122.196 Y121.461 E0.62134
G1 X122.101 Y120.022 E0.66201
G1 X122.192 Y118.643 E0.70099
G1 E0.35099 F3600.000
;WIPE_START
G1 F14400.000
G1 X122.235 Y119.242 E0.20849
;WIPE_END
G1 E0.20099 F3600.000
G92 E0
G1 X112.657 Y117.272 F18000.000
G1 E0.54000 F2400.000
G1 F180.000
G1 X111.849 Y117.553 E0.56414
G1 X111.049 Y117.339 E0.58748
G1 X110.483 Y117.276 E0.60357
G1 X110.268 Y117.272 E0.60962
G1 X110.483 Y117.268 E0.61568
G1 X111.049 Y117.205 E0.63176
G1 X111.849 Y116.991 E0.65510
G1 X112.601 Y117.252 E0.67755
G1 E0.32755 F3600.000
;WIPE_START
G1 F14400.000
G1 X112.044 Y117.475 E0.18505
;WIPE_END
G1 E0.17755 F3600.000
G92 E0
G1 X111.893 Y120.014 F18000.000
G1 E0.54000 F2400.000
G1 F180.000
G1 X111.921 Y120.022 E0.54082
G1 X111.852 Y120.023 E0.54277
G1 E0.19277 F3600.000
;WIPE_START
G1 F14400.000
G1 X111.921 Y120.022 E0.17635
G1 X111.852 Y120.023 E0.15993
;WIPE_END
G1 E0.04277 F3600.000
G92 E0
G1 X107.776 Y102.665 F18000.000
G1 E0.54000 F2400.000
G1 F180.000
G1 X107.668 Y102.574 E0.54398
G1 X107.759 Y102.456 E0.54816
G1 X107.863 Y102.591 E0.55298
G1 X107.822 Y102.626 E0.55449
G1 E0.20449 F3600.000
;WIPE_START
G1 F14400.000
G1 X107.668 Y102.574 E0.16602
G1 X107.759 Y102.456 E0.13077
G1 X107.863 Y102.591 E0.09024
G1 X107.822 Y102.626 E0.07748
;WIPE_END
G1 E0.05449 F3600.000
G92 E0
G1 X107.759 Y100.588 F18000.000
G1 E0.54000 F2400.000
G1 F180.000
G1 X107.594 Y100.374 E0.54761
G1 X107.258 Y100.116 E0.55958
G1 X107.205 Y100.094 E0.56119
G1 X107.382 Y99.958 E0.56748
G1 X107.592 Y99.684 E0.57721
G1 X107.725 Y99.365 E0.58697
G1 X107.741 Y99.245 E0.59037
G1 X107.741 Y99.282 E0.59141
G1 X107.910 Y99.691 E0.60389
G1 X108.277 Y100.058 E0.61853
G1 X108.405 Y100.111 E0.62243
G1 X108.184 Y100.203 E0.62917
G1 X107.869 Y100.445 E0.64038
G1 X107.795 Y100.540 E0.64379
G1 E0.29379 F3600.000
;WIPE_START
G1 F14400.000
G1 X107.594 Y100.374 E0.23181
G1 X107.325 Y100.167 E0.15129
;WIPE_END
G1 E0.14379 F3600.000
G92 E0
G1 X105.687 Y100.094 F18000.000
G1 E0.54000 F2400.000
G1 F180.000
G1 X105.634 Y100.116 E0.54161
G1 X105.298 Y100.374 E0.55357
G1 X105.259 Y100.425 E0.55540
G1 X105.166 Y100.304 E0.55970
G1 X104.880 Y100.084 E0.56986
G1 X104.953 Y100.029 E0.57245
G1 X105.179 Y99.734 E0.58292
G1 X105.250 Y99.563 E0.58814
G1 X105.300 Y99.684 E0.59184
G1 X105.510 Y99.958 E0.60157
G1 X105.640 Y100.057 E0.60617
G1 E0.25617 F3600.000
;WIPE_START
G1 F14400.000
G1 X105.634 Y100.116 E0.24224
G1 X105.298 Y100.374 E0.14154
M73 P2 R26
M73 Q2 S26
G1 X105.259 Y100.425 E0.12615
G1 X105.227 Y100.383 E0.11367
;WIPE_END
G1 E0.10617 F3600.000
G92 E0
G1 X119.446 Y106.321 F18000.000
G1 E0.54000 F2400.000
G1 F180.000
G1 X119.604 Y106.911 E0.55723
G1 X119.445 Y107.367 E0.57086
G1 X119.289 Y106.910 E0.58449
G1 X119.431 Y106.379 E0.60001
G1 E0.25001 F3600.000
;WIPE_START
G1 F14400.000
G1 X119.604 Y106.911 E0.11712
G1 X119.591 Y106.949 E0.10751
;WIPE_END
G1 E0.10001 F3600.000
G92 E0
G1 X112.292 Y114.521 F18000.000
G1 E0.54000 F2400.000
G1 F180.000
G1 X111.835 Y114.680 E0.55364
G1 X111.245 Y114.522 E0.57086
G1 X111.835 Y114.364 E0.58808
G1 X112.235 Y114.502 E0.60001
G1 E0.25001 F3600.000
;WIPE_START
G1 F14400.000
G1 X111.835 Y114.680 E0.14605
G1 X111.678 Y114.638 E0.10751
;WIPE_END
G1 E0.10001 F3600.000
G92 E0
G1 X107.776 Y105.379 F18000.000
G1 E0.54000 F2400.000
G1 F180.000
G1 X107.428 Y105.674 E0.55287
G1 X106.943 Y105.877 E0.56770
G1 X106.431 Y105.942 E0.58225
G1 X105.904 Y105.857 E0.59731
G1 X105.429 Y105.616 E0.61233
G1 X105.278 Y105.473 E0.61822
G1 X105.001 Y105.722 E0.62872
G1 X104.501 Y105.964 E0.64439
G1 X103.956 Y106.043 E0.65994
G1 X103.426 Y105.978 E0.67499
G1 X102.935 Y105.775 E0.68998
G1 X102.515 Y105.453 E0.70490
G1 X102.193 Y105.034 E0.71981
G1 X101.991 Y104.545 E0.73471
G1 X101.922 Y104.020 E0.74967
G1 X101.994 Y103.494 E0.76465
G1 X102.205 Y102.994 E0.77993
G1 X102.549 Y102.577 E0.79519
G1 X102.598 Y102.542 E0.79689
G1 X102.487 Y102.409 E0.80178
G1 X102.294 Y101.993 E0.81471
G1 X102.225 Y101.533 E0.82784
G1 X102.281 Y101.082 E0.84066
G1 X102.452 Y100.663 E0.85341
G1 X102.727 Y100.304 E0.86617
G1 X103.012 Y100.084 E0.87633
G1 X102.940 Y100.029 E0.87892
G1 X102.713 Y99.734 E0.88939
G1 X102.571 Y99.390 E0.89989
G1 X102.522 Y99.022 E0.91037
G1 X102.571 Y98.654 E0.92085
G1 X102.713 Y98.310 E0.93135
G1 X102.940 Y98.015 E0.94182
G1 X103.261 Y97.768 E0.95325
G1 X103.661 Y97.636 E0.96515
G1 X103.946 Y97.598 E0.97326
G1 X104.315 Y97.647 E0.98374
G1 X104.658 Y97.789 E0.99423
G1 X104.953 Y98.015 E1.00471
G1 X105.179 Y98.310 E1.01518
G1 X105.250 Y98.481 E1.02040
G1 X105.300 Y98.360 E1.02410
G1 X105.510 Y98.086 E1.03383
G1 X105.812 Y97.854 E1.04455
G1 X106.253 Y97.709 E1.05765
G1 X106.747 Y97.726 E1.07159
G1 X107.109 Y97.876 E1.08264
G1 X107.382 Y98.086 E1.09237
G1 X107.592 Y98.360 E1.10210
G1 X107.725 Y98.679 E1.11186
G1 X107.741 Y98.798 E1.11525
G1 X107.741 Y98.762 E1.11629
G1 X107.910 Y98.353 E1.12877
G1 X108.277 Y97.986 E1.14341
G1 X108.686 Y97.816 E1.15590
G1 X109.206 Y97.816 E1.17058
G1 X109.615 Y97.986 E1.18306
G1 X109.982 Y98.353 E1.19770
G1 X110.152 Y98.762 E1.21018
G1 X110.152 Y99.282 E1.22487
G1 X109.982 Y99.691 E1.23735
G1 X109.615 Y100.058 E1.25199
G1 X109.488 Y100.111 E1.25589
G1 X109.708 Y100.203 E1.26263
G1 X110.024 Y100.445 E1.27384
G1 X110.266 Y100.760 E1.28505
G1 X110.418 Y101.128 E1.29628
G1 X110.470 Y101.522 E1.30750
G1 X110.418 Y101.916 E1.31872
G1 X110.266 Y102.284 E1.32996
G1 X110.038 Y102.581 E1.34050
G1 X110.236 Y102.732 E1.34752
G1 X110.526 Y103.110 E1.36096
G1 X110.708 Y103.550 E1.37439
G1 X110.770 Y104.022 E1.38782
G1 X110.708 Y104.494 E1.40125
G1 X110.526 Y104.934 E1.41467
G1 X110.236 Y105.312 E1.42811
G1 X109.857 Y105.602 E1.44157
G1 X109.415 Y105.784 E1.45504
G1 X108.939 Y105.844 E1.46858
G1 X108.460 Y105.776 E1.48223
G1 X108.010 Y105.577 E1.49611
G1 X107.822 Y105.418 E1.50307
G1 E1.15307 F3600.000
;WIPE_START
G1 F14400.000
G1 X107.428 Y105.674 E1.04146
G1 X107.308 Y105.724 E1.01057
;WIPE_END
G1 E1.00307 F3600.000
G92 E0
G1 X108.757 Y99.870 F18000.000
G1 E0.54000 F2400.000
G1 F180.000
G1 X108.480 Y99.755 E0.54848
G1 X108.213 Y99.489 E0.55911
G1 X108.098 Y99.211 E0.56759
G1 X108.098 Y98.833 E0.57826
G1 X108.213 Y98.555 E0.58673
G1 X108.480 Y98.289 E0.59737
G1 X108.757 Y98.173 E0.60585
G1 X109.135 Y98.173 E0.61652
G1 X109.413 Y98.289 E0.62499
G1 X109.680 Y98.555 E0.63563
G1 X109.795 Y98.833 E0.64411
G1 X109.795 Y99.211 E0.65478
G1 X109.680 Y99.489 E0.66325
G1 X109.413 Y99.755 E0.67389
G1 X109.135 Y99.870 E0.68237
G1 X108.817 Y99.870 E0.69135
M73 P3 R26
M73 Q3 S26
G1 E0.34135 F3600.000
;WIPE_START
G1 F14400.000
G1 X108.480 Y99.755 E0.25665
G1 X108.307 Y99.583 E0.19885
;WIPE_END
G1 E0.19135 F3600.000
G92 E0
G1 X108.828 Y99.513 F18000.000
G1 E0.54000 F2400.000
;TYPE:External perimeter
G1 F180.000
G1 X108.682 Y99.453 E0.54447
G1 X108.515 Y99.286 E0.55111
G1 X108.455 Y99.140 E0.55558
G1 X108.455 Y98.904 E0.56223
G1 X108.515 Y98.758 E0.56670
G1 X108.682 Y98.591 E0.57334
G1 X108.828 Y98.530 E0.57781
G1 X109.064 Y98.530 E0.58446
G1 X109.210 Y98.591 E0.58893
G1 X109.377 Y98.758 E0.59557
G1 X109.438 Y98.904 E0.60004
G1 X109.438 Y99.140 E0.60670
G1 X109.377 Y99.286 E0.61116
G1 X109.210 Y99.453 E0.61780
G1 X109.064 Y99.513 E0.62227
G1 X108.888 Y99.513 E0.62724
G1 X108.722 Y99.631 F18000.000
G1 E0.27724 F3600.000
;WIPE_START
G1 F14400.000
G1 X108.682 Y99.453 E0.22616
G1 X108.515 Y99.286 E0.17026
G1 X108.458 Y99.148 E0.13474
;WIPE_END
G1 E0.12724 F3600.000
G92 E0
G1 X107.377 Y99.271 F18000.000
G1 E0.54000 F2400.000
;TYPE:Perimeter
G1 F180.000
G1 X107.280 Y99.504 E0.54710
G1 X107.128 Y99.703 E0.55419
G1 X106.928 Y99.856 E0.56127
G1 X106.696 Y99.953 E0.56837
G1 X106.446 Y99.986 E0.57547
G1 X106.197 Y99.953 E0.58257
G1 X105.964 Y99.856 E0.58968
G1 X105.765 Y99.703 E0.59676
G1 X105.612 Y99.504 E0.60384
G1 X105.515 Y99.271 E0.61095
G1 X105.483 Y99.022 E0.61805
G1 X105.515 Y98.772 E0.62515
G1 X105.612 Y98.540 E0.63225
G1 X105.765 Y98.341 E0.63933
G1 X105.981 Y98.175 E0.64702
G1 X106.304 Y98.068 E0.65662
G1 X106.670 Y98.081 E0.66695
G1 X106.928 Y98.188 E0.67483
G1 X107.128 Y98.341 E0.68191
G1 X107.280 Y98.540 E0.68900
G1 X107.377 Y98.772 E0.69610
G1 X107.410 Y99.022 E0.70320
G1 X107.385 Y99.212 E0.70861
G1 E0.35861 F3600.000
;WIPE_START
G1 F14400.000
G1 X107.280 Y99.504 E0.28494
G1 X107.128 Y99.703 E0.22529
G1 X107.097 Y99.727 E0.21611
;WIPE_END
G1 E0.20861 F3600.000
G92 E0
G1 X107.031 Y99.165 F18000.000
G1 E0.54000 F2400.000
;TYPE:External perimeter
G1 F180.000
G1 X106.969 Y99.324 E0.54480
G1 X106.873 Y99.449 E0.54924
G1 X106.748 Y99.544 E0.55367
G1 X106.602 Y99.605 E0.55812
G1 X106.446 Y99.625 E0.56257
G1 X106.290 Y99.605 E0.56701
G1 X106.144 Y99.544 E0.57146
G1 X106.020 Y99.449 E0.57590
G1 X105.924 Y99.324 E0.58033
G1 X105.863 Y99.178 E0.58478
G1 X105.843 Y99.022 E0.58923
G1 X105.863 Y98.866 E0.59367
G1 X105.924 Y98.720 E0.59812
G1 X106.020 Y98.595 E0.60256
G1 X106.150 Y98.495 E0.60721
G1 X106.356 Y98.427 E0.61331
G1 X106.593 Y98.435 E0.62001
G1 X106.748 Y98.499 E0.62474
G1 X106.873 Y98.595 E0.62918
G1 X106.969 Y98.720 E0.63361
G1 X107.029 Y98.866 E0.63806
G1 X107.050 Y99.022 E0.64251
G1 X107.039 Y99.106 E0.64490
G1 X107.153 Y99.284 F18000.000
G1 E0.29490 F3600.000
;WIPE_START
G1 F14400.000
G1 X106.969 Y99.324 E0.24056
G1 X106.873 Y99.449 E0.20320
G1 X106.748 Y99.544 E0.16584
G1 X106.696 Y99.566 E0.15240
;WIPE_END
G1 E0.14490 F3600.000
G92 E0
G1 X105.010 Y99.022 F18000.000
G1 E0.54000 F2400.000
;TYPE:Perimeter
G1 F180.000
G1 X104.974 Y99.297 E0.54783
G1 X104.867 Y99.554 E0.55567
G1 X104.698 Y99.774 E0.56350
G1 X104.478 Y99.943 E0.57132
G1 X104.221 Y100.049 E0.57916
G1 X103.946 Y100.086 E0.58699
G1 X103.671 Y100.049 E0.59482
G1 X103.414 Y99.943 E0.60266
G1 X103.194 Y99.774 E0.61049
G1 X103.025 Y99.554 E0.61831
G1 X102.919 Y99.297 E0.62615
G1 X102.883 Y99.022 E0.63398
G1 X102.919 Y98.747 E0.64181
G1 X103.025 Y98.490 E0.64965
G1 X103.194 Y98.270 E0.65748
G1 X103.431 Y98.088 E0.66589
G1 X103.742 Y97.985 E0.67513
G1 X103.946 Y97.958 E0.68095
G1 X104.221 Y97.995 E0.68878
G1 X104.478 Y98.101 E0.69662
G1 X104.698 Y98.270 E0.70444
G1 X104.867 Y98.490 E0.71227
G1 X104.974 Y98.747 E0.72011
G1 X105.002 Y98.962 E0.72625
G1 E0.37625 F3600.000
;WIPE_START
G1 F14400.000
G1 X104.974 Y99.297 E0.29647
G1 X104.873 Y99.541 E0.23375
;WIPE_END
G1 E0.22625 F3600.000
G92 E0
G1 X104.648 Y99.009 F18000.000
G1 E0.54000 F2400.000
;TYPE:External perimeter
G1 F180.000
G1 X104.626 Y99.204 E0.54553
G1 X104.555 Y99.374 E0.55072
G1 X104.444 Y99.519 E0.55590
G1 X104.298 Y99.631 E0.56107
G1 X104.128 Y99.701 E0.56626
G1 X103.946 Y99.725 E0.57144
G1 X103.764 Y99.701 E0.57661
G1 X103.594 Y99.631 E0.58180
G1 X103.449 Y99.519 E0.58697
G1 X103.337 Y99.374 E0.59215
G1 X103.267 Y99.204 E0.59734
G1 X103.243 Y99.022 E0.60251
G1 X103.267 Y98.840 E0.60769
G1 X103.337 Y98.670 E0.61288
G1 X103.449 Y98.525 E0.61805
G1 X103.600 Y98.408 E0.62344
G1 X103.822 Y98.335 E0.63002
G1 X103.946 Y98.318 E0.63356
G1 X104.128 Y98.342 E0.63874
G1 X104.298 Y98.413 E0.64393
G1 X104.444 Y98.525 E0.64910
G1 X104.555 Y98.670 E0.65428
G1 X104.626 Y98.840 E0.65946
G1 X104.640 Y98.949 E0.66258
G1 X104.819 Y99.105 F18000.000
G1 E0.31258 F3600.000
;WIPE_START
G1 F14400.000
G1 X104.626 Y99.204 E0.25205
G1 X104.555 Y99.374 E0.20839
G1 X104.457 Y99.502 E0.17008
;WIPE_END
G1 E0.16258 F3600.000
G92 E0
G1 X105.249 Y101.139 F18000.000
G1 E0.54000 F2400.000
;TYPE:Perimeter
G1 F180.000
G1 X105.352 Y100.890 E0.54759
G1 X105.553 Y100.628 E0.55690
G1 X105.814 Y100.428 E0.56621
G1 X106.119 Y100.301 E0.57551
G1 X106.446 Y100.258 E0.58481
G1 X106.773 Y100.301 E0.59412
G1 X107.078 Y100.428 E0.60342
G1 X107.340 Y100.628 E0.61273
G1 X107.541 Y100.890 E0.62203
G1 X107.667 Y101.195 E0.63134
G1 X107.710 Y101.522 E0.64064
G1 X107.667 Y101.849 E0.64995
G1 X107.541 Y102.154 E0.65925
G1 X107.340 Y102.416 E0.66855
G1 X107.083 Y102.613 E0.67769
G1 X107.239 Y102.678 E0.68247
G1 X107.556 Y102.946 E0.69417
G1 X107.759 Y103.233 E0.70409
G1 X107.909 Y103.020 E0.71141
G1 X108.201 Y102.772 E0.72224
G1 X108.566 Y102.613 E0.73347
G1 X108.364 Y102.530 E0.73964
G1 X108.123 Y102.345 E0.74820
G1 X107.939 Y102.104 E0.75676
G1 X107.822 Y101.823 E0.76534
G1 X107.783 Y101.522 E0.77391
G1 X107.822 Y101.221 E0.78248
G1 X107.939 Y100.940 E0.79105
G1 X108.123 Y100.699 E0.79961
G1 X108.364 Y100.514 E0.80817
G1 X108.645 Y100.398 E0.81675
G1 X108.946 Y100.358 E0.82532
G1 X109.247 Y100.398 E0.83389
G1 X109.528 Y100.514 E0.84246
G1 X109.769 Y100.699 E0.85102
G1 X109.954 Y100.940 E0.85958
G1 X110.070 Y101.221 E0.86816
G1 X110.110 Y101.522 E0.87673
G1 X110.070 Y101.823 E0.88529
G1 X109.954 Y102.104 E0.89387
G1 X109.769 Y102.345 E0.90243
G1 X109.528 Y102.530 E0.91099
G1 X109.331 Y102.611 E0.91702
G1 X109.677 Y102.754 E0.92759
G1 X109.981 Y102.987 E0.93838
G1 X110.214 Y103.290 E0.94917
G1 X110.360 Y103.643 E0.95994
G1 X110.410 Y104.022 E0.97072
G1 X110.360 Y104.401 E0.98150
G1 X110.214 Y104.754 E0.99227
G1 X109.981 Y105.057 E1.00305
