; generated by PrusaSlicer 2.3.0+win64 on 2021-03-14 at 15:02:06 UTC

; 

; external perimeters extrusion width = 0.40mm
; perimeters extrusion width = 0.40mm
; infill extrusion width = 0.40mm
; solid infill extrusion width = 0.40mm
; top infill extrusion width = 0.40mm

M73 P0 R18
M73 Q0 S18
M201 X500 Y500 Z100 E5000 ; sets maximum accelerations, mm/sec^2
M203 X500 Y500 Z10 E60 ; sets maximum feedrates, mm/sec
M204 P500 R1000 T500 ; sets acceleration (P, T) and retract acceleration (R), mm/sec^2
M205 X8.00 Y8.00 Z0.40 E5.00 ; sets the jerk limits, mm/sec
M205 S0 T0 ; sets the minimum extruding and travel feed rate, mm/sec
M107
;TYPE:Custom
G90 ; use absolute coordinates
M83 ; extruder relative mode
M104 S200 ; set extruder temp
M140 S50 ; set bed temp
M190 S50 ; wait for bed temp
M109 S200 ; wait for extruder temp
M204 S600 ;acceleration
M220 S100 ;Reset Feedrate
M221 S100 ;Reset Flowrate
G28 ; home all
G29
G1 Z2 F240
G1 X2 Y10 F3000
G1 Z0.28 F240
G92 E0.0
G1 Y190 E15.0 F1500.0 ; intro line
G1 X2.3 F5000
G1 Y10 E30 F1200.0 ; intro line
G92 E0.0
G21 ; set units to millimeters
G90 ; use absolute coordinates
M82 ; use absolute distances for extrusion
G92 E0
; Filament gcode
;LAYER_CHANGE
;Z:0.2
;HEIGHT:0.2
;BEFORE_LAYER_CHANGE
M117 INDICATOR-Layer1
;0.2


M73 P1 R17
M73 Q1 S17
G1 E-0.50000 F3600.000
G92 E0
G1 Z0.200 F18000.000
;AFTER_LAYER_CHANGE
;0.2
G1 X105.291 Y101.999
G1 E0.54000 F2400.000
;TYPE:Perimeter
;WIDTH:0.4
G1 F1080.000
G1 X105.396 Y102.250 E0.54769
G1 X105.596 Y102.512 E0.55700
G1 X105.876 Y102.720 E0.56682
G1 X105.681 Y102.819 E0.57299
G1 X105.371 Y103.113 E0.58503
G1 X105.297 Y103.256 E0.58958
G1 X105.162 Y103.018 E0.59731
G1 X104.804 Y102.720 E0.61045
G1 X104.753 Y102.700 E0.61200
G1 X104.920 Y102.582 E0.61777
G1 X105.145 Y102.313 E0.62766
G1 X105.266 Y102.053 E0.63575
G1 E0.28575 F3600.000
;WIPE_START
G1 F14400.000
G1 X105.396 Y102.250 E0.22964
G1 X105.596 Y102.512 E0.15127
G1 X105.623 Y102.532 E0.14325
;WIPE_END
G1 E0.13575 F3600.000
G92 E0
G1 X122.240 Y105.441 F18000.000
G1 E0.54000 F2400.000
G1 F1080.000
G1 X122.244 Y105.655 E0.54605
G1 X122.307 Y106.222 E0.56214
G1 X122.521 Y107.021 E0.58548
G1 X122.240 Y107.830 E0.60962
G1 X121.959 Y107.021 E0.63377
G1 X122.173 Y106.222 E0.65710
G1 X122.239 Y105.501 E0.67753
G1 E0.32753 F3600.000
;WIPE_START
G1 F14400.000
G1 X122.244 Y105.655 E0.29079
G1 X122.293 Y106.098 E0.18503
;WIPE_END
G1 E0.17753 F3600.000
G92 E0
G1 X124.990 Y107.015 F18000.000
G1 E0.54000 F2400.000
G1 F1080.000
G1 X124.990 Y107.093 E0.54220
G1 X124.984 Y107.074 E0.54277
G1 E0.19277 F3600.000
;WIPE_START
G1 F14400.000
G1 X124.990 Y107.093 E0.18803
G1 X124.984 Y107.074 E0.18328
;WIPE_END
G1 E0.04277 F3600.000
G92 E0
G1 X126.470 Y117.371 F18000.000
G1 E0.54000 F2400.000
G1 F1080.000
G1 X126.594 Y117.372 E0.54349
G1 X125.959 Y117.388 E0.56140
G1 X125.031 Y117.467 E0.58769
G1 X123.551 Y117.369 E0.62951
G1 X124.990 Y117.273 E0.67018
G1 X126.411 Y117.367 E0.71035
G1 E0.36035 F3600.000
;WIPE_START
G1 F14400.000
G1 X126.594 Y117.372 E0.31674
G1 X126.178 Y117.383 E0.21784
;WIPE_END
G1 E0.21035 F3600.000
G92 E0
G1 X122.240 Y118.680 F18000.000
G1 E0.54000 F2400.000
G1 F1080.000
G1 X122.335 Y120.119 E0.58067
G1 X122.240 Y121.557 E0.62134
G1 X122.145 Y120.119 E0.66201
G1 X122.236 Y118.740 E0.70099
M73 P2 R17
M73 Q2 S17
G1 E0.35099 F3600.000
;WIPE_START
G1 F14400.000
G1 X122.279 Y119.338 E0.20849
;WIPE_END
G1 E0.20099 F3600.000
G92 E0
G1 X112.701 Y117.368 F18000.000
G1 E0.54000 F2400.000
G1 F1080.000
G1 X111.893 Y117.650 E0.56414
G1 X111.093 Y117.436 E0.58748
G1 X110.526 Y117.373 E0.60357
G1 X110.312 Y117.369 E0.60962
G1 X110.526 Y117.364 E0.61568
G1 X111.093 Y117.301 E0.63176
G1 X111.892 Y117.088 E0.65510
G1 X112.644 Y117.349 E0.67755
G1 E0.32755 F3600.000
;WIPE_START
G1 F14400.000
G1 X112.087 Y117.572 E0.18505
;WIPE_END
G1 E0.17755 F3600.000
G92 E0
G1 X111.937 Y120.111 F18000.000
G1 E0.54000 F2400.000
G1 F1080.000
G1 X111.965 Y120.119 E0.54082
G1 X111.896 Y120.120 E0.54277
G1 E0.19277 F3600.000
;WIPE_START
G1 F14400.000
G1 X111.965 Y120.119 E0.17635
G1 X111.896 Y120.120 E0.15993
;WIPE_END
G1 E0.04277 F3600.000
G92 E0
G1 X107.820 Y102.762 F18000.000
G1 E0.54000 F2400.000
G1 F1080.000
G1 X107.712 Y102.671 E0.54398
G1 X107.802 Y102.553 E0.54816
G1 X107.906 Y102.688 E0.55298
G1 X107.865 Y102.723 E0.55449
G1 E0.20449 F3600.000
;WIPE_START
G1 F14400.000
G1 X107.712 Y102.671 E0.16602
G1 X107.802 Y102.553 E0.13077
G1 X107.906 Y102.688 E0.09024
G1 X107.865 Y102.723 E0.07748
;WIPE_END
G1 E0.05449 F3600.000
G92 E0
G1 X107.802 Y100.685 F18000.000
G1 E0.54000 F2400.000
G1 F1080.000
G1 X107.638 Y100.470 E0.54761
G1 X107.302 Y100.212 E0.55958
G1 X107.249 Y100.191 E0.56119
G1 X107.426 Y100.055 E0.56748
G1 X107.636 Y99.781 E0.57721
G1 X107.769 Y99.461 E0.58697
G1 X107.784 Y99.342 E0.59037
G1 X107.784 Y99.379 E0.59141
G1 X107.954 Y99.788 E0.60389
G1 X108.321 Y100.155 E0.61853
G1 X108.449 Y100.208 E0.62243
G1 X108.228 Y100.299 E0.62917
G1 X107.913 Y100.541 E0.64038
G1 X107.839 Y100.637 E0.64379
G1 E0.29379 F3600.000
;WIPE_START
G1 F14400.000
G1 X107.638 Y100.470 E0.23181
G1 X107.369 Y100.264 E0.15129
;WIPE_END
G1 E0.14379 F3600.000
G92 E0
G1 X105.731 Y100.191 F18000.000
G1 E0.54000 F2400.000
G1 F1080.000
G1 X105.678 Y100.212 E0.54161
G1 X105.342 Y100.470 E0.55357
G1 X105.302 Y100.522 E0.55540
G1 X105.210 Y100.401 E0.55970
G1 X104.924 Y100.181 E0.56986
G1 X104.997 Y100.125 E0.57245
G1 X105.223 Y99.831 E0.58292
G1 X105.294 Y99.660 E0.58814
G1 X105.344 Y99.781 E0.59184
G1 X105.554 Y100.055 E0.60157
G1 X105.683 Y100.154 E0.60617
G1 E0.25617 F3600.000
;WIPE_START
G1 F14400.000
G1 X105.678 Y100.212 E0.24224
G1 X105.342 Y100.470 E0.14154
G1 X105.302 Y100.522 E0.12615
G1 X105.270 Y100.480 E0.11367
;WIPE_END
G1 E0.10617 F3600.000
G92 E0
G1 X119.490 Y106.418 F18000.000
G1 E0.54000 F2400.000
G1 F1080.000
G1 X119.648 Y107.008 E0.55723
G1 X119.489 Y107.464 E0.57086
G1 X119.332 Y107.007 E0.58449
G1 X119.474 Y106.476 E0.60001
G1 E0.25001 F3600.000
;WIPE_START
G1 F14400.000
G1 X119.648 Y107.008 E0.11712
G1 X119.634 Y107.046 E0.10751
;WIPE_END
G1 E0.10001 F3600.000
G92 E0
G1 X112.335 Y114.618 F18000.000
G1 E0.54000 F2400.000
G1 F1080.000
G1 X111.879 Y114.776 E0.55364
G1 X111.289 Y114.619 E0.57086
G1 X111.878 Y114.461 E0.58808
G1 X112.279 Y114.598 E0.60001
G1 E0.25001 F3600.000
;WIPE_START
G1 F14400.000
G1 X111.879 Y114.776 E0.14605
G1 X111.722 Y114.734 E0.10751
;WIPE_END
G1 E0.10001 F3600.000
G92 E0
G1 X107.820 Y105.476 F18000.000
G1 E0.54000 F2400.000
G1 F1080.000
G1 X107.471 Y105.771 E0.55287
G1 X106.986 Y105.974 E0.56770
G1 X106.475 Y106.039 E0.58225
G1 X105.948 Y105.954 E0.59731
G1 X105.473 Y105.713 E0.61233
G1 X105.321 Y105.569 E0.61822
G1 X105.045 Y105.819 E0.62872
G1 X104.545 Y106.061 E0.64439
G1 X103.999 Y106.140 E0.65994
G1 X103.470 Y106.075 E0.67499
G1 X102.979 Y105.872 E0.68998
G1 X102.559 Y105.550 E0.70490
G1 X102.237 Y105.130 E0.71981
G1 X102.035 Y104.642 E0.73471
G1 X101.966 Y104.116 E0.74967
G1 X102.038 Y103.590 E0.76465
G1 X102.248 Y103.091 E0.77993
G1 X102.593 Y102.674 E0.79519
G1 X102.642 Y102.639 E0.79689
G1 X102.531 Y102.506 E0.80178
G1 X102.337 Y102.090 E0.81471
G1 X102.269 Y101.630 E0.82784
G1 X102.325 Y101.179 E0.84066
G1 X102.496 Y100.760 E0.85341
G1 X102.770 Y100.401 E0.86617
G1 X103.056 Y100.181 E0.87633
G1 X102.983 Y100.125 E0.87892
G1 X102.757 Y99.831 E0.88939
G1 X102.615 Y99.487 E0.89989
G1 X102.566 Y99.119 E0.91037
G1 X102.615 Y98.750 E0.92085
G1 X102.757 Y98.406 E0.93135
G1 X102.983 Y98.112 E0.94182
G1 X103.305 Y97.865 E0.95325
G1 X103.705 Y97.732 E0.96515
G1 X103.990 Y97.695 E0.97326
G1 X104.358 Y97.743 E0.98374
G1 X104.702 Y97.886 E0.99423
G1 X104.997 Y98.112 E1.00471
G1 X105.223 Y98.406 E1.01518
G1 X105.294 Y98.577 E1.02040
G1 X105.344 Y98.456 E1.02410
G1 X105.554 Y98.183 E1.03383
G1 X105.856 Y97.951 E1.04455
G1 X106.297 Y97.806 E1.05765
G1 X106.791 Y97.823 E1.07159
G1 X107.152 Y97.973 E1.08264
G1 X107.426 Y98.183 E1.09237
G1 X107.636 Y98.456 E1.10210
G1 X107.769 Y98.776 E1.11186
G1 X107.784 Y98.895 E1.11525
G1 X107.784 Y98.858 E1.11629
G1 X107.954 Y98.450 E1.12877
G1 X108.321 Y98.083 E1.14341
G1 X108.730 Y97.913 E1.15590
G1 X109.250 Y97.913 E1.17058
G1 X109.659 Y98.083 E1.18306
G1 X110.026 Y98.450 E1.19770
G1 X110.196 Y98.858 E1.21018
G1 X110.196 Y99.379 E1.22487
G1 X110.026 Y99.788 E1.23735
G1 X109.659 Y100.155 E1.25199
G1 X109.531 Y100.208 E1.25589
G1 X109.752 Y100.299 E1.26263
G1 X110.067 Y100.541 E1.27384
G1 X110.309 Y100.856 E1.28505
G1 X110.462 Y101.224 E1.29628
G1 X110.514 Y101.619 E1.30750
G1 X110.462 Y102.013 E1.31872
G1 X110.309 Y102.381 E1.32996
G1 X110.082 Y102.677 E1.34050
G1 X110.279 Y102.829 E1.34752
G1 X110.569 Y103.207 E1.36096
G1 X110.751 Y103.647 E1.37439
G1 X110.814 Y104.119 E1.38782
G1 X110.751 Y104.591 E1.40125
G1 X110.569 Y105.030 E1.41467
G1 X110.279 Y105.409 E1.42811
G1 X109.901 Y105.699 E1.44157
G1 X109.459 Y105.881 E1.45504
G1 X108.983 Y105.941 E1.46858
G1 X108.504 Y105.873 E1.48223
G1 X108.053 Y105.674 E1.49611
G1 X107.865 Y105.515 E1.50307
G1 E1.15307 F3600.000
;WIPE_START
G1 F14400.000
G1 X107.471 Y105.771 E1.04146
G1 X107.351 Y105.821 E1.01057
;WIPE_END
G1 E1.00307 F3600.000
G92 E0
G1 X108.801 Y99.967 F18000.000
G1 E0.54000 F2400.000
G1 F1080.000
G1 X108.523 Y99.852 E0.54848
G1 X108.257 Y99.585 E0.55911
G1 X108.141 Y99.308 E0.56759
G1 X108.141 Y98.930 E0.57826
G1 X108.257 Y98.652 E0.58673
G1 X108.523 Y98.385 E0.59737
G1 X108.801 Y98.270 E0.60585
G1 X109.179 Y98.270 E0.61652
G1 X109.457 Y98.385 E0.62499
G1 X109.723 Y98.652 E0.63563
G1 X109.838 Y98.930 E0.64411
G1 X109.838 Y99.308 E0.65478
G1 X109.723 Y99.585 E0.66325
G1 X109.457 Y99.852 E0.67389
G1 X109.179 Y99.967 E0.68237
G1 X108.861 Y99.967 E0.69135
G1 E0.34135 F3600.000
;WIPE_START
G1 F14400.000
G1 X108.523 Y99.852 E0.25665
G1 X108.351 Y99.680 E0.19885
;WIPE_END
G1 E0.19135 F3600.000
G92 E0
G1 X108.872 Y99.610 F18000.000
G1 E0.54000 F2400.000
;TYPE:External perimeter
G1 F1080.000
G1 X108.726 Y99.549 E0.54447
G1 X108.559 Y99.383 E0.55111
G1 X108.498 Y99.237 E0.55558
G1 X108.498 Y99.001 E0.56223
G1 X108.559 Y98.854 E0.56670
G1 X108.726 Y98.688 E0.57334
G1 X108.872 Y98.627 E0.57781
G1 X109.108 Y98.627 E0.58446
G1 X109.254 Y98.688 E0.58893
G1 X109.421 Y98.854 E0.59557
G1 X109.481 Y99.001 E0.60004
G1 X109.481 Y99.237 E0.60670
G1 X109.421 Y99.383 E0.61116
G1 X109.254 Y99.549 E0.61780
G1 X109.108 Y99.610 E0.62227
G1 X108.932 Y99.610 E0.62724
G1 X108.766 Y99.728 F18000.000
G1 E0.27724 F3600.000
;WIPE_START
G1 F14400.000
G1 X108.726 Y99.549 E0.22616
G1 X108.559 Y99.383 E0.17026
G1 X108.502 Y99.245 E0.13474
;WIPE_END
G1 E0.12724 F3600.000
G92 E0
G1 X107.421 Y99.368 F18000.000
G1 E0.54000 F2400.000
;TYPE:Perimeter
G1 F1080.000
G1 X107.324 Y99.601 E0.54710
G1 X107.171 Y99.800 E0.55419
G1 X106.972 Y99.953 E0.56127
G1 X106.739 Y100.050 E0.56837
G1 X106.490 Y100.082 E0.57547
G1 X106.240 Y100.050 E0.58257
G1 X106.008 Y99.953 E0.58968
G1 X105.809 Y99.800 E0.59676
G1 X105.656 Y99.601 E0.60384
G1 X105.559 Y99.368 E0.61095
G1 X105.526 Y99.119 E0.61805
G1 X105.559 Y98.869 E0.62515
G1 X105.656 Y98.637 E0.63225
G1 X105.809 Y98.437 E0.63933
G1 X106.025 Y98.271 E0.64702
G1 X106.348 Y98.165 E0.65662
G1 X106.714 Y98.177 E0.66695
G1 X106.972 Y98.284 E0.67483
G1 X107.171 Y98.437 E0.68191
G1 X107.324 Y98.637 E0.68900
G1 X107.421 Y98.869 E0.69610
G1 X107.453 Y99.119 E0.70320
G1 X107.429 Y99.309 E0.70861
G1 E0.35861 F3600.000
;WIPE_START
G1 F14400.000
G1 X107.324 Y99.601 E0.28494
G1 X107.171 Y99.800 E0.22529
G1 X107.141 Y99.824 E0.21611
;WIPE_END
G1 E0.20861 F3600.000
G92 E0
G1 X107.074 Y99.262 F18000.000
G1 E0.54000 F2400.000
;TYPE:External perimeter
G1 F1080.000
G1 X107.012 Y99.421 E0.54480
G1 X106.917 Y99.545 E0.54924
G1 X106.792 Y99.641 E0.55367
G1 X106.646 Y99.702 E0.55812
G1 X106.490 Y99.722 E0.56257
G1 X106.334 Y99.702 E0.56701
G1 X106.188 Y99.641 E0.57146
G1 X106.063 Y99.545 E0.57590
G1 X105.967 Y99.421 E0.58033
G1 X105.907 Y99.275 E0.58478
G1 X105.886 Y99.119 E0.58923
G1 X105.907 Y98.962 E0.59367
G1 X105.967 Y98.817 E0.59812
G1 X106.063 Y98.692 E0.60256
G1 X106.194 Y98.591 E0.60721
G1 X106.399 Y98.524 E0.61331
G1 X106.637 Y98.532 E0.62001
G1 X106.792 Y98.596 E0.62474
G1 X106.917 Y98.692 E0.62918
G1 X107.012 Y98.817 E0.63361
G1 X107.073 Y98.962 E0.63806
G1 X107.093 Y99.119 E0.64251
G1 X107.082 Y99.203 E0.64490
G1 X107.197 Y99.381 F18000.000
G1 E0.29490 F3600.000
;WIPE_START
G1 F14400.000
G1 X107.012 Y99.421 E0.24056
G1 X106.917 Y99.545 E0.20320
G1 X106.792 Y99.641 E0.16584
G1 X106.740 Y99.663 E0.15240
;WIPE_END
G1 E0.14490 F3600.000
G92 E0
G1 X105.053 Y99.119 F18000.000
G1 E0.54000 F2400.000
;TYPE:Perimeter
G1 F1080.000
G1 X105.017 Y99.394 E0.54783
G1 X104.911 Y99.651 E0.55567
G1 X104.742 Y99.871 E0.56350
G1 X104.522 Y100.040 E0.57132
G1 X104.265 Y100.146 E0.57916
G1 X103.990 Y100.182 E0.58699
G1 X103.715 Y100.146 E0.59482
G1 X103.458 Y100.040 E0.60266
G1 X103.238 Y99.871 E0.61049
G1 X103.069 Y99.651 E0.61831
G1 X102.962 Y99.394 E0.62615
G1 X102.926 Y99.119 E0.63398
G1 X102.962 Y98.843 E0.64181
G1 X103.069 Y98.587 E0.64965
G1 X103.238 Y98.367 E0.65748
G1 X103.474 Y98.185 E0.66589
G1 X103.785 Y98.082 E0.67513
G1 X103.990 Y98.055 E0.68095
G1 X104.265 Y98.091 E0.68878
G1 X104.522 Y98.198 E0.69662
G1 X104.742 Y98.367 E0.70444
G1 X104.911 Y98.587 E0.71227
G1 X105.017 Y98.843 E0.72011
G1 X105.046 Y99.059 E0.72625
G1 E0.37625 F3600.000
;WIPE_START
G1 F14400.000
G1 X105.017 Y99.394 E0.29647
G1 X104.916 Y99.638 E0.23375
;WIPE_END
G1 E0.22625 F3600.000
G92 E0
G1 X104.692 Y99.106 F18000.000
G1 E0.54000 F2400.000
;TYPE:External perimeter
G1 F1080.000
G1 X104.669 Y99.301 E0.54553
G1 X104.599 Y99.471 E0.55072
G1 X104.487 Y99.616 E0.55590
G1 X104.342 Y99.728 E0.56107
G1 X104.172 Y99.798 E0.56626
G1 X103.990 Y99.822 E0.57144
G1 X103.808 Y99.798 E0.57661
G1 X103.638 Y99.728 E0.58180
G1 X103.493 Y99.616 E0.58697
G1 X103.381 Y99.471 E0.59215
G1 X103.310 Y99.301 E0.59734
G1 X103.286 Y99.119 E0.60251
G1 X103.310 Y98.937 E0.60769
G1 X103.381 Y98.767 E0.61288
G1 X103.493 Y98.621 E0.61805
G1 X103.644 Y98.505 E0.62344
G1 X103.865 Y98.432 E0.63002
G1 X103.990 Y98.415 E0.63356
G1 X104.172 Y98.439 E0.63874
G1 X104.342 Y98.510 E0.64393
G1 X104.487 Y98.621 E0.64910
G1 X104.599 Y98.767 E0.65428
G1 X104.669 Y98.937 E0.65946
G1 X104.684 Y99.046 E0.66258
G1 X104.863 Y99.202 F18000.000
G1 E0.31258 F3600.000
;WIPE_START
G1 F14400.000
G1 X104.669 Y99.301 E0.25205
G1 X104.599 Y99.471 E0.20839
G1 X104.501 Y99.598 E0.17008
;WIPE_END
G1 E0.16258 F3600.000
G92 E0
G1 X105.293 Y101.236 F18000.000
G1 E0.54000 F2400.000
;TYPE:Perimeter
G1 F1080.000
G1 X105.396 Y100.987 E0.54759
G1 X105.596 Y100.725 E0.55690
G1 X105.858 Y100.524 E0.56621
G1 X106.163 Y100.398 E0.57551
G1 X106.490 Y100.355 E0.58481
G1 X106.817 Y100.398 E0.59412
G1 X107.122 Y100.524 E0.60342
G1 X107.383 Y100.725 E0.61273
G1 X107.584 Y100.987 E0.62203
G1 X107.711 Y101.292 E0.63134
G1 X107.753 Y101.619 E0.64064
G1 X107.711 Y101.946 E0.64995
G1 X107.584 Y102.250 E0.65925
G1 X107.383 Y102.512 E0.66855
G1 X107.126 Y102.709 E0.67769
G1 X107.283 Y102.775 E0.68247
G1 X107.599 Y103.043 E0.69417
G1 X107.803 Y103.329 E0.70409
G1 X107.952 Y103.117 E0.71141
G1 X108.245 Y102.869 E0.72224
G1 X108.610 Y102.710 E0.73347
G1 X108.408 Y102.626 E0.73964
G1 X108.167 Y102.441 E0.74820
G1 X107.982 Y102.201 E0.75676
G1 X107.866 Y101.920 E0.76534
G1 X107.826 Y101.619 E0.77391
G1 X107.866 Y101.318 E0.78248
G1 X107.982 Y101.037 E0.79105
G1 X108.167 Y100.796 E0.79961
G1 X108.408 Y100.611 E0.80817
G1 X108.689 Y100.495 E0.81675
G1 X108.990 Y100.455 E0.82532
G1 X109.291 Y100.495 E0.83389
G1 X109.572 Y100.611 E0.84246
G1 X109.813 Y100.796 E0.85102
G1 X109.997 Y101.037 E0.85958
G1 X110.114 Y101.318 E0.86816
G1 X110.153 Y101.619 E0.87673
G1 X110.114 Y101.920 E0.88529
G1 X109.997 Y102.201 E0.89387
G1 X109.813 Y102.441 E0.90243
G1 X109.572 Y102.626 E0.91099
G1 X109.375 Y102.708 E0.91702
G1 X109.721 Y102.851 E0.92759
G1 X110.025 Y103.084 E0.93838
G1 X110.257 Y103.387 E0.94917
G1 X110.404 Y103.740 E0.95994
G1 X110.454 Y104.119 E0.97072
G1 X110.404 Y104.498 E0.98150
G1 X110.257 Y104.850 E0.99227
G1 X110.025 Y105.154 E1.00305
