; generated by PrusaSlicer 2.3.0+win64 on 2021-03-14 at 10:38:34 UTC

; 

; external perimeters extrusion width = 0.40mm
; perimeters extrusion width = 0.40mm
; infill extrusion width = 0.40mm
; solid infill extrusion width = 0.40mm
; top infill extrusion width = 0.40mm

M73 P0 R35
M73 Q0 S35
M201 X500 Y500 Z100 E5000 ; sets maximum accelerations, mm/sec^2
M203 X500 Y500 Z10 E60 ; sets maximum feedrates, mm/sec
M204 P500 R1000 T500 ; sets acceleration (P, T) and retract acceleration (R), mm/sec^2
M205 X8.00 Y8.00 Z0.40 E5.00 ; sets the jerk limits, mm/sec
M205 S0 T0 ; sets the minimum extruding and travel feed rate, mm/sec
M107
;TYPE:Custom
G90 ; use absolute coordinates
M83 ; extruder relative mode
M104 S205 ; set extruder temp
M140 S50 ; set bed temp
M190 S50 ; wait for bed temp
M109 S205 ; wait for extruder temp
M204 S600 ;acceleration
M220 S100 ;Reset Feedrate
M221 S100 ;Reset Flowrate
G28 ; home all
G29
G1 Z2 F240
G1 X2 Y10 F3000
G1 Z0.28 F240
G92 E0.0
G1 Y190 E15.0 F1500.0 ; intro line
G1 X2.3 F5000
G1 Y10 E30 F1200.0 ; intro line
G92 E0.0
G21 ; set units to millimeters
G90 ; use absolute coordinates
M82 ; use absolute distances for extrusion
G92 E0
; Filament gcode
;LAYER_CHANGE
;Z:0.2
;HEIGHT:0.2
;BEFORE_LAYER_CHANGE
M117 INDICATOR-Layer1
;0.2


G1 E-0.50000 F3600.000
G92 E0
G1 Z0.200 F18000.000
;AFTER_LAYER_CHANGE
;0.2
G1 X109.604 Y102.772
G1 E0.54000 F2400.000
;TYPE:Perimeter
;WIDTH:0.4
G1 F180.000
G1 X109.793 Y103.227 E0.55317
G1 X109.978 Y103.468 E0.56128
G1 X110.360 Y103.761 E0.57415
G1 X110.056 Y103.895 E0.58303
G1 X109.763 Y104.143 E0.59329
G1 X109.614 Y104.356 E0.60022
G1 X109.410 Y104.069 E0.60962
G1 X109.093 Y103.801 E0.62071
G1 X108.937 Y103.735 E0.62524
G1 X109.194 Y103.538 E0.63389
G1 X109.395 Y103.277 E0.64271
G1 X109.581 Y102.827 E0.65571
G1 E0.30571 F3600.000
;WIPE_START
G1 F14400.000
G1 X109.793 Y103.227 E0.19824
G1 X109.883 Y103.344 E0.16321
;WIPE_END
G1 E0.15571 F3600.000
G92 E0
G1 X107.681 Y103.749 F18000.000
G1 E0.54000 F2400.000
G1 F180.000
G1 X107.492 Y103.845 E0.54570
G1 X107.081 Y104.234 E0.56081
G1 X106.973 Y104.044 E0.56666
G1 X106.578 Y103.715 E0.58038
G1 X106.731 Y103.608 E0.58536
G1 X106.956 Y103.339 E0.59473
G1 X107.102 Y103.025 E0.60399
M73 P1 R35
M73 Q1 S35
G1 X107.206 Y103.277 E0.61128
G1 X107.407 Y103.538 E0.62009
G1 X107.634 Y103.712 E0.62774
G1 E0.27774 F3600.000
;WIPE_START
G1 F14400.000
G1 X107.492 Y103.845 E0.23145
G1 X107.197 Y104.124 E0.13524
;WIPE_END
G1 E0.12774 F3600.000
G92 E0
G1 X112.960 Y118.313 F18000.000
G1 E0.54000 F2400.000
G1 F180.000
G1 X113.703 Y118.114 E0.56056
G1 X114.292 Y118.318 E0.57723
G1 X114.292 Y118.471 E0.58131
G1 X113.703 Y118.676 E0.59798
G1 X112.960 Y118.477 E0.61855
G1 X112.960 Y118.373 E0.62134
G1 E0.27134 F3600.000
;WIPE_START
G1 F14400.000
G1 X113.526 Y118.175 E0.12884
;WIPE_END
G1 E0.12134 F3600.000
G92 E0
G1 X123.974 Y108.637 F18000.000
G1 E0.54000 F2400.000
G1 F180.000
G1 X123.770 Y108.047 E0.55667
G1 X123.968 Y107.304 E0.57723
G1 X124.133 Y107.304 E0.58163
G1 X124.332 Y108.048 E0.60220
G1 X124.127 Y108.637 E0.61887
G1 X124.034 Y108.637 E0.62134
G1 E0.27134 F3600.000
;WIPE_START
G1 F14400.000
G1 X123.788 Y108.089 E0.12884
;WIPE_END
G1 E0.12134 F3600.000
G92 E0
G1 X110.206 Y101.256 F18000.000
G1 E0.54000 F2400.000
G1 F180.000
G1 X110.038 Y101.325 E0.54486
G1 X109.723 Y101.567 E0.55548
G1 X109.613 Y101.711 E0.56031
G1 X109.449 Y101.497 E0.56753
G1 X109.072 Y101.207 E0.58023
G1 X109.236 Y101.081 E0.58578
G1 X109.447 Y100.807 E0.59500
G1 X109.604 Y100.428 E0.60599
G1 X109.765 Y100.814 E0.61716
G1 X110.164 Y101.213 E0.63226
G1 E0.28226 F3600.000
;WIPE_START
G1 F14400.000
G1 X110.038 Y101.325 E0.24226
G1 X109.723 Y101.567 E0.14788
G1 X109.702 Y101.595 E0.13976
;WIPE_END
G1 E0.13226 F3600.000
G92 E0
G1 X107.529 Y101.207 F18000.000
G1 E0.54000 F2400.000
G1 F180.000
G1 X107.103 Y101.535 E0.55437
G1 X107.020 Y101.427 E0.55800
G1 X106.753 Y101.222 E0.56699
G1 X107.113 Y100.753 E0.58278
G1 X107.365 Y101.081 E0.59381
G1 X107.482 Y101.171 E0.59776
G1 E0.24776 F3600.000
;WIPE_START
G1 F14400.000
G1 X107.103 Y101.535 E0.12297
G1 X107.057 Y101.475 E0.10526
;WIPE_END
G1 E0.09776 F3600.000
G92 E0
G1 X126.616 Y112.670 F18000.000
G1 E0.54000 F2400.000
G1 F180.000
G1 X126.801 Y112.657 E0.54493
G1 X127.011 Y112.671 E0.55056
G1 X127.013 Y112.870 E0.55587
G1 X126.838 Y112.885 E0.56056
G1 X126.616 Y112.870 E0.56649
G1 X126.616 Y112.730 E0.57025
G1 E0.22025 F3600.000
;WIPE_START
G1 F14400.000
G1 X126.801 Y112.657 E0.17328
G1 X127.011 Y112.671 E0.12322
G1 X127.013 Y112.863 E0.07775
;WIPE_END
G1 E0.07025 F3600.000
G92 E0
G1 X121.376 Y108.269 F18000.000
G1 E0.54000 F2400.000
G1 F180.000
G1 X121.224 Y108.269 E0.54408
G1 X121.143 Y108.033 E0.55074
G1 X121.218 Y107.751 E0.55853
G1 X121.383 Y107.751 E0.56293
G1 X121.458 Y108.034 E0.57074
G1 X121.396 Y108.213 E0.57579
G1 E0.22579 F3600.000
;WIPE_START
G1 F14400.000
G1 X121.224 Y108.269 E0.18271
G1 X121.143 Y108.033 E0.12355
G1 X121.187 Y107.869 E0.08329
;WIPE_END
G1 E0.07579 F3600.000
G92 E0
G1 X118.708 Y108.033 F18000.000
G1 E0.54000 F2400.000
G1 F180.000
G1 X118.499 Y108.644 E0.55725
G1 X118.345 Y108.643 E0.56136
G1 X118.143 Y108.032 E0.57856
G1 X118.343 Y107.284 E0.59925
G1 X118.508 Y107.284 E0.60365
G1 X118.693 Y107.975 E0.62278
G1 E0.27278 F3600.000
;WIPE_START
G1 F14400.000
G1 X118.526 Y108.552 E0.13028
;WIPE_END
G1 E0.12278 F3600.000
G92 E0
G1 X114.299 Y112.689 F18000.000
G1 E0.54000 F2400.000
G1 F180.000
G1 X114.300 Y112.843 E0.54412
G1 X113.689 Y113.052 E0.56136
G1 X112.939 Y112.852 E0.58210
G1 X112.939 Y112.688 E0.58649
G1 X113.687 Y112.488 E0.60718
G1 X114.242 Y112.670 E0.62278
G1 E0.27278 F3600.000
;WIPE_START
G1 F14400.000
G1 X114.300 Y112.843 E0.22950
G1 X113.904 Y112.979 E0.13028
;WIPE_END
G1 E0.12278 F3600.000
G92 E0
G1 X113.689 Y115.487 F18000.000
G1 E0.54000 F2400.000
G1 F180.000
G1 X113.925 Y115.568 E0.54666
G1 X113.925 Y115.721 E0.55074
G1 X113.689 Y115.803 E0.55740
G1 X113.407 Y115.727 E0.56521
G1 X113.407 Y115.563 E0.56960
G1 X113.631 Y115.503 E0.57579
G1 E0.22579 F3600.000
;WIPE_START
G1 F14400.000
G1 X113.925 Y115.568 E0.15436
G1 X113.925 Y115.721 E0.11809
G1 X113.786 Y115.769 E0.08329
;WIPE_END
G1 E0.07579 F3600.000
G92 E0
G1 X118.325 Y120.961 F18000.000
G1 E0.54000 F2400.000
G1 F180.000
G1 X118.526 Y120.961 E0.54536
G1 X118.526 Y121.329 E0.55520
G1 X118.325 Y121.329 E0.56056
G1 X118.321 Y121.021 E0.56880
G1 E0.21880 F3600.000
;WIPE_START
G1 F14400.000
G1 X118.526 Y120.961 E0.16819
G1 X118.526 Y121.329 E0.08074
G1 X118.507 Y121.329 E0.07630
;WIPE_END
G1 E0.06880 F3600.000
G92 E0
G1 X130.415 Y110.030 F18000.000
G1 E0.54000 F2400.000
G1 F2700.000
G1 X130.410 Y119.678 E0.79780
G1 X130.313 Y121.145 E0.83709
G1 X130.410 Y122.613 E0.87641
G1 X130.418 Y124.762 E0.93384
G1 X128.269 Y124.755 E0.99127
G1 X126.801 Y124.657 E1.03059
G1 X125.333 Y124.755 E1.06988
G1 X115.683 Y124.759 E1.32776
G1 X115.691 Y122.613 E1.38511
G1 X115.788 Y121.145 E1.42442
G1 X115.691 Y119.678 E1.46371
G1 X115.686 Y110.031 E1.72150
G1 X125.333 Y110.035 E1.97929
G1 X126.838 Y110.135 E2.01959
G1 X127.750 Y110.058 E2.04405
G1 X128.789 Y110.031 E2.07181
G1 X130.355 Y110.030 E2.11366
G1 E1.76366 F3600.000
;WIPE_START
G1 F14400.000
G1 X130.358 Y110.630 E1.62116
;WIPE_END
G1 E1.61366 F3600.000
G92 E0
G1 X118.058 Y110.388 F18000.000
G1 E0.54000 F2400.000
G1 F180.000
G1 X118.058 Y112.402 E0.59382
G1 X116.043 Y112.402 E0.64765
M73 P1 R34
M73 Q1 S34
G1 X116.043 Y110.388 E0.70147
G1 X117.998 Y110.388 E0.75369
G1 X117.701 Y110.745 F18000.000
;TYPE:External perimeter
G1 F180.000
G1 X117.701 Y112.045 E0.78843
G1 X116.401 Y112.045 E0.82316
G1 X116.401 Y110.745 E0.85790
G1 X117.641 Y110.745 E0.89104
G1 X118.087 Y110.641 F18000.000
G1 X118.793 Y110.388
;TYPE:Perimeter
G1 F180.000
G1 X121.058 Y110.388 E0.95154
G1 X121.058 Y112.402 E1.00537
G1 X118.793 Y112.402 E1.06587
G1 X118.793 Y110.448 E1.11809
M73 P2 R34
M73 Q2 S34
G1 X119.151 Y110.745 F18000.000
;TYPE:External perimeter
G1 F180.000
G1 X120.701 Y110.745 E1.15951
G1 X120.701 Y112.045 E1.19425
G1 X119.151 Y112.045 E1.23567
G1 X119.151 Y110.805 E1.26880
G1 X119.036 Y110.362 F18000.000
G1 E0.91880 F3600.000
;WIPE_START
G1 F14400.000
G1 X119.750 Y110.782 E0.77630
;WIPE_END
G1 E0.76880 F3600.000
G92 E0
G1 X118.793 Y113.138 F18000.000
G1 E0.54000 F2400.000
;TYPE:Perimeter
G1 F180.000
G1 X121.058 Y113.138 E0.60050
G1 X121.058 Y115.402 E0.66101
G1 X118.793 Y115.402 E0.72151
G1 X118.793 Y113.198 E0.78041
G1 X119.151 Y113.495 F18000.000
;TYPE:External perimeter
G1 F180.000
G1 X120.701 Y113.495 E0.82183
G1 X120.701 Y115.045 E0.86325
G1 X119.151 Y115.045 E0.90467
G1 X119.151 Y113.555 E0.94448
G1 X119.047 Y113.108 F18000.000
G1 E0.59448 F3600.000
;WIPE_START
G1 F14400.000
G1 X119.750 Y113.532 E0.45198
;WIPE_END
G1 E0.44448 F3600.000
G92 E0
G1 X116.043 Y113.138 F18000.000
G1 E0.54000 F2400.000
;TYPE:Perimeter
G1 F180.000
G1 X118.058 Y113.138 E0.59382
G1 X118.058 Y115.402 E0.65433
G1 X116.043 Y115.402 E0.70815
G1 X116.043 Y113.198 E0.76705
G1 X116.401 Y113.495 F18000.000
;TYPE:External perimeter
G1 F180.000
G1 X117.701 Y113.495 E0.80179
G1 X117.701 Y115.045 E0.84321
G1 X116.401 Y115.045 E0.87795
G1 X116.401 Y113.555 E0.91776
G1 X116.308 Y113.106 F18000.000
G1 E0.56776 F3600.000
;WIPE_START
G1 F14400.000
G1 X117.000 Y113.527 E0.42526
;WIPE_END
G1 E0.41776 F3600.000
G92 E0
G1 X116.043 Y115.888 F18000.000
G1 E0.54000 F2400.000
;TYPE:Perimeter
G1 F180.000
G1 X118.058 Y115.888 E0.59382
G1 X118.053 Y119.665 E0.69475
G1 X117.955 Y121.145 E0.73439
G1 X118.053 Y122.625 E0.77404
G1 X118.060 Y124.402 E0.82151
G1 X116.041 Y124.402 E0.87544
G1 X116.048 Y122.625 E0.92291
G1 X116.146 Y121.145 E0.96256
G1 X116.048 Y119.665 E1.00220
G1 X116.043 Y115.948 E1.10153
G1 X116.401 Y116.245 F18000.000
;TYPE:External perimeter
G1 F180.000
G1 X117.701 Y116.245 E1.13627
G1 X117.701 Y118.045 E1.18437
G1 X116.401 Y118.045 E1.21911
M73 P3 R34
M73 Q3 S34
G1 X116.401 Y116.305 E1.26560
G1 X116.318 Y115.853 F18000.000
G1 E0.91560 F3600.000
;WIPE_START
G1 F14400.000
G1 X117.000 Y116.277 E0.77310
;WIPE_END
G1 E0.76560 F3600.000
G92 E0
G1 X116.400 Y118.745 F18000.000
G1 E0.54000 F2400.000
G1 F180.000
G1 X117.701 Y118.745 E0.57479
G1 X117.696 Y119.652 E0.59902
G1 X117.609 Y120.966 E0.63422
G1 X116.492 Y120.966 E0.66407
G1 X116.405 Y119.652 E0.69927
G1 X116.400 Y118.805 E0.72190
G1 X116.394 Y118.345 F18000.000
G1 E0.37190 F3600.000
;WIPE_START
G1 F14400.000
G1 X116.999 Y118.777 E0.22940
;WIPE_END
G1 E0.22190 F3600.000
G92 E0
G1 X116.492 Y121.323 F18000.000
G1 E0.54000 F2400.000
G1 F180.000
G1 X117.609 Y121.323 E0.56986
G1 X117.696 Y122.638 E0.60506
G1 X117.701 Y124.045 E0.64266
G1 X116.400 Y124.045 E0.67743
G1 X116.405 Y122.638 E0.71503
G1 X116.488 Y121.383 E0.74863
G1 X116.496 Y120.923 F18000.000
G1 E0.39863 F3600.000
;WIPE_START
G1 F14400.000
G1 X117.087 Y121.351 E0.25613
;WIPE_END
G1 E0.24863 F3600.000
G92 E0
G1 X118.793 Y115.888 F18000.000
G1 E0.54000 F2400.000
;TYPE:Perimeter
G1 F180.000
G1 X121.058 Y115.888 E0.60050
G1 X121.053 Y119.665 E0.70144
G1 X120.955 Y121.145 E0.74107
G1 X121.053 Y122.625 E0.78072
G1 X121.060 Y124.402 E0.82819
G1 X118.791 Y124.402 E0.88880
G1 X118.798 Y122.625 E0.93627
G1 X118.896 Y121.145 E0.97593
G1 X118.798 Y119.665 E1.01556
G1 X118.793 Y115.948 E1.11489
G1 X119.151 Y116.245 F18000.000
;TYPE:External perimeter
G1 F180.000
G1 X120.701 Y116.245 E1.15631
G1 X120.701 Y118.045 E1.20441
G1 X119.151 Y118.045 E1.24583
G1 X119.151 Y116.305 E1.29232
G1 X119.057 Y115.856 F18000.000
G1 E0.94232 F3600.000
;WIPE_START
G1 F14400.000
G1 X119.750 Y116.282 E0.79982
;WIPE_END
G1 E0.79232 F3600.000
G92 E0
G1 X119.150 Y118.745 F18000.000
G1 E0.54000 F2400.000
G1 F180.000
G1 X120.701 Y118.745 E0.58147
G1 X120.696 Y119.652 E0.60570
G1 X120.609 Y120.966 E0.64090
G1 X119.242 Y120.966 E0.67744
G1 X119.155 Y119.652 E0.71263
G1 X119.150 Y118.805 E0.73526
G1 X119.144 Y118.345 F18000.000
G1 E0.38526 F3600.000
;WIPE_START
G1 F14400.000
G1 X119.750 Y118.782 E0.24277
;WIPE_END
G1 E0.23526 F3600.000
G92 E0
G1 X119.242 Y121.323 F18000.000
G1 E0.54000 F2400.000
G1 F180.000
G1 X120.609 Y121.323 E0.57654
G1 X120.696 Y122.638 E0.61174
G1 X120.701 Y124.045 E0.64934
G1 X119.150 Y124.045 E0.69079
G1 X119.155 Y122.638 E0.72839
M73 P4 R34
M73 Q4 S34
G1 X119.238 Y121.383 E0.76199
G1 X119.246 Y120.923 F18000.000
G1 E0.41199 F3600.000
;WIPE_START
G1 F14400.000
G1 X119.837 Y121.357 E0.26949
;WIPE_END
G1 E0.26199 F3600.000
G92 E0
G1 X130.058 Y115.888 F18000.000
G1 E0.54000 F2400.000
;TYPE:Perimeter
G1 F180.000
G1 X130.053 Y119.665 E0.64094
G1 X129.955 Y121.145 E0.68057
G1 X130.053 Y122.625 E0.72022
G1 X130.060 Y124.404 E0.76775
G1 X128.281 Y124.398 E0.81527
G1 X126.801 Y124.300 E0.85493
G1 X125.321 Y124.398 E0.89456
G1 X121.541 Y124.402 E0.99555
G1 X121.548 Y122.625 E1.04302
G1 X121.646 Y121.145 E1.08267
G1 X121.548 Y119.665 E1.12230
G1 X121.543 Y115.888 E1.22324
G1 X125.321 Y115.892 E1.32417
G1 X126.841 Y115.993 E1.36489
G1 X127.770 Y115.914 E1.38980
G1 X128.793 Y115.888 E1.41715
M73 P4 R33
M73 Q4 S33
G1 X129.998 Y115.888 E1.44934
G1 E1.09934 F3600.000
;WIPE_START
G1 F14400.000
G1 X130.006 Y116.488 E0.95684
;WIPE_END
G1 E0.94934 F3600.000
G92 E0
G1 X123.701 Y116.245 F18000.000
G1 E0.54000 F2400.000
;TYPE:External perimeter
G1 F180.000
G1 X123.701 Y118.045 E0.58810
G1 X121.901 Y118.045 E0.63620
G1 X121.901 Y116.245 E0.68430
G1 X123.641 Y116.245 E0.73080
G1 X124.087 Y116.141 F18000.000
G1 E0.38080 F3600.000
;WIPE_START
G1 F14400.000
G1 X123.660 Y116.844 E0.23830
;WIPE_END
G1 E0.23080 F3600.000
G92 E0
G1 X123.641 Y118.745 F18000.000
G1 E0.54000 F2400.000
G1 F180.000
G1 X123.701 Y118.745 E0.54163
G1 X123.696 Y119.652 E0.56586
G1 X123.609 Y120.966 E0.60106
G1 X121.992 Y120.966 E0.64428
G1 X121.905 Y119.652 E0.67947
G1 X121.900 Y118.745 E0.70371
G1 X123.581 Y118.745 E0.74863
G1 X123.662 Y118.688 F18000.000
G1 E0.39863 F3600.000
;WIPE_START
G1 F14400.000
G1 X123.701 Y118.745 E0.36992
G1 X123.699 Y119.224 E0.25613
;WIPE_END
G1 E0.24863 F3600.000
G92 E0
G1 X123.581 Y121.323 F18000.000
G1 E0.54000 F2400.000
G1 F180.000
G1 X123.609 Y121.323 E0.54077
G1 X123.696 Y122.638 E0.57597
G1 X123.701 Y124.045 E0.61357
G1 X121.900 Y124.045 E0.66170
G1 X121.905 Y122.638 E0.69930
G1 X121.992 Y121.323 E0.73450
G1 X123.521 Y121.323 E0.77535
M73 P5 R33
M73 Q5 S33
G1 X123.589 Y121.296 F18000.000
G1 E0.42535 F3600.000
;WIPE_START
G1 F14400.000
G1 X123.609 Y121.323 E0.40430
G1 X123.643 Y121.834 E0.28285
;WIPE_END
G1 E0.27535 F3600.000
G92 E0
G1 X124.401 Y118.046 F18000.000
G1 E0.54000 F2400.000
G1 F180.000
G1 X124.401 Y116.244 E0.58815
G1 X125.308 Y116.249 E0.61238
G1 X126.622 Y116.336 E0.64758
G1 X126.622 Y117.953 E0.69079
G1 X125.308 Y118.041 E0.72599
G1 X124.461 Y118.045 E0.74862
G1 X124.001 Y118.051 F18000.000
G1 X124.457 Y118.745
G1 F180.000
G1 X125.308 Y118.749 E0.77135
G1 X126.622 Y118.836 E0.80655
G1 X126.622 Y120.966 E0.86347
G1 X124.492 Y120.966 E0.92039
G1 X124.405 Y119.652 E0.95559
G1 X124.400 Y118.747 E0.97977
G1 X124.456 Y118.345 F18000.000
G1 E0.62977 F3600.000
;WIPE_START
G1 F14400.000
G1 X125.000 Y118.748 E0.48727
;WIPE_END
G1 E0.47977 F3600.000
G92 E0
G1 X124.492 Y121.323 F18000.000
G1 E0.54000 F2400.000
G1 F180.000
G1 X126.622 Y121.323 E0.59692
G1 X126.622 Y123.953 E0.66720
G1 X125.308 Y124.041 E0.70240
G1 X124.400 Y124.046 E0.72665
G1 X124.405 Y122.638 E0.76427
G1 X124.488 Y121.383 E0.79787
G1 X124.496 Y120.923 F18000.000
G1 E0.44787 F3600.000
;WIPE_START
G1 F14400.000
G1 X125.088 Y121.366 E0.30537
;WIPE_END
G1 E0.29787 F3600.000
G92 E0
G1 X126.979 Y121.383 F18000.000
G1 E0.54000 F2400.000
G1 F180.000
G1 X126.979 Y121.323 E0.54160
G1 X129.609 Y121.323 E0.61188
G1 X129.696 Y122.638 E0.64709
G1 X129.701 Y124.046 E0.68470
G1 X128.294 Y124.041 E0.72232
G1 X126.979 Y123.953 E0.75752
G1 X126.979 Y121.443 E0.82460
G1 X126.923 Y121.362 F18000.000
G1 X126.979 Y120.966
G1 F180.000
G1 X126.979 Y118.840 E0.88143
G1 X127.790 Y118.771 E0.90317
G1 X129.701 Y118.745 E0.95426
G1 X129.696 Y119.652 E0.97850
G1 X129.609 Y120.966 E1.01369
G1 X127.039 Y120.966 E1.08237
G1 X126.584 Y121.026 F18000.000
G1 E0.73237 F3600.000
;WIPE_START
G1 F14400.000
