; generated by PrusaSlicer 2.3.0+win64 on 2021-03-14 at 15:38:27 UTC

; 

; external perimeters extrusion width = 0.40mm
; perimeters extrusion width = 0.40mm
; infill extrusion width = 0.40mm
; solid infill extrusion width = 0.40mm
; top infill extrusion width = 0.40mm

M73 P0 R82
M73 Q0 S82
M201 X500 Y500 Z100 E5000 ; sets maximum accelerations, mm/sec^2
M203 X500 Y500 Z10 E60 ; sets maximum feedrates, mm/sec
M204 P500 R1000 T500 ; sets acceleration (P, T) and retract acceleration (R), mm/sec^2
M205 X8.00 Y8.00 Z0.40 E5.00 ; sets the jerk limits, mm/sec
M205 S0 T0 ; sets the minimum extruding and travel feed rate, mm/sec
M107
;TYPE:Custom
G90 ; use absolute coordinates
M83 ; extruder relative mode
M104 S200 ; set extruder temp
M140 S50 ; set bed temp
M190 S50 ; wait for bed temp
M109 S200 ; wait for extruder temp
M204 S600 ;acceleration
M220 S100 ;Reset Feedrate
M221 S100 ;Reset Flowrate
G28 ; home all
G29
G1 Z2 F240
G1 X2 Y10 F3000
G1 Z0.28 F240
G92 E0.0
G1 Y190 E15.0 F1500.0 ; intro line
M73 P0 R81
M73 Q0 S81
G1 X2.3 F5000
G1 Y10 E30 F1200.0 ; intro line
G92 E0.0
G21 ; set units to millimeters
G90 ; use absolute coordinates
M82 ; use absolute distances for extrusion
G92 E0
; Filament gcode
;LAYER_CHANGE
;Z:0.2
;HEIGHT:0.2
;BEFORE_LAYER_CHANGE
M117 INDICATOR-Layer1
;0.2


G1 E-0.50000 F3600.000
G92 E0
G1 Z0.200 F18000.000
;AFTER_LAYER_CHANGE
;0.2
G1 X102.648 Y88.594
G1 E0.54000 F2400.000
;TYPE:External perimeter
;WIDTH:0.4
G1 F1350.000
G1 X103.030 Y88.583 E0.55076
G1 X102.999 Y88.874 E0.55902
G1 X103.021 Y89.128 E0.56621
G1 X102.653 Y89.204 E0.57681
G1 X102.648 Y88.654 E0.59233
G1 X103.013 Y88.707 F18000.000
G1 E0.24233 F3600.000
;WIPE_START
G1 F14400.000
G1 X103.030 Y88.583 E0.15009
G1 X103.007 Y88.794 E0.09983
;WIPE_END
G1 E0.09233 F3600.000
G92 E0
G1 X118.888 Y88.800 F18000.000
G1 E0.54000 F2400.000
G1 F1350.000
G1 X119.943 Y88.659 E0.57001
G1 X119.929 Y88.873 E0.57607
G1 X119.941 Y89.004 E0.57977
G1 X118.933 Y88.888 E0.60839
G1 X118.802 Y89.153 E0.61673
G1 X118.726 Y89.161 E0.61887
G1 X118.595 Y89.133 E0.62264
G1 X118.538 Y89.022 E0.62617
G1 X118.536 Y88.743 E0.63405
G1 X118.583 Y88.611 E0.63802
G1 X118.630 Y88.581 E0.63959
G1 X118.785 Y88.554 E0.64403
G1 X118.867 Y88.744 E0.64984
G1 X119.036 Y89.172 F18000.000
G1 E0.29984 F3600.000
;WIPE_START
G1 F14400.000
G1 X119.465 Y88.696 E0.15734
;WIPE_END
G1 E0.14984 F3600.000
G92 E0
G1 X121.485 Y89.275 F18000.000
G1 E0.54000 F2400.000
G1 F1350.000
G1 X121.554 Y89.275 E0.54195
G1 X121.536 Y89.286 E0.54257
G1 X121.545 Y89.309 F18000.000
G1 E0.19257 F3600.000
;WIPE_START
G1 F14400.000
G1 X121.554 Y89.275 E0.18738
G1 X121.536 Y89.286 E0.18219
;WIPE_END
G1 E0.04257 F3600.000
G92 E0
G1 X105.247 Y101.902 F18000.000
G1 E0.54000 F2400.000
;TYPE:Perimeter
G1 F1350.000
G1 X105.352 Y102.154 E0.54769
G1 X105.553 Y102.416 E0.55700
G1 X105.832 Y102.624 E0.56682
G1 X105.637 Y102.723 E0.57299
G1 X105.327 Y103.016 E0.58503
G1 X105.254 Y103.160 E0.58958
G1 X105.118 Y102.921 E0.59731
G1 X104.761 Y102.623 E0.61045
G1 X104.709 Y102.603 E0.61200
G1 X104.877 Y102.485 E0.61777
G1 X105.101 Y102.216 E0.62766
G1 X105.222 Y101.956 E0.63575
G1 E0.28575 F3600.000
;WIPE_START
G1 F14400.000
G1 X105.352 Y102.154 E0.22964
G1 X105.553 Y102.416 E0.15127
G1 X105.580 Y102.436 E0.14325
;WIPE_END
G1 E0.13575 F3600.000
G92 E0
G1 X122.196 Y118.583 F18000.000
G1 E0.54000 F2400.000
G1 F1350.000
G1 X122.292 Y120.022 E0.58067
G1 X122.196 Y121.461 E0.62134
G1 X122.101 Y120.022 E0.66201
G1 X122.192 Y118.643 E0.70099
G1 E0.35099 F3600.000
;WIPE_START
G1 F14400.000
G1 X122.235 Y119.242 E0.20849
;WIPE_END
G1 E0.20099 F3600.000
G92 E0
G1 X123.507 Y117.272 F18000.000
G1 E0.54000 F2400.000
G1 F1350.000
G1 X124.946 Y117.177 E0.58067
G1 X126.550 Y117.275 E0.62601
G1 X125.916 Y117.292 E0.64392
G1 X124.987 Y117.370 E0.67021
G1 X123.567 Y117.276 E0.71034
G1 E0.36034 F3600.000
;WIPE_START
G1 F14400.000
G1 X124.166 Y117.233 E0.21784
;WIPE_END
G1 E0.21034 F3600.000
G92 E0
G1 X107.863 Y102.591 F18000.000
G1 E0.54000 F2400.000
G1 F1350.000
G1 X107.776 Y102.665 E0.54321
G1 X107.668 Y102.574 E0.54718
G1 X107.759 Y102.456 E0.55137
G1 X107.826 Y102.544 E0.55449
G1 E0.20449 F3600.000
;WIPE_START
G1 F14400.000
G1 X107.776 Y102.665 E0.17335
G1 X107.668 Y102.574 E0.13987
G1 X107.759 Y102.456 E0.10462
G1 X107.826 Y102.544 E0.07834
;WIPE_END
G1 E0.05449 F3600.000
G92 E0
G1 X107.759 Y100.588 F18000.000
G1 E0.54000 F2400.000
G1 F1350.000
G1 X107.594 Y100.374 E0.54761
G1 X107.258 Y100.116 E0.55958
G1 X107.205 Y100.094 E0.56119
G1 X107.382 Y99.958 E0.56748
G1 X107.592 Y99.684 E0.57721
G1 X107.725 Y99.365 E0.58697
G1 X107.741 Y99.245 E0.59037
G1 X107.741 Y99.282 E0.59141
G1 X107.910 Y99.691 E0.60389
G1 X108.277 Y100.058 E0.61853
G1 X108.405 Y100.111 E0.62243
G1 X108.184 Y100.203 E0.62917
G1 X107.869 Y100.445 E0.64038
G1 X107.795 Y100.540 E0.64379
G1 E0.29379 F3600.000
;WIPE_START
G1 F14400.000
G1 X107.594 Y100.374 E0.23181
G1 X107.325 Y100.167 E0.15129
;WIPE_END
G1 E0.14379 F3600.000
G92 E0
G1 X105.687 Y100.094 F18000.000
G1 E0.54000 F2400.000
G1 F1350.000
G1 X105.634 Y100.116 E0.54161
G1 X105.298 Y100.374 E0.55357
G1 X105.259 Y100.425 E0.55540
G1 X105.166 Y100.304 E0.55970
G1 X104.880 Y100.084 E0.56986
G1 X104.953 Y100.029 E0.57245
G1 X105.179 Y99.734 E0.58292
G1 X105.250 Y99.563 E0.58814
G1 X105.300 Y99.684 E0.59184
G1 X105.510 Y99.958 E0.60157
G1 X105.640 Y100.057 E0.60617
G1 E0.25617 F3600.000
;WIPE_START
G1 F14400.000
G1 X105.634 Y100.116 E0.24224
G1 X105.298 Y100.374 E0.14153
G1 X105.259 Y100.425 E0.12615
G1 X105.227 Y100.383 E0.11367
;WIPE_END
G1 E0.10617 F3600.000
G92 E0
G1 X111.082 Y106.158 F18000.000
G1 E0.54000 F2400.000
G1 F1350.000
G1 X113.560 Y106.158 E0.60991
G1 X113.560 Y108.636 E0.67981
G1 X111.082 Y108.636 E0.74972
G1 X111.082 Y106.218 E0.81793
G1 E0.46793 F3600.000
;WIPE_START
G1 F14400.000
G1 X111.682 Y106.203 E0.32543
;WIPE_END
G1 E0.31793 F3600.000
G92 E0
G1 X111.439 Y106.515 F18000.000
G1 E0.54000 F2400.000
G1 F1350.000
G1 X113.203 Y106.515 E0.58976
G1 X113.203 Y108.279 E0.63952
G1 X111.439 Y108.279 E0.68928
G1 X111.439 Y106.575 E0.73735
G1 E0.38735 F3600.000
;WIPE_START
G1 F14400.000
G1 X112.039 Y106.554 E0.24485
;WIPE_END
G1 E0.23735 F3600.000
G92 E0
G1 X111.796 Y106.872 F18000.000
G1 E0.54000 F2400.000
;TYPE:External perimeter
G1 F1350.000
G1 X112.846 Y106.872 E0.56962
G1 X112.846 Y107.922 E0.59923
G1 X111.796 Y107.922 E0.62885
G1 X111.796 Y106.932 E0.65678
G1 X111.693 Y106.486 F18000.000
G1 E0.30678 F3600.000
;WIPE_START
G1 F14400.000
G1 X112.395 Y106.898 E0.16428
;WIPE_END
G1 E0.15678 F3600.000
G92 E0
G1 X113.832 Y106.158 F18000.000
G1 E0.54000 F2400.000
;TYPE:Perimeter
G1 F1350.000
G1 X116.560 Y106.158 E0.61696
G1 X116.560 Y108.636 E0.68686
G1 X113.832 Y108.636 E0.76382
G1 X113.832 Y106.218 E0.83203
G1 E0.48203 F3600.000
;WIPE_START
G1 F14400.000
G1 X114.432 Y106.205 E0.33953
;WIPE_END
G1 E0.33203 F3600.000
G92 E0
G1 X114.189 Y106.515 F18000.000
G1 E0.54000 F2400.000
G1 F1350.000
G1 X116.203 Y106.515 E0.59681
G1 X116.203 Y108.279 E0.64657
G1 X114.189 Y108.279 E0.70339
G1 X114.189 Y106.575 E0.75146
G1 E0.40146 F3600.000
;WIPE_START
G1 F14400.000
G1 X114.789 Y106.557 E0.25896
;WIPE_END
G1 E0.25146 F3600.000
G92 E0
G1 X114.546 Y106.872 F18000.000
G1 E0.54000 F2400.000
;TYPE:External perimeter
G1 F1350.000
G1 X115.846 Y106.872 E0.57667
G1 X115.846 Y107.922 E0.60629
G1 X114.546 Y107.922 E0.64295
G1 X114.546 Y106.932 E0.67088
G1 X114.429 Y106.489 F18000.000
G1 E0.32088 F3600.000
;WIPE_START
G1 F14400.000
G1 X115.146 Y106.904 E0.17838
;WIPE_END
G1 E0.17088 F3600.000
G92 E0
G1 X113.832 Y108.908 F18000.000
G1 E0.54000 F2400.000
;TYPE:Perimeter
G1 F1350.000
G1 X116.560 Y108.908 E0.61696
G1 X116.560 Y111.636 E0.69391
G1 X113.832 Y111.636 E0.77087
G1 X113.832 Y108.968 E0.84614
G1 E0.49614 F3600.000
;WIPE_START
G1 F14400.000
G1 X114.432 Y108.955 E0.35364
;WIPE_END
G1 E0.34614 F3600.000
G92 E0
G1 X114.189 Y109.265 F18000.000
G1 E0.54000 F2400.000
G1 F1350.000
G1 X116.203 Y109.265 E0.59681
G1 X116.203 Y111.279 E0.65363
G1 X114.189 Y111.279 E0.71044
G1 X114.189 Y109.325 E0.76556
G1 E0.41556 F3600.000
;WIPE_START
G1 F14400.000
G1 X114.789 Y109.307 E0.27306
;WIPE_END
G1 E0.26556 F3600.000
G92 E0
G1 X114.546 Y109.622 F18000.000
G1 E0.54000 F2400.000
;TYPE:External perimeter
G1 F1350.000
G1 X115.846 Y109.622 E0.57667
G1 X115.846 Y110.922 E0.61334
G1 X114.546 Y110.922 E0.65001
G1 X114.546 Y109.682 E0.68498
G1 X114.443 Y109.236 F18000.000
G1 E0.33498 F3600.000
;WIPE_START
G1 F14400.000
G1 X115.146 Y109.654 E0.19248
;WIPE_END
G1 E0.18498 F3600.000
G92 E0
G1 X111.082 Y108.908 F18000.000
G1 E0.54000 F2400.000
;TYPE:Perimeter
G1 F1350.000
G1 X113.560 Y108.908 E0.60991
G1 X113.560 Y111.636 E0.68686
G1 X111.082 Y111.636 E0.75677
G1 X111.082 Y108.968 E0.83203
G1 E0.48203 F3600.000
;WIPE_START
G1 F14400.000
G1 X111.682 Y108.953 E0.33953
;WIPE_END
G1 E0.33203 F3600.000
G92 E0
G1 X111.439 Y109.265 F18000.000
G1 E0.54000 F2400.000
G1 F1350.000
G1 X113.203 Y109.265 E0.58976
G1 X113.203 Y111.279 E0.64657
G1 X111.439 Y111.279 E0.69634
G1 X111.439 Y109.325 E0.75146
G1 E0.40146 F3600.000
;WIPE_START
G1 F14400.000
G1 X112.039 Y109.304 E0.25896
;WIPE_END
G1 E0.25146 F3600.000
G92 E0
G1 X111.796 Y109.622 F18000.000
G1 E0.54000 F2400.000
;TYPE:External perimeter
G1 F1350.000
G1 X112.846 Y109.622 E0.56962
G1 X112.846 Y110.922 E0.60629
G1 X111.796 Y110.922 E0.63590
G1 X111.796 Y109.682 E0.67088
G1 X111.706 Y109.232 F18000.000
G1 E0.32088 F3600.000
;WIPE_START
G1 F14400.000
G1 X112.395 Y109.648 E0.17838
;WIPE_END
G1 E0.17088 F3600.000
G92 E0
G1 X111.082 Y111.658 F18000.000
G1 E0.54000 F2400.000
;TYPE:Perimeter
G1 F1350.000
G1 X113.560 Y111.658 E0.60991
G1 X113.556 Y118.555 E0.80445
G1 X113.459 Y120.022 E0.84592
G1 X113.556 Y121.490 E0.88742
G1 X113.564 Y123.636 E0.94796
G1 X111.079 Y123.636 E1.01804
G1 X111.086 Y121.490 E1.07858
G1 X111.184 Y120.022 E1.12008
G1 X111.086 Y118.555 E1.16155
G1 X111.082 Y111.718 E1.35440
G1 E1.00440 F3600.000
;WIPE_START
G1 F14400.000
G1 X111.682 Y111.703 E0.86190
;WIPE_END
G1 E0.85440 F3600.000
G92 E0
G1 X111.439 Y112.015 F18000.000
G1 E0.54000 F2400.000
G1 F1350.000
G1 X113.203 Y112.015 E0.58976
G1 X113.203 Y114.279 E0.65363
G1 X111.439 Y114.279 E0.70339
G1 X111.439 Y112.075 E0.76556
G1 E0.41556 F3600.000
;WIPE_START
G1 F14400.000
G1 X112.039 Y112.054 E0.27306
;WIPE_END
G1 E0.26556 F3600.000
G92 E0
G1 X111.796 Y112.372 F18000.000
G1 E0.54000 F2400.000
;TYPE:External perimeter
G1 F1350.000
G1 X112.846 Y112.372 E0.56962
G1 X112.846 Y113.922 E0.61334
G1 X111.796 Y113.922 E0.64295
G1 X111.796 Y112.432 E0.68498
G1 X111.717 Y111.980 F18000.000
G1 E0.33498 F3600.000
;WIPE_START
G1 F14400.000
G1 X112.395 Y112.398 E0.19248
;WIPE_END
G1 E0.18498 F3600.000
G92 E0
G1 X111.439 Y114.765 F18000.000
G1 E0.54000 F2400.000
;TYPE:Perimeter
G1 F1350.000
G1 X113.203 Y114.765 E0.58976
G1 X113.199 Y118.542 E0.69630
G1 X113.101 Y120.022 E0.73814
G1 X113.199 Y121.503 E0.77999
G1 X113.205 Y123.279 E0.83010
G1 X111.437 Y123.279 E0.87997
G1 X111.443 Y121.503 E0.93008
G1 X111.542 Y120.022 E0.97194
G1 X111.443 Y118.542 E1.01377
G1 X111.439 Y114.825 E1.11862
G1 E0.76862 F3600.000
;WIPE_START
G1 F14400.000
G1 X112.039 Y114.804 E0.62612
;WIPE_END
G1 E0.61862 F3600.000
G92 E0
G1 X111.796 Y115.122 F18000.000
G1 E0.54000 F2400.000
;TYPE:External perimeter
G1 F1350.000
G1 X112.846 Y115.122 E0.56962
G1 X112.846 Y116.922 E0.62039
G1 X111.796 Y116.922 E0.65001
G1 X111.796 Y115.182 E0.69909
G1 X111.726 Y114.728 F18000.000
G1 E0.34909 F3600.000
;WIPE_START
G1 F14400.000
G1 X112.395 Y115.148 E0.20659
;WIPE_END
G1 E0.19909 F3600.000
G92 E0
G1 X111.795 Y117.622 F18000.000
G1 E0.54000 F2400.000
G1 F1350.000
G1 X112.847 Y117.622 E0.56966
G1 X112.842 Y118.529 E0.59524
G1 X112.755 Y119.843 E0.63239
G1 X111.888 Y119.843 E0.65686
G1 X111.800 Y118.529 E0.69401
G1 X111.796 Y117.682 E0.71790
G1 X111.790 Y117.222 F18000.000
G1 E0.36790 F3600.000
;WIPE_START
G1 F14400.000
G1 X112.395 Y117.648 E0.22540
;WIPE_END
G1 E0.21790 F3600.000
G92 E0
G1 X111.888 Y120.200 F18000.000
G1 E0.54000 F2400.000
G1 F1350.000
G1 X112.755 Y120.200 E0.56446
G1 X112.842 Y121.515 E0.60162
G1 X112.847 Y122.922 E0.64131
G1 X111.795 Y122.922 E0.67097
G1 X111.800 Y121.515 E0.71065
G1 X111.884 Y120.260 E0.74612
G1 X111.892 Y119.801 F18000.000
G1 E0.39612 F3600.000
;WIPE_START
G1 F14400.000
G1 X112.482 Y120.219 E0.25362
;WIPE_END
G1 E0.24612 F3600.000
G92 E0
G1 X113.832 Y111.658 F18000.000
G1 E0.54000 F2400.000
;TYPE:Perimeter
G1 F1350.000
G1 X116.560 Y111.658 E0.61696
G1 X116.556 Y118.555 E0.81150
G1 X116.459 Y120.022 E0.85297
G1 X116.556 Y121.490 E0.89448
G1 X116.564 Y123.636 E0.95501
G1 X113.829 Y123.636 E1.03215
G1 X113.836 Y121.490 E1.09268
G1 X113.934 Y120.022 E1.13418
G1 X113.836 Y118.555 E1.17566
G1 X113.832 Y111.718 E1.36851
G1 E1.01851 F3600.000
;WIPE_START
G1 F14400.000
G1 X114.432 Y111.705 E0.87601
;WIPE_END
G1 E0.86851 F3600.000
G92 E0
G1 X114.189 Y112.015 F18000.000
G1 E0.54000 F2400.000
G1 F1350.000
G1 X116.203 Y112.015 E0.59681
G1 X116.203 Y114.279 E0.66068
G1 X114.189 Y114.279 E0.71749
G1 X114.189 Y112.075 E0.77966
G1 E0.42966 F3600.000
;WIPE_START
G1 F14400.000
G1 X114.789 Y112.057 E0.28716
;WIPE_END
G1 E0.27966 F3600.000
G92 E0
G1 X114.546 Y112.372 F18000.000
G1 E0.54000 F2400.000
;TYPE:External perimeter
G1 F1350.000
G1 X115.846 Y112.372 E0.57667
G1 X115.846 Y113.922 E0.62039
G1 X114.546 Y113.922 E0.65706
G1 X114.546 Y112.432 E0.69909
G1 X114.454 Y111.983 F18000.000
G1 E0.34909 F3600.000
;WIPE_START
G1 F14400.000
G1 X115.146 Y112.404 E0.20659
;WIPE_END
G1 E0.19909 F3600.000
G92 E0
G1 X114.189 Y114.765 F18000.000
G1 E0.54000 F2400.000
;TYPE:Perimeter
G1 F1350.000
G1 X116.203 Y114.765 E0.59681
G1 X116.199 Y118.542 E0.70335
G1 X116.101 Y120.022 E0.74519
G1 X116.199 Y121.503 E0.78704
G1 X116.205 Y123.279 E0.83715
G1 X114.187 Y123.279 E0.89408
G1 X114.193 Y121.503 E0.94419
G1 X114.292 Y120.022 E0.98604
G1 X114.193 Y118.542 E1.02788
G1 X114.189 Y114.825 E1.13272
G1 E0.78272 F3600.000
;WIPE_START
G1 F14400.000
G1 X114.789 Y114.807 E0.64022
;WIPE_END
G1 E0.63272 F3600.000
G92 E0
G1 X114.546 Y115.122 F18000.000
G1 E0.54000 F2400.000
;TYPE:External perimeter
G1 F1350.000
G1 X115.846 Y115.122 E0.57667
G1 X115.846 Y116.922 E0.62744
G1 X114.546 Y116.922 E0.66411
G1 X114.546 Y115.182 E0.71319
G1 X114.463 Y114.731 F18000.000
G1 E0.36319 F3600.000
;WIPE_START
G1 F14400.000
G1 X115.146 Y115.154 E0.22069
;WIPE_END
G1 E0.21319 F3600.000
G92 E0
G1 X114.545 Y117.622 F18000.000
G1 E0.54000 F2400.000
G1 F1350.000
G1 X115.847 Y117.622 E0.57672
G1 X115.842 Y118.529 E0.60230
G1 X115.755 Y119.843 E0.63945
G1 X114.638 Y119.843 E0.67097
G1 X114.550 Y118.529 E0.70812
G1 X114.546 Y117.682 E0.73201
G1 X114.540 Y117.222 F18000.000
G1 E0.38201 F3600.000
;WIPE_START
G1 F14400.000
G1 X115.145 Y117.655 E0.23951
;WIPE_END
G1 E0.23201 F3600.000
G92 E0
G1 X114.638 Y120.200 F18000.000
G1 E0.54000 F2400.000
G1 F1350.000
G1 X115.755 Y120.200 E0.57152
G1 X115.842 Y121.515 E0.60867
G1 X115.847 Y122.922 E0.64836
G1 X114.545 Y122.922 E0.68507
G1 X114.550 Y121.515 E0.72476
G1 X114.634 Y120.260 E0.76022
G1 X114.642 Y119.801 F18000.000
G1 E0.41022 F3600.000
;WIPE_START
G1 F14400.000
G1 X115.233 Y120.228 E0.26772
;WIPE_END
G1 E0.26022 F3600.000
G92 E0
G1 X128.560 Y111.657 F18000.000
G1 E0.54000 F2400.000
;TYPE:Perimeter
G1 F2700.000
G1 X128.556 Y118.555 E0.73455
G1 X128.459 Y120.022 E0.77603
G1 X128.556 Y121.490 E0.81753
G1 X128.564 Y123.639 E0.87815
G1 X126.414 Y123.632 E0.93878
G1 X124.946 Y123.534 E0.98028
G1 X123.479 Y123.632 E1.02175
G1 X116.579 Y123.636 E1.21639
G1 X116.586 Y121.490 E1.27692
G1 X116.684 Y120.022 E1.31842
G1 X116.586 Y118.555 E1.35990
G1 X116.582 Y111.658 E1.55444
G1 X123.479 Y111.662 E1.74898
G1 X124.984 Y111.762 E1.79151
G1 X125.896 Y111.685 E1.81734
G1 X126.934 Y111.658 E1.84663
G1 X128.500 Y111.657 E1.89081
G1 E1.54081 F3600.000
;WIPE_START
G1 F14400.000
G1 X128.505 Y112.257 E1.39831
;WIPE_END
G1 E1.39081 F3600.000
G92 E0
G1 X119.203 Y112.015 F18000.000
G1 E0.54000 F2400.000
G1 F1350.000
G1 X119.203 Y114.279 E0.60386
G1 X116.939 Y114.279 E0.66773
G1 X116.939 Y112.015 E0.73159
