; generated by PrusaSlicer 2.3.0+win64 on 2021-02-28 at 14:40:02 UTC

; 

; external perimeters extrusion width = 0.45mm
; perimeters extrusion width = 0.45mm
; infill extrusion width = 0.45mm
; solid infill extrusion width = 0.45mm
; top infill extrusion width = 0.40mm
; first layer extrusion width = 0.30mm

M73 P0 R34
M73 Q0 S34
M201 X500 Y500 Z100 E5000 ; sets maximum accelerations, mm/sec^2
M203 X500 Y500 Z10 E60 ; sets maximum feedrates, mm/sec
M204 P500 R1000 T500 ; sets acceleration (P, T) and retract acceleration (R), mm/sec^2
M205 X8.00 Y8.00 Z0.40 E5.00 ; sets the jerk limits, mm/sec
M205 S0 T0 ; sets the minimum extruding and travel feed rate, mm/sec
M107
;TYPE:Custom
G90 ; use absolute coordinates
M83 ; extruder relative mode
M104 S215 ; set extruder temp
M140 S60 ; set bed temp
M190 S60 ; wait for bed temp
M109 S215 ; wait for extruder temp
M204 S600 ;acceleration
M220 S100 ;Reset Feedrate
M221 S100 ;Reset Flowrate
G28 ; home all
G29
G1 Z2 F240
G1 X2 Y10 F3000
G1 Z0.28 F240
G92 E0.0
G1 Y190 E15.0 F1500.0 ; intro line
G1 X2.3 F5000
G1 Y10 E30 F1200.0 ; intro line
G92 E0.0
G21 ; set units to millimeters
G90 ; use absolute coordinates
M82 ; use absolute distances for extrusion
G92 E0
; Filament gcode
;LAYER_CHANGE
;Z:0.2
;HEIGHT:0.2
;BEFORE_LAYER_CHANGE
M117 INDICATOR-Layer1
;0.2


G1 E-0.50000 F3600.000
G92 E0
G1 Z0.200 F18000.000
;AFTER_LAYER_CHANGE
;0.2
G1 X121.207 Y114.603
G1 E0.58000 F2400.000
;TYPE:Perimeter
;WIDTH:0.3
G1 F540.000
G1 X121.659 Y114.227 E0.59030
G1 X122.160 Y113.921 E0.60059
G1 X122.707 Y113.689 E0.61101
G1 X123.327 Y113.537 E0.62220
G1 X123.853 Y113.479 E0.63148
G1 X124.440 Y113.500 E0.64178
G1 X125.018 Y113.607 E0.65207
G1 X125.574 Y113.797 E0.66237
G1 X126.096 Y114.065 E0.67267
G1 X126.574 Y114.407 E0.68296
G1 X126.997 Y114.815 E0.69326
G1 X127.356 Y115.280 E0.70356
G1 X127.643 Y115.792 E0.71386
G1 X127.853 Y116.341 E0.72415
G1 X127.981 Y116.914 E0.73445
G1 X128.024 Y117.507 E0.74487
G1 X127.968 Y118.142 E0.75605
G1 X127.853 Y118.659 E0.76534
G1 X127.643 Y119.208 E0.77563
G1 X127.356 Y119.720 E0.78593
G1 X126.997 Y120.185 E0.79623
G1 X126.574 Y120.593 E0.80652
G1 X126.096 Y120.935 E0.81682
G1 X125.574 Y121.203 E0.82712
G1 X125.018 Y121.393 E0.83742
M73 P1 R34
M73 Q1 S34
G1 X124.440 Y121.500 E0.84771
G1 X123.853 Y121.521 E0.85801
G1 X123.269 Y121.457 E0.86831
G1 X122.701 Y121.308 E0.87861
G1 X122.160 Y121.079 E0.88890
G1 X121.659 Y120.773 E0.89920
G1 X121.207 Y120.397 E0.90950
G1 X120.815 Y119.959 E0.91980
G1 X120.487 Y119.464 E0.93021
G1 X120.225 Y118.882 E0.94140
G1 X120.072 Y118.375 E0.95068
G1 X119.987 Y117.794 E0.96098
G1 X119.987 Y117.206 E0.97127
G1 X120.072 Y116.625 E0.98157
G1 X120.242 Y116.063 E0.99187
G1 X120.491 Y115.531 E1.00217
G1 X120.815 Y115.041 E1.01246
G1 X121.167 Y114.648 E1.02171
G1 X121.358 Y114.819 F18000.000
G1 F540.000
G1 X121.809 Y114.437 E1.03206
G1 X122.278 Y114.151 E1.04170
G1 X122.789 Y113.934 E1.05142
G1 X123.372 Y113.790 E1.06195
G1 X123.862 Y113.736 E1.07060
G1 X124.412 Y113.756 E1.08024
G1 X124.953 Y113.856 E1.08988
G1 X125.473 Y114.034 E1.09952
G1 X125.962 Y114.285 E1.10915
G1 X126.409 Y114.605 E1.11879
G1 X126.805 Y114.987 E1.12843
G1 X127.141 Y115.422 E1.13807
G1 X127.410 Y115.901 E1.14771
G1 X127.607 Y116.415 E1.15734
G1 X127.726 Y116.952 E1.16698
G1 X127.767 Y117.505 E1.17671
G1 X127.714 Y118.103 E1.18723
G1 X127.607 Y118.585 E1.19589
G1 X127.410 Y119.099 E1.20552
G1 X127.141 Y119.578 E1.21516
G1 X126.805 Y120.013 E1.22480
G1 X126.409 Y120.395 E1.23444
G1 X125.962 Y120.715 E1.24407
G1 X125.473 Y120.966 E1.25371
G1 X124.953 Y121.144 E1.26335
G1 X124.412 Y121.244 E1.27299
G1 X123.862 Y121.264 E1.28263
G1 X123.316 Y121.204 E1.29226
G1 X122.784 Y121.064 E1.30190
G1 X122.278 Y120.849 E1.31154
G1 X121.809 Y120.563 E1.32118
G1 X121.386 Y120.211 E1.33081
G1 X121.019 Y119.802 E1.34045
G1 X120.713 Y119.339 E1.35018
G1 X120.466 Y118.792 E1.36070
G1 X120.324 Y118.319 E1.36936
G1 X120.244 Y117.775 E1.37899
G1 X120.244 Y117.225 E1.38863
G1 X120.324 Y116.681 E1.39827
G1 X120.482 Y116.155 E1.40791
G1 X120.716 Y115.657 E1.41754
G1 X121.019 Y115.198 E1.42718
G1 X121.318 Y114.864 E1.43505
G1 X121.510 Y115.036 F18000.000
G1 F540.000
G1 X121.959 Y114.647 E1.44546
G1 X122.396 Y114.380 E1.45443
G1 X122.870 Y114.178 E1.46346
G1 X123.417 Y114.044 E1.47333
G1 X123.872 Y113.994 E1.48136
G1 X124.384 Y114.013 E1.49034
G1 X124.887 Y114.106 E1.49932
G1 X125.372 Y114.271 E1.50829
G1 X125.828 Y114.505 E1.51727
G1 X126.244 Y114.803 E1.52625
G1 X126.613 Y115.159 E1.53523
G1 X126.926 Y115.564 E1.54421
G1 X127.177 Y116.011 E1.55318
G1 X127.360 Y116.489 E1.56216
G1 X127.471 Y116.989 E1.57114
G1 X127.509 Y117.503 E1.58017
G1 X127.459 Y118.064 E1.59004
G1 X127.360 Y118.511 E1.59807
G1 X127.177 Y118.989 E1.60704
G1 X126.926 Y119.436 E1.61602
G1 X126.613 Y119.841 E1.62500
G1 X126.244 Y120.197 E1.63398
G1 X125.828 Y120.495 E1.64296
G1 X125.372 Y120.729 E1.65193
G1 X124.887 Y120.894 E1.66091
G1 X124.384 Y120.987 E1.66989
G1 X123.872 Y121.006 E1.67887
G1 X123.363 Y120.950 E1.68785
G1 X122.867 Y120.821 E1.69682
G1 X122.396 Y120.620 E1.70580
G1 X121.959 Y120.353 E1.71478
G1 X121.565 Y120.026 E1.72376
M73 P1 R33
M73 Q1 S33
G1 X121.223 Y119.644 E1.73274
G1 X120.939 Y119.215 E1.74177
G1 X120.707 Y118.701 E1.75163
G1 X120.576 Y118.263 E1.75966
G1 X120.501 Y117.756 E1.76864
G1 X120.501 Y117.244 E1.77762
G1 X120.576 Y116.737 E1.78660
G1 X120.723 Y116.247 E1.79558
G1 X120.940 Y115.783 E1.80455
G1 X121.223 Y115.356 E1.81353
G1 X121.470 Y115.080 E1.82001
G1 X121.744 Y115.160 F18000.000
;TYPE:External perimeter
G1 F540.000
G1 X122.109 Y114.856 E1.82833
G1 X122.514 Y114.609 E1.83665
G1 X122.951 Y114.423 E1.84499
G1 X123.461 Y114.298 E1.85420
G1 X123.881 Y114.251 E1.86160
G1 X124.356 Y114.269 E1.86992
G1 X124.822 Y114.355 E1.87823
G1 X125.271 Y114.508 E1.88655
G1 X125.693 Y114.725 E1.89487
G1 X126.079 Y115.001 E1.90319
G1 X126.421 Y115.331 E1.91151
G1 X126.711 Y115.706 E1.91983
G1 X126.943 Y116.120 E1.92815
G1 X127.113 Y116.563 E1.93646
G1 X127.216 Y117.027 E1.94478
G1 X127.251 Y117.501 E1.95312
G1 X127.205 Y118.024 E1.96233
G1 X127.113 Y118.437 E1.96973
G1 X126.943 Y118.880 E1.97805
G1 X126.711 Y119.294 E1.98637
G1 X126.421 Y119.669 E1.99468
G1 X126.079 Y119.999 E2.00300
G1 X125.693 Y120.275 E2.01132
G1 X125.271 Y120.492 E2.01964
G1 X124.822 Y120.645 E2.02796
G1 X124.356 Y120.731 E2.03628
G1 X123.881 Y120.749 E2.04460
G1 X123.410 Y120.697 E2.05291
G1 X122.950 Y120.577 E2.06123
G1 X122.514 Y120.391 E2.06955
G1 X122.109 Y120.144 E2.07787
G1 X121.744 Y119.840 E2.08619
G1 X121.427 Y119.487 E2.09451
G1 X121.165 Y119.090 E2.10284
G1 X120.949 Y118.611 E2.11205
G1 X120.827 Y118.207 E2.11945
G1 X120.758 Y117.737 E2.12777
G1 X120.758 Y117.263 E2.13609
G1 X120.827 Y116.793 E2.14441
G1 X120.964 Y116.339 E2.15273
G1 X121.165 Y115.909 E2.16105
G1 X121.427 Y115.513 E2.16936
G1 X121.704 Y115.205 E2.17663
G1 X121.647 Y114.772 F18000.000
G1 E1.82663 F3600.000
;WIPE_START
G1 F14400.000
G1 X122.109 Y114.856 E1.69981
G1 X122.165 Y114.822 E1.68413
;WIPE_END
G1 E1.67663 F3600.000
G92 E0
G1 X99.981 Y116.914 F18000.000
G1 E0.58000 F2400.000
;TYPE:Perimeter
G1 F540.000
G1 X100.024 Y117.500 E0.59030
G1 X99.981 Y118.086 E0.60059
G1 X99.852 Y118.666 E0.61101
G1 X99.615 Y119.259 E0.62220
G1 X99.356 Y119.720 E0.63148
G1 X98.997 Y120.185 E0.64178
G1 X98.574 Y120.593 E0.65207
G1 X98.096 Y120.935 E0.66237
G1 X97.574 Y121.203 E0.67267
G1 X97.018 Y121.393 E0.68297
G1 X96.440 Y121.500 E0.69326
G1 X95.853 Y121.521 E0.70356
G1 X95.262 Y121.456 E0.71398
G1 X94.647 Y121.286 E0.72516
G1 X94.160 Y121.079 E0.73444
G1 X93.653 Y120.769 E0.74486
G1 X93.168 Y120.354 E0.75605
G1 X92.815 Y119.959 E0.76533
G1 X92.487 Y119.464 E0.77574
G1 X92.225 Y118.882 E0.78693
G1 X92.072 Y118.375 E0.79621
G1 X91.987 Y117.794 E0.80651
G1 X91.987 Y117.206 E0.81681
G1 X92.072 Y116.625 E0.82710
G1 X92.242 Y116.063 E0.83740
G1 X92.491 Y115.531 E0.84770
G1 X92.815 Y115.041 E0.85799
G1 X93.207 Y114.603 E0.86829
G1 X93.659 Y114.227 E0.87859
G1 X94.160 Y113.921 E0.88889
G1 X94.707 Y113.689 E0.89930
G1 X95.327 Y113.537 E0.91049
G1 X95.853 Y113.479 E0.91977
G1 X96.440 Y113.500 E0.93007
G1 X97.018 Y113.607 E0.94037
G1 X97.574 Y113.797 E0.95066
G1 X98.096 Y114.065 E0.96096
G1 X98.580 Y114.411 E0.97138
G1 X99.032 Y114.861 E0.98256
G1 X99.356 Y115.280 E0.99184
G1 X99.643 Y115.792 E1.00214
G1 X99.853 Y116.341 E1.01244
G1 X99.968 Y116.856 E1.02168
G1 X99.717 Y116.911 F18000.000
G1 F540.000
G1 X99.766 Y117.500 E1.03204
G1 X99.726 Y118.048 E1.04167
G1 X99.605 Y118.590 E1.05140
G1 X99.383 Y119.147 E1.06192
G1 X99.141 Y119.578 E1.07058
G1 X98.805 Y120.013 E1.08022
G1 X98.409 Y120.395 E1.08985
G1 X97.962 Y120.715 E1.09949
G1 X97.473 Y120.966 E1.10913
G1 X96.953 Y121.144 E1.11877
G1 X96.412 Y121.244 E1.12841
G1 X95.862 Y121.264 E1.13804
G1 X95.311 Y121.203 E1.14777
G1 X94.732 Y121.043 E1.15829
G1 X94.278 Y120.849 E1.16695
G1 X93.804 Y120.560 E1.17667
G1 X93.349 Y120.170 E1.18720
G1 X93.019 Y119.802 E1.19585
G1 X92.713 Y119.339 E1.20558
G1 X92.466 Y118.792 E1.21610
G1 X92.324 Y118.319 E1.22476
G1 X92.244 Y117.775 E1.23439
G1 X92.244 Y117.225 E1.24403
G1 X92.324 Y116.681 E1.25367
G1 X92.482 Y116.155 E1.26331
G1 X92.716 Y115.657 E1.27295
G1 X93.019 Y115.198 E1.28258
G1 X93.386 Y114.789 E1.29222
G1 X93.809 Y114.437 E1.30186
G1 X94.278 Y114.151 E1.31150
G1 X94.789 Y113.934 E1.32122
G1 X95.372 Y113.790 E1.33175
G1 X95.862 Y113.736 E1.34040
G1 X96.412 Y113.756 E1.35004
G1 X96.953 Y113.856 E1.35968
G1 X97.473 Y114.034 E1.36931
G1 X97.962 Y114.285 E1.37895
G1 X98.413 Y114.608 E1.38868
G1 X98.839 Y115.031 E1.39920
G1 X99.141 Y115.422 E1.40786
G1 X99.410 Y115.901 E1.41749
G1 X99.607 Y116.415 E1.42713
G1 X99.704 Y116.853 E1.43500
G1 X99.453 Y116.909 F18000.000
G1 F540.000
G1 X99.508 Y117.500 E1.44541
G1 X99.471 Y118.011 E1.45438
G1 X99.359 Y118.514 E1.46341
G1 X99.150 Y119.036 E1.47328
G1 X98.926 Y119.436 E1.48131
G1 X98.613 Y119.841 E1.49029
G1 X98.244 Y120.197 E1.49927
G1 X97.828 Y120.495 E1.50824
G1 X97.372 Y120.729 E1.51722
G1 X96.887 Y120.894 E1.52620
G1 X96.384 Y120.987 E1.53518
G1 X95.872 Y121.006 E1.54416
G1 X95.360 Y120.950 E1.55319
G1 X94.817 Y120.799 E1.56305
G1 X94.396 Y120.620 E1.57108
G1 X93.956 Y120.352 E1.58011
G1 X93.529 Y119.985 E1.58998
G1 X93.223 Y119.644 E1.59801
G1 X92.939 Y119.215 E1.60704
G1 X92.707 Y118.701 E1.61690
G1 X92.576 Y118.263 E1.62493
G1 X92.501 Y117.756 E1.63391
G1 X92.501 Y117.244 E1.64289
G1 X92.576 Y116.737 E1.65187
G1 X92.723 Y116.247 E1.66085
G1 X92.940 Y115.783 E1.66982
G1 X93.223 Y115.356 E1.67880
G1 X93.565 Y114.974 E1.68778
G1 X93.959 Y114.647 E1.69676
G1 X94.396 Y114.380 E1.70574
G1 X94.870 Y114.178 E1.71477
G1 X95.417 Y114.044 E1.72463
G1 X95.872 Y113.994 E1.73266
G1 X96.384 Y114.013 E1.74164
G1 X96.887 Y114.106 E1.75062
G1 X97.372 Y114.271 E1.75960
G1 X97.828 Y114.505 E1.76857
G1 X98.247 Y114.805 E1.77761
G1 X98.646 Y115.202 E1.78747
G1 X98.926 Y115.564 E1.79550
G1 X99.177 Y116.011 E1.80448
G1 X99.360 Y116.489 E1.81346
G1 X99.440 Y116.850 E1.81994
G1 X99.216 Y117.027 F18000.000
;TYPE:External perimeter
G1 F540.000
G1 X99.251 Y117.500 E1.82826
G1 X99.216 Y117.973 E1.83658
G1 X99.113 Y118.438 E1.84491
G1 X98.918 Y118.925 E1.85412
G1 X98.711 Y119.294 E1.86152
G1 X98.421 Y119.669 E1.86984
G1 X98.079 Y119.999 E1.87816
G1 X97.693 Y120.275 E1.88648
G1 X97.271 Y120.492 E1.89480
G1 X96.822 Y120.645 E1.90311
G1 X96.356 Y120.731 E1.91143
G1 X95.881 Y120.749 E1.91975
G1 X95.408 Y120.696 E1.92809
G1 X94.902 Y120.556 E1.93730
G1 X94.514 Y120.391 E1.94470
G1 X94.108 Y120.143 E1.95304
G1 X93.709 Y119.801 E1.96224
G1 X93.427 Y119.487 E1.96965
G1 X93.165 Y119.090 E1.97798
G1 X92.949 Y118.611 E1.98719
G1 X92.827 Y118.207 E1.99459
G1 X92.758 Y117.737 E2.00291
G1 X92.758 Y117.263 E2.01123
G1 X92.827 Y116.793 E2.01955
G1 X92.964 Y116.339 E2.02787
G1 X93.165 Y115.909 E2.03618
G1 X93.427 Y115.513 E2.04450
G1 X93.744 Y115.160 E2.05282
G1 X94.109 Y114.856 E2.06114
G1 X94.514 Y114.609 E2.06946
G1 X94.951 Y114.423 E2.07780
G1 X95.461 Y114.298 E2.08700
G1 X95.881 Y114.251 E2.09441
G1 X96.356 Y114.269 E2.10272
G1 X96.822 Y114.355 E2.11104
G1 X97.271 Y114.508 E2.11936
G1 X97.693 Y114.725 E2.12768
G1 X98.080 Y115.002 E2.13602
G1 X98.453 Y115.372 E2.14522
G1 X98.711 Y115.706 E2.15263
G1 X98.943 Y116.120 E2.16094
G1 X99.113 Y116.563 E2.16926
G1 X99.203 Y116.968 E2.17653
G1 X99.588 Y117.174 F18000.000
G1 E1.82653 F3600.000
;WIPE_START
G1 F14400.000
G1 X99.251 Y117.500 E1.69970
G1 X99.246 Y117.566 E1.68403
;WIPE_END
G1 E1.67653 F3600.000
G92 E0
G1 X123.979 Y101.721 F18000.000
G1 E0.58000 F2400.000
;TYPE:Perimeter
G1 F2700.000
G1 X129.979 Y101.721 E0.68517
G1 X129.979 Y117.476 E0.96134
M73 P2 R33
M73 Q2 S33
G1 X129.952 Y118.052 E0.97143
G1 X129.876 Y118.598 E0.98111
G1 X129.749 Y119.136 E0.99078
G1 X129.577 Y119.649 E1.00027
G1 X129.351 Y120.165 E1.01015
G1 X129.082 Y120.647 E1.01982
G1 X128.770 Y121.102 E1.02950
G1 X128.418 Y121.527 E1.03917
G1 X128.027 Y121.918 E1.04885
G1 X127.602 Y122.270 E1.05853
G1 X127.147 Y122.582 E1.06821
G1 X126.664 Y122.851 E1.07789
G1 X126.159 Y123.074 E1.08757
G1 X125.636 Y123.249 E1.09724
G1 X125.098 Y123.376 E1.10692
G1 X124.552 Y123.452 E1.11660
G1 X123.976 Y123.479 E1.12669
G1 X96.024 Y123.479 E1.61666
G1 X95.448 Y123.452 E1.62676
G1 X94.902 Y123.376 E1.63643
G1 X94.364 Y123.249 E1.64611
G1 X93.851 Y123.077 E1.65560
G1 X93.335 Y122.851 E1.66548
G1 X92.853 Y122.582 E1.67515
G1 X92.398 Y122.270 E1.68482
G1 X91.973 Y121.918 E1.69450
G1 X91.582 Y121.527 E1.70418
G1 X91.230 Y121.102 E1.71386
G1 X90.918 Y120.647 E1.72354
G1 X90.649 Y120.164 E1.73322
G1 X90.426 Y119.659 E1.74289
G1 X90.251 Y119.136 E1.75257
G1 X90.124 Y118.598 E1.76225
G1 X90.048 Y118.052 E1.77193
G1 X90.021 Y117.476 E1.78202
G1 X90.021 Y101.721 E2.05819
G1 X96.021 Y101.721 E2.16336
G1 X96.021 Y96.521 E2.25451
G1 X123.979 Y96.521 E2.74456
G1 X123.979 Y101.661 E2.83466
G1 X124.236 Y101.464 F18000.000
G1 F2700.000
G1 X130.236 Y101.464 E2.93983
G1 X130.236 Y117.482 E3.22060
G1 X130.208 Y118.075 E3.23101
G1 X130.129 Y118.646 E3.24110
G1 X129.997 Y119.206 E3.25120
G1 X129.817 Y119.742 E3.26110
G1 X129.581 Y120.280 E3.27140
G1 X129.301 Y120.782 E3.28148
G1 X128.976 Y121.257 E3.29158
G1 X128.608 Y121.701 E3.30167
G1 X128.201 Y122.108 E3.31177
G1 X127.757 Y122.476 E3.32186
G1 X127.282 Y122.801 E3.33196
G1 X126.779 Y123.081 E3.34205
G1 X126.252 Y123.314 E3.35215
G1 X125.706 Y123.497 E3.36224
G1 X125.146 Y123.629 E3.37233
G1 X124.575 Y123.708 E3.38243
G1 X123.982 Y123.736 E3.39283
G1 X96.018 Y123.736 E3.88301
G1 X95.425 Y123.708 E3.89342
G1 X94.854 Y123.629 E3.90351
G1 X94.294 Y123.497 E3.91361
G1 X93.758 Y123.317 E3.92351
G1 X93.220 Y123.081 E3.93381
G1 X92.718 Y122.801 E3.94389
G1 X92.243 Y122.476 E3.95399
G1 X91.799 Y122.108 E3.96408
G1 X91.392 Y121.701 E3.97418
G1 X91.024 Y121.257 E3.98427
G1 X90.699 Y120.782 E3.99437
G1 X90.419 Y120.279 E4.00446
G1 X90.186 Y119.752 E4.01456
G1 X90.003 Y119.206 E4.02465
G1 X89.871 Y118.646 E4.03475
G1 X89.792 Y118.075 E4.04484
G1 X89.764 Y117.482 E4.05525
G1 X89.764 Y101.464 E4.33602
G1 X95.764 Y101.464 E4.44119
G1 X95.764 Y96.264 E4.53234
G1 X124.236 Y96.264 E5.03141
G1 X124.236 Y101.404 E5.12150
G1 X124.493 Y101.207 F18000.000
G1 F2700.000
G1 X130.493 Y101.207 E5.22668
G1 X130.493 Y117.488 E5.51206
G1 X130.465 Y118.099 E5.52278
G1 X130.382 Y118.693 E5.53329
G1 X130.245 Y119.277 E5.54380
G1 X130.058 Y119.835 E5.55412
G1 X129.812 Y120.394 E5.56483
G1 X129.520 Y120.918 E5.57533
G1 X129.181 Y121.413 E5.58585
G1 X128.798 Y121.874 E5.59636
G1 X128.374 Y122.298 E5.60687
G1 X127.913 Y122.681 E5.61738
G1 X127.418 Y123.020 E5.62789
G1 X126.894 Y123.312 E5.63840
G1 X126.345 Y123.554 E5.64892
G1 X125.777 Y123.745 E5.65943
G1 X125.193 Y123.882 E5.66994
G1 X124.599 Y123.965 E5.68045
G1 X123.988 Y123.993 E5.69117
G1 X96.012 Y123.993 E6.18156
G1 X95.401 Y123.965 E6.19227
G1 X94.807 Y123.882 E6.20278
G1 X94.223 Y123.745 E6.21330
G1 X93.665 Y123.558 E6.22361
G1 X93.106 Y123.312 E6.23432
G1 X92.582 Y123.020 E6.24483
G1 X92.087 Y122.681 E6.25534
G1 X91.626 Y122.298 E6.26585
G1 X91.202 Y121.874 E6.27636
G1 X90.819 Y121.413 E6.28688
G1 X90.480 Y120.918 E6.29739
