; generated by PrusaSlicer 2.3.0+win64 on 2021-02-17 at 19:21:11 UTC

; 

; external perimeters extrusion width = 0.45mm
; perimeters extrusion width = 0.45mm
; infill extrusion width = 0.45mm
; solid infill extrusion width = 0.45mm
; top infill extrusion width = 0.40mm
; support material extrusion width = 0.38mm
; first layer extrusion width = 0.35mm

M73 P0 R30
M73 Q0 S30
M201 X500 Y500 Z100 E5000 ; sets maximum accelerations, mm/sec^2
M203 X500 Y500 Z10 E60 ; sets maximum feedrates, mm/sec
M204 P500 R1000 T500 ; sets acceleration (P, T) and retract acceleration (R), mm/sec^2
M205 X8.00 Y8.00 Z0.40 E5.00 ; sets the jerk limits, mm/sec
M205 S0 T0 ; sets the minimum extruding and travel feed rate, mm/sec
M107
;TYPE:Custom
G90 ; use absolute coordinates
M83 ; extruder relative mode
M104 S215 ; set extruder temp
M140 S60 ; set bed temp
M190 S60 ; wait for bed temp
M109 S215 ; wait for extruder temp
G28 ; home all
G1 Z2 F240
G1 X2 Y10 F3000
G1 Z0.28 F240
G92 E0.0
M73 P0 R29
M73 Q0 S29
G1 Y190 E15.0 F1500.0 ; intro line
G1 X2.3 F5000
G1 Y10 E30 F1200.0 ; intro line
G92 E0.0
G21 ; set units to millimeters
G90 ; use absolute coordinates
M82 ; use absolute distances for extrusion
G92 E0
; Filament gcode
;LAYER_CHANGE
;Z:0.2
;HEIGHT:0.2
;BEFORE_LAYER_CHANGE
M117 INDICATOR-Layer1
;0.2


G1 E-0.50000 F3600.000
G92 E0
G1 Z0.200 F18000.000
;AFTER_LAYER_CHANGE
;0.2
G1 X89.175 Y96.175
M73 P1 R29
M73 Q1 S29
G1 E0.60000 F2400.000
;TYPE:External perimeter
;WIDTH:0.35
G1 F6000.000
G1 X130.825 Y96.175 E1.49332
G1 X130.825 Y116.996 E1.93990
G1 X130.796 Y117.630 E1.95351
G1 X130.709 Y118.254 E1.96703
G1 X130.564 Y118.868 E1.98055
G1 X130.364 Y119.465 E1.99407
G1 X130.109 Y120.042 E2.00759
G1 X129.803 Y120.593 E2.02111
G1 X129.436 Y121.125 E2.03497
G1 X129.044 Y121.598 E2.04815
G1 X128.598 Y122.044 E2.06167
G1 X128.113 Y122.446 E2.07519
G1 X127.593 Y122.803 E2.08871
G1 X127.042 Y123.109 E2.10224
G1 X126.465 Y123.364 E2.11576
G1 X125.868 Y123.564 E2.12928
G1 X125.254 Y123.709 E2.14280
G1 X124.630 Y123.796 E2.15632
G1 X123.996 Y123.825 E2.16993
G1 X96.004 Y123.825 E2.77031
G1 X95.370 Y123.796 E2.78391
G1 X94.746 Y123.709 E2.79743
G1 X94.132 Y123.564 E2.81096
G1 X93.535 Y123.364 E2.82448
G1 X92.958 Y123.109 E2.83800
G1 X92.407 Y122.803 E2.85152
G1 X91.887 Y122.446 E2.86504
G1 X91.402 Y122.044 E2.87856
G1 X90.956 Y121.598 E2.89208
G1 X90.554 Y121.113 E2.90560
G1 X90.197 Y120.593 E2.91912
G1 X89.891 Y120.042 E2.93264
G1 X89.636 Y119.465 E2.94616
G1 X89.436 Y118.868 E2.95968
G1 X89.291 Y118.254 E2.97320
G1 X89.204 Y117.630 E2.98673
G1 X89.175 Y116.996 E3.00033
G1 X89.175 Y96.235 E3.44562
G1 X89.522 Y96.375 F18000.000
G1 X89.482 Y96.482
;TYPE:Perimeter
G1 F1800.000
G1 X130.518 Y96.482 E4.32577
G1 X130.518 Y116.989 E4.76561
G1 X130.490 Y117.601 E4.77876
G1 X130.406 Y118.198 E4.79167
G1 X130.269 Y118.784 E4.80459
G1 X130.077 Y119.354 E4.81750
G1 X129.834 Y119.905 E4.83041
G1 X129.541 Y120.430 E4.84331
G1 X129.191 Y120.940 E4.85657
G1 X128.816 Y121.391 E4.86914
G1 X128.391 Y121.816 E4.88205
G1 X127.928 Y122.201 E4.89497
G1 X127.431 Y122.541 E4.90788
G1 X126.905 Y122.834 E4.92079
G1 X126.354 Y123.077 E4.93370
G1 X125.784 Y123.269 E4.94661
G1 X125.198 Y123.406 E4.95953
G1 X124.601 Y123.490 E4.97244
G1 X123.989 Y123.518 E4.98559
G1 X96.011 Y123.518 E5.58566
G1 X95.399 Y123.490 E5.59882
G1 X94.802 Y123.406 E5.61173
G1 X94.216 Y123.269 E5.62464
G1 X93.646 Y123.077 E5.63755
G1 X93.095 Y122.834 E5.65046
G1 X92.569 Y122.541 E5.66337
G1 X92.072 Y122.201 E5.67629
G1 X91.609 Y121.816 E5.68920
G1 X91.184 Y121.391 E5.70211
G1 X90.799 Y120.928 E5.71502
G1 X90.459 Y120.431 E5.72793
G1 X90.166 Y119.905 E5.74084
G1 X89.923 Y119.354 E5.75376
G1 X89.731 Y118.784 E5.76667
G1 X89.594 Y118.198 E5.77958
G1 X89.510 Y117.601 E5.79249
G1 X89.482 Y116.989 E5.80564
G1 X89.482 Y96.542 E6.24419
G1 X89.789 Y96.789 F18000.000
G1 F1800.000
G1 X130.211 Y96.789 E7.11117
G1 X130.211 Y116.982 E7.54427
G1 X130.184 Y117.573 E7.55697
G1 X130.104 Y118.141 E7.56927
G1 X129.973 Y118.699 E7.58157
G1 X129.791 Y119.243 E7.59387
G1 X129.559 Y119.768 E7.60618
G1 X129.280 Y120.268 E7.61846
G1 X128.946 Y120.754 E7.63111
G1 X128.589 Y121.184 E7.64308
G1 X128.184 Y121.589 E7.65539
G1 X127.742 Y121.956 E7.66769
G1 X127.269 Y122.280 E7.67999
G1 X126.768 Y122.559 E7.69229
G1 X126.243 Y122.791 E7.70460
G1 X125.699 Y122.973 E7.71690
G1 X125.141 Y123.104 E7.72920
G1 X124.573 Y123.184 E7.74151
G1 X123.982 Y123.211 E7.75420
G1 X96.018 Y123.211 E8.35397
G1 X95.427 Y123.184 E8.36667
G1 X94.859 Y123.104 E8.37897
G1 X94.301 Y122.973 E8.39127
G1 X93.757 Y122.791 E8.40357
G1 X93.232 Y122.559 E8.41588
G1 X92.731 Y122.280 E8.42818
G1 X92.258 Y121.956 E8.44048
G1 X91.816 Y121.589 E8.45279
G1 X91.411 Y121.184 E8.46509
G1 X91.044 Y120.742 E8.47739
G1 X90.720 Y120.269 E8.48969
G1 X90.441 Y119.768 E8.50200
G1 X90.209 Y119.243 E8.51430
G1 X90.027 Y118.699 E8.52660
G1 X89.896 Y118.141 E8.53890
G1 X89.816 Y117.573 E8.55121
G1 X89.789 Y116.982 E8.56390
G1 X89.789 Y96.849 E8.99571
G1 E8.64571 F3600.000
;WIPE_START
G1 F14400.000
G1 X90.389 Y96.848 E8.50321
;WIPE_END
G1 E8.49571 F3600.000
G92 E0
G1 X94.975 Y113.995 F18000.000
G1 E0.60000 F2400.000
;TYPE:External perimeter
G1 F900.000
G1 X95.423 Y113.877 E0.60994
G1 X95.839 Y113.832 E0.61892
G1 X96.346 Y113.843 E0.62980
G1 X96.803 Y113.928 E0.63976
G1 X97.242 Y114.077 E0.64971
G1 X97.654 Y114.289 E0.65965
G1 X98.031 Y114.559 E0.66959
G1 X98.365 Y114.881 E0.67954
G1 X98.648 Y115.248 E0.68948
G1 X98.853 Y115.613 E0.69846
G1 X99.041 Y116.084 E0.70933
G1 X99.142 Y116.538 E0.71930
G1 X99.175 Y117.000 E0.72924
G1 X99.142 Y117.462 E0.73919
G1 X99.041 Y117.915 E0.74913
G1 X98.875 Y118.348 E0.75907
G1 X98.648 Y118.752 E0.76902
G1 X98.392 Y119.083 E0.77800
G1 X98.032 Y119.440 E0.78887
G1 X97.654 Y119.711 E0.79884
G1 X97.242 Y119.923 E0.80878
G1 X96.846 Y120.058 E0.81776
G1 X96.348 Y120.156 E0.82863
G1 X95.884 Y120.173 E0.83860
G1 X95.423 Y120.123 E0.84854
G1 X95.018 Y120.017 E0.85752
G1 X94.549 Y119.825 E0.86840
G1 X94.152 Y119.583 E0.87836
G1 X93.796 Y119.286 E0.88831
G1 X93.487 Y118.941 E0.89825
G1 X93.231 Y118.554 E0.90819
G1 X93.034 Y118.134 E0.91814
G1 X92.901 Y117.690 E0.92808
G1 X92.833 Y117.232 E0.93802
G1 X92.833 Y116.768 E0.94797
G1 X92.901 Y116.310 E0.95791
G1 X93.021 Y115.909 E0.96689
G1 X93.230 Y115.447 E0.97776
G1 X93.487 Y115.059 E0.98773
G1 X93.796 Y114.714 E0.99767
G1 X94.152 Y114.417 E1.00762
G1 X94.548 Y114.176 E1.01756
G1 X94.919 Y114.018 E1.02622
G1 X95.052 Y113.602 F18000.000
G1 X94.799 Y113.735
;TYPE:Perimeter
G1 F900.000
G1 X95.367 Y113.575 E1.03888
G1 X95.826 Y113.524 E1.04878
G1 X96.378 Y113.537 E1.06061
G1 X96.881 Y113.630 E1.07159
G1 X97.362 Y113.794 E1.08250
G1 X97.815 Y114.027 E1.09340
G1 X98.228 Y114.323 E1.10431
G1 X98.594 Y114.675 E1.11522
G1 X98.905 Y115.078 E1.12613
G1 X99.131 Y115.480 E1.13603
G1 X99.335 Y115.993 E1.14786
G1 X99.446 Y116.493 E1.15884
G1 X99.483 Y117.000 E1.16975
G1 X99.446 Y117.507 E1.18065
G1 X99.336 Y118.004 E1.19156
G1 X99.154 Y118.479 E1.20247
G1 X98.905 Y118.922 E1.21338
G1 X98.623 Y119.287 E1.22328
G1 X98.231 Y119.676 E1.23511
G1 X97.815 Y119.973 E1.24609
G1 X97.362 Y120.206 E1.25700
G1 X96.926 Y120.355 E1.26690
G1 X96.384 Y120.462 E1.27873
G1 X95.873 Y120.481 E1.28971
G1 X95.367 Y120.425 E1.30062
G1 X94.921 Y120.309 E1.31052
G1 X94.410 Y120.100 E1.32235
G1 X93.973 Y119.833 E1.33333
G1 X93.582 Y119.508 E1.34424
G1 X93.243 Y119.129 E1.35514
G1 X92.962 Y118.705 E1.36605
G1 X92.746 Y118.244 E1.37696
G1 X92.600 Y117.757 E1.38787
G1 X92.526 Y117.254 E1.39877
G1 X92.526 Y116.746 E1.40968
G1 X92.600 Y116.243 E1.42059
G1 X92.733 Y115.801 E1.43049
G1 X92.961 Y115.298 E1.44233
G1 X93.243 Y114.871 E1.45330
G1 X93.582 Y114.492 E1.46421
G1 X93.973 Y114.167 E1.47512
G1 X94.407 Y113.902 E1.48602
G1 X94.744 Y113.759 E1.49388
G1 X94.776 Y113.412 F18000.000
G1 F900.000
G1 X95.311 Y113.272 E1.50575
G1 X95.813 Y113.217 E1.51657
G1 X96.409 Y113.231 E1.52937
G1 X96.959 Y113.332 E1.54135
G1 X97.483 Y113.511 E1.55322
G1 X97.975 Y113.764 E1.56510
G1 X98.425 Y114.086 E1.57697
G1 X98.824 Y114.470 E1.58884
G1 X99.162 Y114.908 E1.60071
G1 X99.409 Y115.348 E1.61153
G1 X99.629 Y115.903 E1.62433
G1 X99.751 Y116.448 E1.63632
G1 X99.791 Y117.000 E1.64819
G1 X99.751 Y117.552 E1.66006
G1 X99.631 Y118.092 E1.67193
G1 X99.433 Y118.609 E1.68380
G1 X99.162 Y119.092 E1.69567
G1 X98.854 Y119.491 E1.70649
G1 X98.429 Y119.911 E1.71929
G1 X97.975 Y120.236 E1.73128
G1 X97.483 Y120.489 E1.74315
G1 X97.005 Y120.652 E1.75397
G1 X96.420 Y120.768 E1.76677
G1 X95.862 Y120.789 E1.77875
G1 X95.311 Y120.728 E1.79063
G1 X94.823 Y120.601 E1.80145
G1 X94.271 Y120.374 E1.81425
G1 X93.794 Y120.083 E1.82623
G1 X93.369 Y119.729 E1.83810
G1 X92.999 Y119.317 E1.84997
G1 X92.694 Y118.856 E1.86185
G1 X92.459 Y118.354 E1.87372
G1 X92.299 Y117.824 E1.88559
G1 X92.219 Y117.277 E1.89746
G1 X92.219 Y116.723 E1.90933
G1 X92.299 Y116.176 E1.92120
G1 X92.445 Y115.693 E1.93202
G1 X92.691 Y115.149 E1.94482
G1 X92.999 Y114.683 E1.95681
G1 X93.369 Y114.271 E1.96868
G1 X93.794 Y113.917 E1.98055
G1 X94.266 Y113.628 E1.99242
G1 X94.721 Y113.435 E2.00301
G1 E1.65301 F3600.000
;WIPE_START
G1 F14400.000
G1 X95.299 Y113.275 E1.51051
;WIPE_END
G1 E1.50301 F3600.000
G92 E0
G1 X120.833 Y116.768 F18000.000
G1 E0.60000 F2400.000
;TYPE:External perimeter
G1 F900.000
G1 X120.901 Y116.310 E0.60994
G1 X121.021 Y115.909 E0.61892
G1 X121.230 Y115.447 E0.62980
G1 X121.487 Y115.059 E0.63976
G1 X121.796 Y114.714 E0.64971
G1 X122.152 Y114.417 E0.65965
G1 X122.548 Y114.176 E0.66959
G1 X122.975 Y113.995 E0.67954
G1 X123.423 Y113.877 E0.68948
G1 X123.839 Y113.832 E0.69846
G1 X124.346 Y113.843 E0.70933
G1 X124.803 Y113.928 E0.71930
G1 X125.242 Y114.077 E0.72924
G1 X125.654 Y114.289 E0.73919
G1 X126.031 Y114.559 E0.74913
G1 X126.365 Y114.881 E0.75907
G1 X126.648 Y115.248 E0.76902
G1 X126.875 Y115.652 E0.77896
G1 X127.041 Y116.085 E0.78890
G1 X127.142 Y116.538 E0.79885
G1 X127.175 Y117.000 E0.80879
G1 X127.142 Y117.462 E0.81873
G1 X127.041 Y117.915 E0.82868
G1 X126.875 Y118.348 E0.83862
G1 X126.648 Y118.752 E0.84856
G1 X126.392 Y119.083 E0.85754
G1 X126.032 Y119.440 E0.86841
M73 P2 R29
M73 Q2 S29
G1 X125.654 Y119.711 E0.87838
G1 X125.242 Y119.923 E0.88833
G1 X124.846 Y120.058 E0.89730
G1 X124.348 Y120.156 E0.90818
G1 X123.884 Y120.173 E0.91815
G1 X123.423 Y120.123 E0.92809
G1 X122.975 Y120.005 E0.93803
G1 X122.548 Y119.824 E0.94798
G1 X122.152 Y119.583 E0.95792
G1 X121.796 Y119.286 E0.96786
G1 X121.487 Y118.941 E0.97781
G1 X121.231 Y118.554 E0.98775
G1 X121.034 Y118.134 E0.99769
G1 X120.901 Y117.690 E1.00764
G1 X120.833 Y117.232 E1.01758
G1 X120.833 Y116.828 E1.02624
G1 X120.502 Y116.543 F18000.000
G1 X120.526 Y116.828
;TYPE:Perimeter
G1 F900.000
G1 X120.600 Y116.243 E1.03890
G1 X120.733 Y115.801 E1.04879
G1 X120.961 Y115.298 E1.06063
G1 X121.243 Y114.871 E1.07161
G1 X121.582 Y114.492 E1.08252
G1 X121.973 Y114.167 E1.09342
G1 X122.407 Y113.902 E1.10433
G1 X122.875 Y113.703 E1.11524
G1 X123.367 Y113.575 E1.12615
G1 X123.826 Y113.524 E1.13604
G1 X124.378 Y113.537 E1.14788
G1 X124.881 Y113.630 E1.15886
G1 X125.362 Y113.794 E1.16977
G1 X125.815 Y114.027 E1.18067
G1 X126.228 Y114.323 E1.19158
G1 X126.594 Y114.675 E1.20249
G1 X126.905 Y115.078 E1.21339
G1 X127.154 Y115.521 E1.22430
G1 X127.336 Y115.996 E1.23521
G1 X127.446 Y116.493 E1.24612
G1 X127.483 Y117.000 E1.25702
G1 X127.446 Y117.507 E1.26793
G1 X127.336 Y118.004 E1.27884
G1 X127.154 Y118.479 E1.28975
G1 X126.905 Y118.922 E1.30065
G1 X126.623 Y119.287 E1.31055
G1 X126.231 Y119.676 E1.32239
G1 X125.815 Y119.973 E1.33337
G1 X125.362 Y120.206 E1.34427
G1 X124.926 Y120.355 E1.35417
G1 X124.384 Y120.462 E1.36601
G1 X123.873 Y120.481 E1.37699
G1 X123.367 Y120.425 E1.38789
G1 X122.875 Y120.297 E1.39880
G1 X122.407 Y120.098 E1.40971
G1 X121.973 Y119.833 E1.42062
G1 X121.582 Y119.508 E1.43152
G1 X121.243 Y119.129 E1.44243
G1 X120.962 Y118.705 E1.45334
G1 X120.746 Y118.244 E1.46425
G1 X120.600 Y117.757 E1.47515
G1 X120.526 Y117.254 E1.48606
G1 X120.526 Y116.888 E1.49391
G1 X120.219 Y116.723 F18000.000
G1 F900.000
G1 X120.299 Y116.176 E1.50578
G1 X120.445 Y115.693 E1.51660
G1 X120.691 Y115.149 E1.52940
G1 X120.999 Y114.683 E1.54139
G1 X121.369 Y114.271 E1.55326
G1 X121.794 Y113.917 E1.56513
G1 X122.266 Y113.628 E1.57700
G1 X122.776 Y113.412 E1.58887
G1 X123.311 Y113.272 E1.60075
G1 X123.813 Y113.217 E1.61157
G1 X124.409 Y113.231 E1.62437
G1 X124.959 Y113.332 E1.63635
G1 X125.483 Y113.511 E1.64822
G1 X125.975 Y113.764 E1.66009
G1 X126.425 Y114.086 E1.67197
G1 X126.824 Y114.470 E1.68384
G1 X127.162 Y114.908 E1.69571
G1 X127.433 Y115.391 E1.70758
G1 X127.631 Y115.908 E1.71945
G1 X127.751 Y116.448 E1.73132
G1 X127.791 Y117.000 E1.74319
G1 X127.751 Y117.552 E1.75507
G1 X127.631 Y118.092 E1.76694
G1 X127.433 Y118.609 E1.77881
G1 X127.162 Y119.092 E1.79068
G1 X126.854 Y119.491 E1.80150
G1 X126.429 Y119.911 E1.81430
G1 X125.975 Y120.236 E1.82629
G1 X125.483 Y120.489 E1.83816
G1 X125.005 Y120.652 E1.84898
G1 X124.420 Y120.768 E1.86178
G1 X123.862 Y120.789 E1.87376
G1 X123.311 Y120.728 E1.88563
G1 X122.776 Y120.588 E1.89751
G1 X122.266 Y120.372 E1.90938
G1 X121.794 Y120.083 E1.92125
G1 X121.369 Y119.729 E1.93312
G1 X120.999 Y119.317 E1.94499
G1 X120.694 Y118.856 E1.95686
G1 X120.459 Y118.354 E1.96873
G1 X120.299 Y117.824 E1.98061
G1 X120.219 Y117.277 E1.99248
G1 X120.219 Y116.783 E2.00306
G1 E1.65306 F3600.000
;WIPE_START
G1 F14400.000
G1 X120.298 Y116.188 E1.51056
;WIPE_END
G1 E1.50306 F3600.000
G92 E0
G1 X129.494 Y96.881 F18000.000
G1 E0.60000 F2400.000
;TYPE:Solid infill
;WIDTH:0.351947
G1 F1800.000
G1 X129.981 Y97.368 E0.61486
G1 X129.981 Y97.805 E0.62429
G1 X129.195 Y97.019 E0.64827
G1 X128.758 Y97.019 E0.65770
G1 X129.981 Y98.242 E0.69502
G1 X129.981 Y98.679 E0.70446
G1 X128.321 Y97.019 E0.75512
G1 X127.884 Y97.019 E0.76455
G1 X129.981 Y99.116 E0.82855
G1 X129.981 Y99.553 E0.83798
G1 X127.447 Y97.019 E0.91532
G1 X127.010 Y97.019 E0.92476
G1 X129.981 Y99.990 E1.01544
G1 X129.981 Y100.427 E1.02487
G1 X126.573 Y97.019 E1.12889
G1 X126.136 Y97.019 E1.13832
G1 X129.981 Y100.864 E1.25569
G1 X129.981 Y101.301 E1.26512
G1 X125.699 Y97.019 E1.39582
G1 X125.262 Y97.019 E1.40525
G1 X129.981 Y101.738 E1.54930
G1 X129.981 Y102.175 E1.55873
G1 X124.825 Y97.019 E1.71611
G1 X124.388 Y97.019 E1.72554
G1 X129.981 Y102.612 E1.89627
G1 X129.981 Y103.049 E1.90570
G1 X123.951 Y97.019 E2.08976
G1 X123.514 Y97.019 E2.09920
G1 X129.981 Y103.486 E2.29660
G1 X129.981 Y103.923 E2.30603
G1 X123.077 Y97.019 E2.51678
G1 X122.640 Y97.019 E2.52621
G1 X129.981 Y104.360 E2.75029
G1 X129.981 Y104.798 E2.75973
G1 X122.202 Y97.019 E2.99715
G1 X121.765 Y97.019 E3.00658
G1 X129.981 Y105.235 E3.25735
G1 X129.981 Y105.672 E3.26678
G1 X121.328 Y97.019 E3.53089
G1 X120.891 Y97.019 E3.54032
G1 X129.981 Y106.109 E3.81777
G1 X129.981 Y106.546 E3.82720
G1 X120.454 Y97.019 E4.11798
G1 X120.017 Y97.019 E4.12742
G1 X129.981 Y106.983 E4.43154
G1 X129.981 Y107.420 E4.44098
G1 X119.580 Y97.019 E4.75844
G1 X119.143 Y97.019 E4.76788
G1 X129.981 Y107.857 E5.09868
G1 X129.981 Y108.294 E5.10812
G1 X118.706 Y97.019 E5.45226
G1 X118.269 Y97.019 E5.46170
G1 X129.981 Y108.731 E5.81918
G1 X129.981 Y109.168 E5.82862
G1 X117.832 Y97.019 E6.19944
G1 X117.395 Y97.019 E6.20888
G1 X129.981 Y109.605 E6.59305
G1 X129.981 Y110.042 E6.60248
G1 X116.958 Y97.019 E6.99999
G1 X116.521 Y97.019 E7.00942
G1 X129.981 Y110.479 E7.42027
G1 X129.981 Y110.916 E7.42970
G1 X116.084 Y97.019 E7.85389
G1 X115.647 Y97.019 E7.86332
G1 X129.981 Y111.353 E8.30085
G1 X129.981 Y111.790 E8.31029
G1 X115.210 Y97.019 E8.76115
M73 P3 R29
M73 Q3 S29
G1 X114.773 Y97.019 E8.77059
G1 X129.981 Y112.227 E9.23480
G1 X129.981 Y112.664 E9.24423
G1 X114.336 Y97.019 E9.72178
G1 X113.899 Y97.019 E9.73121
G1 X129.981 Y113.101 E10.22210
G1 X129.981 Y113.538 E10.23154
G1 X113.462 Y97.019 E10.73577
G1 X113.025 Y97.019 E10.74520
G1 X129.981 Y113.975 E11.26277
G1 X129.981 Y114.412 E11.27221
G1 X112.588 Y97.019 E11.80312
G1 X112.151 Y97.019 E11.81255
G1 X129.981 Y114.849 E12.35680
G1 X129.981 Y115.286 E12.36623
G1 X111.714 Y97.019 E12.92383
G1 X111.277 Y97.019 E12.93326
