; generated by PrusaSlicer 2.3.0+win64 on 2021-03-03 at 17:59:16 UTC

; 

; external perimeters extrusion width = 0.45mm
; perimeters extrusion width = 0.45mm
; infill extrusion width = 0.45mm
; solid infill extrusion width = 0.45mm
; top infill extrusion width = 0.40mm
; first layer extrusion width = 0.30mm

M73 P0 R10
M73 Q0 S10
M201 X500 Y500 Z100 E5000 ; sets maximum accelerations, mm/sec^2
M203 X500 Y500 Z10 E60 ; sets maximum feedrates, mm/sec
M204 P500 R1000 T500 ; sets acceleration (P, T) and retract acceleration (R), mm/sec^2
M205 X8.00 Y8.00 Z0.40 E5.00 ; sets the jerk limits, mm/sec
M205 S0 T0 ; sets the minimum extruding and travel feed rate, mm/sec
M107
;TYPE:Custom
G90 ; use absolute coordinates
M83 ; extruder relative mode
M104 S195 ; set extruder temp
M140 S45 ; set bed temp
M190 S45 ; wait for bed temp
M109 S195 ; wait for extruder temp
M204 S600 ;acceleration
M220 S100 ;Reset Feedrate
M221 S100 ;Reset Flowrate
G28 ; home all
G29
G1 Z2 F240
G1 X2 Y10 F3000
G1 Z0.28 F240
G92 E0.0
G1 Y190 E15.0 F1500.0 ; intro line
M73 P1 R10
M73 Q1 S10
G1 X2.3 F5000
G1 Y10 E30 F1200.0 ; intro line
G92 E0.0
G21 ; set units to millimeters
G90 ; use absolute coordinates
M82 ; use absolute distances for extrusion
G92 E0
; Filament gcode
;LAYER_CHANGE
;Z:0.2
;HEIGHT:0.2
;BEFORE_LAYER_CHANGE
M117 INDICATOR-Layer1
;0.2


M73 P2 R10
M73 Q2 S10
G1 E-0.50000 F3600.000
G92 E0
G1 Z0.200 F18000.000
;AFTER_LAYER_CHANGE
;0.2
G1 X90.877 Y72.175
M73 P3 R10
M73 Q3 S10
G1 E0.58000 F2400.000
;TYPE:Perimeter
;WIDTH:0.3
G1 F540.000
G1 X91.183 Y71.854 E0.58778
G1 X91.545 Y71.596 E0.59556
G1 X91.949 Y71.412 E0.60334
G1 X92.380 Y71.307 E0.61113
G1 X92.597 Y71.287 E0.61494
G1 X92.849 Y71.290 E0.61936
G1 X93.277 Y71.353 E0.62694
G1 X93.682 Y71.495 E0.63447
G1 X93.880 Y71.596 E0.63837
G1 X94.241 Y71.854 E0.64615
G1 X94.548 Y72.175 E0.65393
G1 X94.788 Y72.549 E0.66171
G1 X94.953 Y72.961 E0.66949
G1 X95.037 Y73.397 E0.67727
G1 X95.037 Y73.841 E0.68506
G1 X94.953 Y74.276 E0.69284
G1 X94.788 Y74.689 E0.70062
G1 X94.548 Y75.062 E0.70840
G1 X94.241 Y75.383 E0.71618
G1 X93.880 Y75.641 E0.72396
G1 X93.476 Y75.825 E0.73174
G1 X93.045 Y75.930 E0.73952
G1 X92.601 Y75.951 E0.74731
G1 X92.162 Y75.888 E0.75509
G1 X91.742 Y75.743 E0.76287
G1 X91.358 Y75.521 E0.77065
G1 X91.022 Y75.230 E0.77843
G1 X90.748 Y74.881 E0.78621
G1 X90.544 Y74.486 E0.79399
G1 X90.419 Y74.060 E0.80178
G1 X90.377 Y73.619 E0.80956
G1 X90.419 Y73.177 E0.81734
G1 X90.544 Y72.751 E0.82512
G1 X90.637 Y72.549 E0.82902
G1 X90.842 Y72.224 E0.83575
G1 X90.633 Y72.075 F18000.000
G1 F540.000
G1 X90.836 Y71.830 E0.84133
G1 X91.015 Y71.659 E0.84566
G1 X91.416 Y71.373 E0.85430
G1 X91.864 Y71.169 E0.86294
G1 X92.343 Y71.053 E0.87157
G1 X92.586 Y71.029 E0.87585
G1 X92.870 Y71.033 E0.88082
G1 X93.332 Y71.102 E0.88901
G1 X93.789 Y71.260 E0.89750
G1 X94.216 Y71.507 E0.90614
G1 X94.589 Y71.830 E0.91477
G1 X94.893 Y72.217 E0.92341
G1 X95.119 Y72.655 E0.93205
G1 X95.258 Y73.128 E0.94069
G1 X95.305 Y73.619 E0.94933
G1 X95.258 Y74.109 E0.95797
G1 X95.200 Y74.349 E0.96229
G1 X95.017 Y74.807 E0.97093
G1 X94.750 Y75.221 E0.97957
G1 X94.410 Y75.578 E0.98821
G1 X94.009 Y75.864 E0.99685
G1 X93.560 Y76.068 E1.00549
G1 X93.081 Y76.185 E1.01413
G1 X92.589 Y76.208 E1.02277
G1 X92.101 Y76.138 E1.03141
G1 X91.635 Y75.977 E1.04005
G1 X91.209 Y75.730 E1.04869
G1 X90.836 Y75.408 E1.05732
G1 X90.531 Y75.020 E1.06596
G1 X90.306 Y74.582 E1.07460
G1 X90.167 Y74.109 E1.08324
G1 X90.120 Y73.619 E1.09188
G1 X90.167 Y73.128 E1.10052
G1 X90.306 Y72.655 E1.10916
G1 X90.408 Y72.431 E1.11348
G1 X90.598 Y72.124 E1.11981
G1 X90.388 Y71.975 F18000.000
;TYPE:External perimeter
G1 F540.000
G1 X90.650 Y71.652 E1.12709
G1 X90.846 Y71.465 E1.13184
G1 X91.059 Y71.297 E1.13659
G1 X91.287 Y71.151 E1.14135
G1 X91.528 Y71.026 E1.14610
G1 X91.780 Y70.925 E1.15086
G1 X92.040 Y70.849 E1.15561
G1 X92.307 Y70.798 E1.16036
G1 X92.576 Y70.772 E1.16510
G1 X92.890 Y70.776 E1.17062
G1 X93.387 Y70.850 E1.17942
G1 X93.644 Y70.925 E1.18412
G1 X93.896 Y71.026 E1.18887
G1 X94.137 Y71.151 E1.19363
G1 X94.365 Y71.297 E1.19838
G1 X94.579 Y71.465 E1.20313
G1 X94.775 Y71.652 E1.20789
G1 X94.952 Y71.857 E1.21264
G1 X95.110 Y72.078 E1.21739
G1 X95.245 Y72.313 E1.22215
G1 X95.358 Y72.559 E1.22690
G1 X95.447 Y72.816 E1.23166
G1 X95.511 Y73.079 E1.23641
G1 X95.549 Y73.348 E1.24116
G1 X95.562 Y73.619 E1.24592
G1 X95.549 Y73.889 E1.25067
G1 X95.511 Y74.158 E1.25542
G1 X95.447 Y74.421 E1.26018
G1 X95.358 Y74.678 E1.26493
G1 X95.245 Y74.924 E1.26969
G1 X95.110 Y75.159 E1.27444
G1 X94.952 Y75.380 E1.27919
G1 X94.775 Y75.585 E1.28395
G1 X94.579 Y75.772 E1.28870
G1 X94.365 Y75.940 E1.29345
G1 X94.137 Y76.087 E1.29821
G1 X93.896 Y76.211 E1.30296
G1 X93.644 Y76.312 E1.30772
G1 X93.384 Y76.388 E1.31247
G1 X93.118 Y76.439 E1.31722
G1 X92.848 Y76.465 E1.32198
G1 X92.577 Y76.465 E1.32673
G1 X92.307 Y76.439 E1.33148
G1 X92.040 Y76.388 E1.33624
G1 X91.780 Y76.312 E1.34099
G1 X91.528 Y76.211 E1.34575
G1 X91.287 Y76.087 E1.35050
G1 X91.059 Y75.940 E1.35525
G1 X90.846 Y75.772 E1.36001
G1 X90.650 Y75.585 E1.36476
G1 X90.472 Y75.380 E1.36951
G1 X90.315 Y75.159 E1.37427
G1 X90.179 Y74.924 E1.37902
G1 X90.067 Y74.678 E1.38378
G1 X89.978 Y74.421 E1.38853
G1 X89.914 Y74.158 E1.39328
G1 X89.875 Y73.889 E1.39804
G1 X89.862 Y73.619 E1.40279
G1 X89.875 Y73.348 E1.40754
G1 X89.914 Y73.079 E1.41230
M73 P4 R10
M73 Q4 S10
G1 X89.978 Y72.816 E1.41705
G1 X90.067 Y72.559 E1.42181
G1 X90.179 Y72.313 E1.42656
G1 X90.354 Y72.024 E1.43248
G1 X90.786 Y72.014 F18000.000
G1 E1.08248 F3600.000
;WIPE_START
G1 F14400.000
G1 X90.650 Y71.652 E0.96963
G1 X90.740 Y71.566 E0.93998
;WIPE_END
G1 E0.93248 F3600.000
G92 E0
G1 X94.737 Y72.629 F18000.000
G1 E0.58000 F2400.000
;TYPE:Solid infill
;WIDTH:0.30967
G1 F1800.000
G1 X94.092 Y71.984 E0.59659
G1 X93.783 Y71.764 E0.60349
G1 X93.408 Y71.593 E0.61098
G1 X93.288 Y71.558 E0.61325
G1 X94.772 Y73.041 E0.65141
G1 X94.844 Y73.491 E0.65969
G1 X92.836 Y71.483 E0.71133
G1 X92.469 Y71.492 E0.71802
G1 X94.837 Y73.860 E0.77893
G1 X94.776 Y74.177 E0.78479
G1 X92.158 Y71.559 E0.85211
G1 X92.012 Y71.595 E0.85485
G1 X91.878 Y71.656 E0.85753
G1 X94.674 Y74.453 E0.92947
G1 X94.616 Y74.600 E0.93234
G1 X94.549 Y74.704 E0.93460
G1 X91.622 Y71.778 E1.00987
G1 X91.402 Y71.935 E1.01479
G1 X94.401 Y74.934 E1.09193
G1 X94.218 Y75.128 E1.09679
G1 X91.203 Y72.113 E1.17435
G1 X91.021 Y72.308 E1.17921
G1 X94.018 Y75.306 E1.25631
G1 X93.798 Y75.462 E1.26123
G1 X90.873 Y72.538 E1.33646
G1 X90.809 Y72.637 E1.33862
G1 X90.748 Y72.790 E1.34160
G1 X93.542 Y75.583 E1.41346
M73 P4 R9
M73 Q4 S9
G1 X93.413 Y75.642 E1.41604
G1 X93.260 Y75.679 E1.41889
G1 X90.648 Y73.067 E1.48609
G1 X90.587 Y73.383 E1.49195
G1 X92.945 Y75.742 E1.55261
G1 X92.580 Y75.753 E1.55927
G1 X90.581 Y73.754 E1.61069
G1 X90.654 Y74.205 E1.61900
G1 X92.118 Y75.669 E1.65664
G1 X91.823 Y75.566 E1.66233
G1 X91.470 Y75.363 E1.66973
G1 X91.206 Y75.134 E1.67608
G1 X90.693 Y74.621 E1.68929
G1 E1.33929 F3600.000
;WIPE_START
G1 F14400.000
G1 X91.117 Y75.045 E1.19679
;WIPE_END
G1 E1.18929 F3600.000
G92 E0
G1 X84.818 Y76.527 F18000.000
G1 E0.58000 F2400.000
;TYPE:Perimeter
;WIDTH:0.3
G1 F540.000
G1 X84.902 Y76.963 E0.58778
G1 X84.902 Y77.407 E0.59556
G1 X84.818 Y77.843 E0.60334
G1 X84.653 Y78.255 E0.61113
G1 X84.413 Y78.629 E0.61891
G1 X84.106 Y78.950 E0.62669
G1 X83.932 Y79.087 E0.63058
G1 X83.547 Y79.309 E0.63837
G1 X83.128 Y79.454 E0.64615
G1 X82.688 Y79.518 E0.65393
G1 X82.245 Y79.496 E0.66171
G1 X81.813 Y79.392 E0.66949
G1 X81.410 Y79.207 E0.67727
G1 X81.048 Y78.950 E0.68505
G1 X80.742 Y78.629 E0.69283
G1 X80.502 Y78.255 E0.70062
G1 X80.337 Y77.843 E0.70840
G1 X80.253 Y77.407 E0.71618
G1 X80.253 Y76.963 E0.72396
G1 X80.337 Y76.527 E0.73174
G1 X80.502 Y76.115 E0.73952
G1 X80.742 Y75.742 E0.74730
G1 X81.048 Y75.420 E0.75509
G1 X81.410 Y75.163 E0.76287
G1 X81.813 Y74.978 E0.77065
G1 X82.245 Y74.874 E0.77843
G1 X82.462 Y74.853 E0.78225
G1 X82.714 Y74.856 E0.78667
G1 X83.142 Y74.920 E0.79425
G1 X83.547 Y75.061 E0.80178
G1 X83.932 Y75.283 E0.80956
G1 X84.267 Y75.574 E0.81734
G1 X84.542 Y75.923 E0.82512
G1 X84.653 Y76.115 E0.82902
G1 X84.798 Y76.471 E0.83575
G1 X85.041 Y76.386 F18000.000
G1 F540.000
G1 X85.123 Y76.694 E0.84133
G1 X85.158 Y76.939 E0.84566
G1 X85.158 Y77.432 E0.85430
G1 X85.065 Y77.915 E0.86294
G1 X84.881 Y78.373 E0.87157
G1 X84.615 Y78.788 E0.88021
G1 X84.275 Y79.144 E0.88885
G1 X83.873 Y79.430 E0.89749
G1 X83.425 Y79.635 E0.90613
G1 X82.946 Y79.751 E0.91477
G1 X82.454 Y79.775 E0.92341
G1 X81.966 Y79.704 E0.93205
G1 X81.500 Y79.543 E0.94069
G1 X81.073 Y79.297 E0.94933
G1 X80.701 Y78.974 E0.95797
G1 X80.539 Y78.788 E0.96229
G1 X80.273 Y78.373 E0.97093
G1 X80.090 Y77.915 E0.97957
M73 P5 R9
M73 Q5 S9
G1 X79.996 Y77.432 E0.98821
G1 X79.996 Y76.939 E0.99685
G1 X80.090 Y76.455 E1.00549
G1 X80.273 Y75.997 E1.01412
G1 X80.539 Y75.583 E1.02276
G1 X80.879 Y75.226 E1.03140
G1 X81.281 Y74.940 E1.04004
G1 X81.729 Y74.735 E1.04868
G1 X82.208 Y74.619 E1.05732
G1 X82.451 Y74.596 E1.06160
G1 X82.735 Y74.600 E1.06657
G1 X83.197 Y74.668 E1.07476
G1 X83.654 Y74.827 E1.08324
G1 X84.081 Y75.073 E1.09188
G1 X84.453 Y75.396 E1.10052
G1 X84.758 Y75.783 E1.10916
G1 X84.881 Y75.997 E1.11348
G1 X85.021 Y76.330 E1.11981
G1 X85.264 Y76.246 F18000.000
;TYPE:External perimeter
G1 F540.000
G1 X85.376 Y76.646 E1.12709
G1 X85.414 Y76.914 E1.13184
G1 X85.427 Y77.185 E1.13659
G1 X85.414 Y77.456 E1.14135
G1 X85.376 Y77.724 E1.14610
G1 X85.312 Y77.988 E1.15086
G1 X85.223 Y78.244 E1.15561
G1 X85.110 Y78.491 E1.16036
G1 X84.975 Y78.726 E1.16512
G1 X84.817 Y78.947 E1.16987
G1 X84.640 Y79.152 E1.17462
G1 X84.443 Y79.339 E1.17938
G1 X84.230 Y79.506 E1.18413
G1 X84.002 Y79.653 E1.18889
G1 X83.761 Y79.777 E1.19364
G1 X83.509 Y79.878 E1.19839
G1 X83.249 Y79.955 E1.20315
G1 X82.983 Y80.006 E1.20790
G1 X82.713 Y80.032 E1.21265
G1 X82.442 Y80.032 E1.21741
G1 X82.172 Y80.006 E1.22216
G1 X81.905 Y79.955 E1.22692
G1 X81.645 Y79.878 E1.23167
G1 X81.393 Y79.777 E1.23642
G1 X81.152 Y79.653 E1.24118
G1 X80.924 Y79.506 E1.24593
G1 X80.711 Y79.339 E1.25068
G1 X80.515 Y79.152 E1.25544
G1 X80.337 Y78.947 E1.26019
G1 X80.180 Y78.726 E1.26495
G1 X80.044 Y78.491 E1.26970
G1 X79.932 Y78.244 E1.27445
G1 X79.843 Y77.988 E1.27921
G1 X79.779 Y77.724 E1.28396
G1 X79.740 Y77.456 E1.28871
G1 X79.727 Y77.185 E1.29347
G1 X79.740 Y76.914 E1.29822
G1 X79.779 Y76.646 E1.30298
G1 X79.843 Y76.382 E1.30773
G1 X79.932 Y76.126 E1.31248
G1 X80.044 Y75.879 E1.31724
G1 X80.180 Y75.644 E1.32199
G1 X80.337 Y75.423 E1.32674
G1 X80.515 Y75.218 E1.33150
G1 X80.711 Y75.031 E1.33625
G1 X80.924 Y74.864 E1.34101
G1 X81.152 Y74.717 E1.34576
G1 X81.393 Y74.593 E1.35051
G1 X81.645 Y74.492 E1.35527
G1 X81.905 Y74.416 E1.36002
G1 X82.172 Y74.364 E1.36477
G1 X82.441 Y74.339 E1.36951
G1 X82.755 Y74.343 E1.37503
G1 X83.252 Y74.416 E1.38383
G1 X83.509 Y74.492 E1.38853
G1 X83.761 Y74.593 E1.39328
G1 X84.002 Y74.717 E1.39804
G1 X84.230 Y74.864 E1.40279
G1 X84.443 Y75.031 E1.40754
G1 X84.640 Y75.218 E1.41230
G1 X84.817 Y75.423 E1.41705
G1 X84.975 Y75.644 E1.42181
G1 X85.110 Y75.879 E1.42656
G1 X85.245 Y76.189 E1.43248
G1 X85.002 Y76.547 F18000.000
G1 X84.602 Y76.196
;TYPE:Solid infill
;WIDTH:0.30967
G1 F1800.000
G1 X83.957 Y75.551 E1.44907
G1 X83.648 Y75.331 E1.45597
G1 X83.273 Y75.160 E1.46346
G1 X83.153 Y75.124 E1.46573
G1 X84.637 Y76.608 E1.50389
G1 X84.709 Y77.057 E1.51217
G1 X82.701 Y75.050 E1.56381
G1 X82.334 Y75.059 E1.57050
G1 X84.702 Y77.427 E1.63141
G1 X84.641 Y77.743 E1.63727
G1 X82.023 Y75.126 E1.70459
G1 X81.877 Y75.161 E1.70733
G1 X81.743 Y75.223 E1.71001
G1 X84.539 Y78.019 E1.78194
G1 X84.481 Y78.166 E1.78482
G1 X84.414 Y78.271 E1.78708
G1 X81.487 Y75.344 E1.86235
G1 X81.267 Y75.501 E1.86727
G1 X84.266 Y78.500 E1.94441
G1 X84.083 Y78.695 E1.94926
G1 X81.068 Y75.679 E2.02683
G1 X80.886 Y75.874 E2.03168
G1 X83.883 Y78.872 E2.10879
G1 X83.663 Y79.029 E2.11371
G1 X80.738 Y76.104 E2.18894
G1 X80.674 Y76.204 E2.19110
G1 X80.613 Y76.356 E2.19408
G1 X83.406 Y79.150 E2.26594
G1 X83.278 Y79.209 E2.26852
G1 X83.125 Y79.246 E2.27137
G1 X80.513 Y76.633 E2.33857
G1 X80.452 Y76.950 E2.34443
G1 X82.810 Y79.308 E2.40509
G1 X82.445 Y79.320 E2.41175
G1 X80.445 Y77.321 E2.46317
G1 X80.519 Y77.772 E2.47148
G1 X81.983 Y79.235 E2.50912
G1 X81.688 Y79.133 E2.51480
G1 X81.335 Y78.929 E2.52221
G1 X81.071 Y78.701 E2.52856
G1 X80.558 Y78.187 E2.54177
M106 S255
;LAYER_CHANGE
;Z:0.4
;HEIGHT:0.2
;BEFORE_LAYER_CHANGE
M117 INDICATOR-Layer2
;0.4


G1 E2.19177 F3600.000
;WIPE_START
G1 F14400.000
G1 X80.982 Y78.611 E2.04927
;WIPE_END
G1 E2.04177 F3600.000
G92 E0
G1 Z0.400 F18000.000
;AFTER_LAYER_CHANGE
;0.4
G1 X90.970 Y74.517
M73 P6 R9
M73 Q6 S9
G1 E0.58000 F2400.000
;TYPE:Perimeter
;WIDTH:0.45
G1 F900
G1 X90.832 Y74.171 E0.59034
G1 X90.761 Y73.805 E0.60068
G1 X90.761 Y73.432 E0.61102
G1 X90.832 Y73.066 E0.62136
G1 X90.970 Y72.721 E0.63170
G1 X91.172 Y72.407 E0.64204
G1 X91.429 Y72.138 E0.65238
G1 X91.732 Y71.921 E0.66273
G1 X92.071 Y71.767 E0.67307
G1 X92.433 Y71.679 E0.68341
G1 X92.603 Y71.663 E0.68812
G1 X92.898 Y71.672 E0.69633
G1 X93.190 Y71.719 E0.70454
G1 X93.353 Y71.767 E0.70926
G1 X93.692 Y71.921 E0.71960
G1 X93.996 Y72.138 E0.72994
G1 X94.253 Y72.407 E0.74028
G1 X94.454 Y72.721 E0.75062
G1 X94.593 Y73.066 E0.76096
G1 X94.663 Y73.432 E0.77130
G1 X94.663 Y73.805 E0.78164
G1 X94.593 Y74.171 E0.79198
G1 X94.454 Y74.517 E0.80232
G1 X94.253 Y74.830 E0.81266
G1 X93.996 Y75.100 E0.82300
G1 X93.692 Y75.316 E0.83335
G1 X93.353 Y75.470 E0.84369
G1 X92.991 Y75.558 E0.85403
G1 X92.619 Y75.576 E0.86437
G1 X92.250 Y75.523 E0.87471
G1 X91.898 Y75.401 E0.88505
G1 X91.576 Y75.215 E0.89539
G1 X91.442 Y75.110 E0.90011
G1 X91.235 Y74.899 E0.90831
G1 X91.000 Y74.569 E0.91956
G1 X90.648 Y74.772 F18000.000
G1 F900
G1 X90.515 Y74.498 E0.92801
G1 X90.441 Y74.286 E0.93426
G1 X90.356 Y73.844 E0.94675
G1 X90.356 Y73.394 E0.95924
G1 X90.441 Y72.952 E0.97173
G1 X90.608 Y72.534 E0.98422
G1 X90.852 Y72.155 E0.99671
G1 X91.162 Y71.830 E1.00921
G1 X91.529 Y71.569 E1.02170
G1 X91.938 Y71.382 E1.03419
G1 X92.375 Y71.275 E1.04668
G1 X92.590 Y71.255 E1.05265
G1 X92.937 Y71.266 E1.06230
G1 X93.280 Y71.321 E1.07194
G1 X93.487 Y71.382 E1.07791
G1 X93.896 Y71.569 E1.09041
G1 X94.262 Y71.830 E1.10290
G1 X94.573 Y72.155 E1.11539
G1 X94.816 Y72.534 E1.12788
G1 X94.984 Y72.952 E1.14037
G1 X95.069 Y73.394 E1.15286
G1 X95.069 Y73.844 E1.16535
G1 X94.984 Y74.285 E1.17784
G1 X94.816 Y74.703 E1.19033
G1 X94.573 Y75.082 E1.20283
G1 X94.262 Y75.408 E1.21532
G1 X93.896 Y75.669 E1.22781
G1 X93.487 Y75.856 E1.24030
G1 X93.049 Y75.962 E1.25279
G1 X92.600 Y75.983 E1.26528
G1 X92.154 Y75.919 E1.27777
G1 X91.729 Y75.772 E1.29026
G1 X91.339 Y75.547 E1.30275
G1 X91.170 Y75.414 E1.30873
G1 X90.926 Y75.166 E1.31837
G1 X90.678 Y74.824 E1.33011
G1 X90.325 Y75.028 F18000.000
;TYPE:External perimeter
G1 F900
G1 X90.136 Y74.650 E1.34183
G1 X90.050 Y74.400 E1.34916
G1 X89.988 Y74.144 E1.35649
G1 X89.950 Y73.882 E1.36382
G1 X89.938 Y73.619 E1.37115
G1 X89.950 Y73.355 E1.37848
G1 X89.988 Y73.093 E1.38581
G1 X90.050 Y72.837 E1.39314
G1 X90.136 Y72.587 E1.40046
G1 X90.246 Y72.347 E1.40779
G1 X90.378 Y72.118 E1.41512
G1 X90.531 Y71.903 E1.42245
G1 X90.704 Y71.704 E1.42978
G1 X90.895 Y71.522 E1.43711
G1 X91.103 Y71.358 E1.44444
G1 X91.325 Y71.216 E1.45177
G1 X91.560 Y71.095 E1.45910
G1 X91.805 Y70.996 E1.46643
G1 X92.058 Y70.922 E1.47376
G1 X92.317 Y70.872 E1.48108
G1 X92.577 Y70.847 E1.48831
G1 X92.976 Y70.860 E1.49940
G1 X93.370 Y70.923 E1.51048
G1 X93.865 Y71.095 E1.52502
G1 X94.100 Y71.216 E1.53235
G1 X94.322 Y71.358 E1.53968
G1 X94.529 Y71.522 E1.54701
G1 X94.720 Y71.704 E1.55433
G1 X94.893 Y71.903 E1.56166
G1 X95.047 Y72.118 E1.56899
G1 X95.179 Y72.347 E1.57632
G1 X95.288 Y72.587 E1.58365
G1 X95.375 Y72.837 E1.59098
G1 X95.437 Y73.093 E1.59831
G1 X95.474 Y73.355 E1.60564
G1 X95.487 Y73.619 E1.61297
G1 X95.474 Y73.882 E1.62030
G1 X95.437 Y74.144 E1.62763
G1 X95.375 Y74.400 E1.63495
G1 X95.288 Y74.650 E1.64228
G1 X95.179 Y74.890 E1.64961
G1 X95.047 Y75.119 E1.65694
G1 X94.893 Y75.334 E1.66427
G1 X94.720 Y75.533 E1.67160
G1 X94.529 Y75.716 E1.67893
G1 X94.322 Y75.879 E1.68626
